/* XPM */
static char *xpm_[] = {
/* columns rows colors chars-per-pixel */
"96 96 5 1 ",
"  c black",
". c #50505A",
"X c #8D0029",
"o c #FF273A",
"O c #FF8C8D",
/* pixels */
"................................................................................................",
"................................................................................................",
"................................................................................................",
"................................................................................................",
"................................................................................................",
"................................................................................................",
"................................................................................................",
"................................................................................................",
"................................................................................................",
"................................................................................................",
"................................................................................................",
"....................          ....................................          ....................",
"..................               ..............................               ..................",
".................                  ..........................                  .................",
"...............     XXXXXXXXX        ......................       XXXXXXXXX      ...............",
"...............    XXXooooooXXX       ....................      XXXXooooooXXX    ...............",
"..............   XXXoooooooooooXXX     ..................     XXXXooooooooooXXX   ..............",
"............     XXXooooooooooooXXX     ................     XXXoooooooooooooXX     ............",
"............    XXooooooooooooooooXX     ..............     XXXoooooooooooooooXX    ............",
"...........   XXXXoooooooooooooooooXX     ............     XXXoooooooooooooooooXXX   ...........",
".........     XXooooooooooooooooooooXX     ..........     XXXoooooooooooooooooooXX     .........",
".........    XXXoooooooooooooooooooooXX     ........     XXXoooooooooooooooooooooXX    .........",
"........   XXXooooooooooooooooooooooooXX     ......     XXXoooooooooooooooooooooooXXX   ........",
"........   XXXoooooooooooooooooooooooooXX     ....     XXXoooooooooooooooOOOOooooooXX   ........",
"........   XXXooooooooooooooooooooooooooXX     ..     XXXoooooooooooooooooOOOOooooooX   ........",
"........   XXXoooooooooooooooooooooooooooXX          XXXoooooooooooooooooooOOOOoooooX   ........",
"........   XXXooooooooooooooooooooooooooooXX        XXXoooooooooooooooooooooOOOoooooX   ........",
"........   XXXoooooooooooooooooooooooooooooXX      XXXoooooooooooooooooooooooOOoooooX   ........",
"........   XXXooooooooooooooooooooooooooooooXX    XXXoooooooooooooooooooooooooOoooooX   ........",
"........   XXXoooooooooooooooooooooooooooooooXX  XXXooooooooooooooooooooooooooOoooooX   ........",
"........   XXXooooooooooooooooooooooooooooooooXXXXXoooooooooooooooooooooooooooooooooX   ........",
"........   XXXoooooooooooooooooooooooooooooooooXXXooooooooooooooooooooooooooooooooooX   ........",
"........   XXXooooooooooooooooooooooooooooooooooooooooooooooooooooooooooooooooooooooX   ........",
"........   XXXooooooooooooooooooooooooooooooooooooooooooooooooooooooooooooooooooooooX   ........",
"........   XXXooooooooooooooooooooooooooooooooooooooooooooooooooooooooooooooooooooooX   ........",
"........   XXXooooooooooooooooooooooooooooooooooooooooooooooooooooooooooooooooooooooX   ........",
"........   XXXooooooooooooooooooooooooooooooooooooooooooooooooooooooooooooooooooooooX   ........",
"........   XXXooooooooooooooooooooooooooooooooooooooooooooooooooooooooooooooooooooooX   ........",
"........   XXXooooooooooooooooooooooooooooooooooooooooooooooooooooooooooooooooooooooX   ........",
"........   XXXooooooooooooooooooooooooooooooooooooooooooooooooooooooooooooooooooooooX   ........",
"........   XXXooooooooooooooooooooooooooooooooooooooooooooooooooooooooooooooooooooooX   ........",
"........   XXXooooooooooooooooooooooooooooooooooooooooooooooooooooooooooooooooooooooX   ........",
"........   XXXoooooooooooooooooooooooooooooooooooooooooooooooooooooooooooooooooooooXX   ........",
"........   XXXXXXoooooooooooooooooooooooooooooooooooooooooooooooooooooooooooooooooXXX   ........",
"........   XXXXXXoooooooooooooooooooooooooooooooooooooooooooooooooooooooooooooooooXXX   ........",
"........   XXXXXXoooooooooooooooooooooooooooooooooooooooooooooooooooooooooooooooooXXX   ........",
"........      XXXXXXoooooooooooooooooooooooooooooooooooooooooooooooooooooooooooXXX      ........",
"...........   XXXXXXoooooooooooooooooooooooooooooooooooooooooooooooooooooooooooXXX   ...........",
"...........   XXXXXXoooooooooooooooooooooooooooooooooooooooooooooooooooooooooooXXX   ...........",
"...........      XXXXXXoooooooooooooooooooooooooooooooooooooooooooooooooooooXXX      ...........",
"..............   XXXXXXoooooooooooooooooooooooooooooooooooooooooooooooooooooXXX   ..............",
"..............   XXXXXXoooooooooooooooooooooooooooooooooooooooooooooooooooooXXX   ..............",
"..............      XXXXXXoooooooooooooooooooooooooooooooooooooooooooooooXXX      ..............",
".................   XXXXXXoooooooooooooooooooooooooooooooooooooooooooooooXXX   .................",
".................   XXXXXXoooooooooooooooooooooooooooooooooooooooooooooooXXX   .................",
".................      XXXXXXoooooooooooooooooooooooooooooooooooooooooXXX      .................",
"....................   XXXXXXoooooooooooooooooooooooooooooooooooooooooXXX   ....................",
"....................   XXXXXXoooooooooooooooooooooooooooooooooooooooooXXX   ....................",
"....................      XXXXXXoooooooooooooooooooooooooooooooooooXXX      ....................",
".......................   XXXXXXoooooooooooooooooooooooooooooooooooXXX   .......................",
".......................   XXXXXXoooooooooooooooooooooooooooooooooooXXX   .......................",
".......................      XXXXXXoooooooooooooooooooooooooooooXXX      .......................",
"..........................   XXXXXXoooooooooooooooooooooooooooooXXX   ..........................",
"..........................   XXXXXXoooooooooooooooooooooooooooooXXX   ..........................",
"..........................      XXXXXXoooooooooooooooooooooooXXX      ..........................",
".............................   XXXXXXoooooooooooooooooooooooXXX   .............................",
".............................   XXXXXXoooooooooooooooooooooooXXX   .............................",
".............................      XXXXXXoooooooooooooooooXXX      .............................",
"................................   XXXXXXoooooooooooooooooXXX   ................................",
"................................   XXXXXXoooooooooooooooooXXX   ................................",
"................................      XXXXXXoooooooooooXXX      ................................",
"...................................   XXXXXXoooooooooooXXX   ...................................",
"...................................   XXXXXXoooooooooooXXX   ...................................",
"...................................      XXXXXXoooooXXX      ...................................",
"......................................   XXXXXXoooooXXX   ......................................",
"......................................   XXXXXXoooooXXX   ......................................",
"......................................      XXXXXXXX      ......................................",
".........................................   XXXXXXXX   .........................................",
".........................................   XXXXXXXX   .........................................",
".........................................      XX      .........................................",
"............................................   XX   ............................................",
"............................................   XX   ............................................",
"............................................        ............................................",
"..............................................    ..............................................",
"..............................................    ..............................................",
"...............................................  ...............................................",
"................................................................................................",
"................................................................................................",
"................................................................................................",
"................................................................................................",
"................................................................................................",
"................................................................................................",
"................................................................................................",
"................................................................................................",
"................................................................................................",
"................................................................................................"
};
