/* XPM */
static char *xpm_[] = {
/* columns rows colors chars-per-pixel */
"142 142 3 1 ",
"  c black",
". c #50505A",
"X c white",
/* pixels */
"                                                                                                                                              ",
"                                                                                                                                              ",
"                                                                                                                                              ",
"..............................................................................................................................................",
"..............................................................................................................................................",
"..............................................................................................................................................",
"..............................................................................................................................................",
"..............................................................................................................................................",
"..............................................................................................................................................",
"..............................................................................................................................................",
"..............................................................................................................................................",
"..............................................................................................................................................",
"..............................................................................................................................................",
"..............................................................................................................................................",
"..............................................................................................................................................",
"..............................................................................................................................................",
"..............................................................................................................................................",
"..............................................................................................................................................",
"..............................................................................................................................................",
"..............................................................................................................................................",
"..............................................................................................................................................",
"..............................................................................................................................................",
"..............................................................................................................................................",
"..............................................................................................................................................",
"..............................................................................................................................................",
"..............................................................................................................................................",
"..............................................................................................................................................",
"..............................................................................................................................................",
"..............................................................................................................................................",
"..............................................................................................................................................",
"..............................................................................................................................................",
"..............................................................................................................................................",
"..............................................................................................................................................",
"..............................................................................................................................................",
"..............................................................................................................................................",
"..............................................................................................................................................",
"..............................................................................................................................................",
"..............................................................................................................................................",
"..............................................................................................................................................",
"..............................................................................................................................................",
"..............................................................................................................................................",
"..............................................................................................................................................",
"..............................................................................................................................................",
"..............................................................................................................................................",
"..............................................................       .........................................................................",
"..............................................................       .........................................................................",
"..............................................................  XXX  .........................................................................",
"..............................................................  XXX  .........................................................................",
"............................................................    XXX  .........................................................................",
"............................................................    XXX  .........................................................................",
"............................................................  XXX    .........................................................................",
"............................................................  XXX    .........................................................................",
"..........................................................    XXX  ...........................................................................",
"..........................................................    XXX  ...........................................................................",
"..........................................................  XXX    ...........................................................................",
"..........................................................  XXX    ...........................................................................",
"........................................................    XXX  .............................................................................",
"........................................................    XXX  .............................................................................",
"........................................................  XXX    .............................................................................",
"........................................................  XXX    .............................................................................",
"......................................................    XXX  ...............................................................................",
"......................................................    XXX  ...............................................................................",
"......................................................  XXX    ...............................................................................",
"......................................................  XXX    ...............................................................................",
"....................................................    XXX  .................................................................................",
"....................................................    XXX  .................................................................................",
"....................................................  XXX    .................................................................................",
"....................................................  XXX    .................................................................................",
"..................................................    XXX  ...................................................................................",
"..................................................    XXX  ...................................................................................",
"..................................................  XXX    ...................................................................................",
"..................................................  XXX  .....................................................................................",
"................................................    XXX  .....................................................................................",
"................................................    XXX  .....................................................................................",
"................................................  XXX    .....................................................................................",
"................................................  XXX    .....................................................................................",
"..............................................    XXX  .......................................................................................",
"..............................................    XXX  .......................................................................................",
"..............................................  XXX    .......................................................................................",
"..............................................  XXX    .......................................................................................",
"............................................    XXX  .........................................................................................",
"............................................    XXX  .........................................................................................",
"............................................  XXX    .........................................................................................",
"............................................  XXX    .........................................................................................",
"..........................................    XXX  ...........................................................................................",
"..........................................    XXX  ...........................................................................................",
"..........................................  XXX    ...........................................................................................",
"..........................................  XXX    ...........................................................................................",
"........................................    XXX  .............................................................................................",
"........................................    XXX  .............................................................................................",
"........................................  XXX    .............................................................................................",
"........................................  XXX    .............................................................................................",
"......................................    XXX  ...............................................................................................",
"......................................    XXX  ...............................................................................................",
"......................................  XXX    ...............................................................................................",
"......................................  XXX    ...............................................................................................",
"....................................    XXX  .................................................................................................",
"....................................    XXX  .................................................................................................",
"....................................  XXX    .................................................................................................",
"....................................  XXX    .................................................................................................",
"....................................  XXX  ...................................................................................................",
"....................................  XXX  ...................................................................................................",
"....................................       ...................................................................................................",
"....................................       ...................................................................................................",
"..............................................................................................................................................",
"..............................................................................................................................................",
"..............................................................................................................................................",
"..............................................................................................................................................",
"..............................................................................................................................................",
"..............................................................................................................................................",
"..............................................................................................................................................",
"..............................................................................................................................................",
"..............................................................................................................................................",
"..............................................................................................................................................",
"..............................................................................................................................................",
"..............................................................................................................................................",
"..............................................................................................................................................",
"..............................................................................................................................................",
"..............................................................................................................................................",
"..............................................................................................................................................",
"..............................................................................................................................................",
"..............................................................................................................................................",
"..............................................................................................................................................",
"..............................................................................................................................................",
"..............................................................................................................................................",
"..............................................................................................................................................",
"..............................................................................................................................................",
"..............................................................................................................................................",
"..............................................................................................................................................",
"..............................................................................................................................................",
"..............................................................................................................................................",
"..............................................................................................................................................",
"..............................................................................................................................................",
"..............................................................................................................................................",
"..............................................................................................................................................",
"..............................................................................................................................................",
"..............................................................................................................................................",
"..............................................................................................................................................",
"..............................................................................................................................................",
"..............................................................................................................................................",
"..............................................................................................................................................",
".............................................................................................................................................."
};
