/* XPM */
static char *xpm_[] = {
/* columns rows colors chars-per-pixel */
"147 147 2 1 ",
"  c black",
". c #50505A",
/* pixels */
"                                                                                                                                                   ",
"                                                                                                                                                   ",
"                                                                                                                                                   ",
"...................................................................................................................................................",
"...................................................................................................................................................",
"...................................................................................................................................................",
"...................................................................................................................................................",
"...................................................................................................................................................",
"...................................................................................................................................................",
"...................................................................................................................................................",
"...................................................................................................................................................",
"...................................................................................................................................................",
"...................................................................................................................................................",
"...................................................................................................................................................",
"...................................................................................................................................................",
"...................................................................................................................................................",
"...................................................................................................................................................",
"...................................................................................................................................................",
"...................................................................................................................................................",
"...................................................................................................................................................",
"...................................................................................................................................................",
"...................................................................................................................................................",
"...................................................................................................................................................",
"...................................................................................................................................................",
"...................................................................................................................................................",
"...................................................................................................................................................",
"...................................................................................................................................................",
"...................................................................................................................................................",
"...................................................................................................................................................",
"...................................................................................................................................................",
"...................................................................................................................................................",
"...................................................................................................................................................",
"...................................................................................................................................................",
"...................................................................................................................................................",
"...................................................................................................................................................",
"...................................................................................................................................................",
"...................................................................................................................................................",
"...................................................................................................................................................",
"...................................................................................................................................................",
"...................................................................................................................................................",
"...................................................................................................................................................",
"...................................................................................................................................................",
"...................................................................................................................................................",
"...................................................................................................................................................",
"...................................................................................................................................................",
"...................................................................................................................................................",
"...................................................................................................................................................",
"...................................................................................................................................................",
"...................................................................................................................................................",
"...................................................................................................................................................",
"...................................................................................................................................................",
"...................................................................................................................................................",
"...................................................................................................................................................",
"...................................................................................................................................................",
"...................................................................................................................................................",
"...................................................................................................................................................",
"...................................................................................................................................................",
"...................................................................................................................................................",
"...................................................................................................................................................",
"...................................................................................................................................................",
"...................................................................................................................................................",
"...................................................................................................................................................",
"...................................................................................................................................................",
"...................................................................................................................................................",
"...................................................................................................................................................",
"...................................................................................................................................................",
"...................................................................................................................................................",
"...................................................................................................................................................",
"...................................................................................................................................................",
"...................................................................................................................................................",
"...................................................................................................................................................",
"...................................................................................................................................................",
"...................................................................................................................................................",
"...................................................................................................................................................",
"...................................................................................................................................................",
"...................................................................................................................................................",
"...................................................................................................................................................",
"...................................................................................................................................................",
"...................................................................................................................................................",
"...................................................................................................................................................",
"...................................................................................................................................................",
"...................................................................................................................................................",
"...................................................................................................................................................",
"...................................................................................................................................................",
"...................................................................................................................................................",
"...................................................................................................................................................",
"...................................................................................................................................................",
"...................................................................................................................................................",
"...................................................................................................................................................",
"...................................................................................................................................................",
"...................................................................................................................................................",
"...................................................................................................................................................",
"...................................................................................................................................................",
"...................................................................................................................................................",
"...................................................................................................................................................",
"...................................................................................................................................................",
"...................................................................................................................................................",
"...................................................................................................................................................",
"...................................................................................................................................................",
"...................................................................................................................................................",
"...................................................................................................................................................",
"...................................................................................................................................................",
"...................................................................................................................................................",
"...................................................................................................................................................",
"...................................................................................................................................................",
"...................................................................................................................................................",
"...................................................................................................................................................",
"...................................................................................................................................................",
"...................................................................................................................................................",
"...................................................................................................................................................",
"...................................................................................................................................................",
"...................................................................................................................................................",
"...................................................................................................................................................",
"...................................................................................................................................................",
"...................................................................................................................................................",
"...................................................................................................................................................",
"...................................................................................................................................................",
"...................................................................................................................................................",
"...................................................................................................................................................",
"...................................................................................................................................................",
"...................................................................................................................................................",
"...................................................................................................................................................",
"...................................................................................................................................................",
"...................................................................................................................................................",
"...................................................................................................................................................",
"...................................................................................................................................................",
"...................................................................................................................................................",
"...................................................................................................................................................",
"...................................................................................................................................................",
"...................................................................................................................................................",
"...................................................................................................................................................",
"...................................................................................................................................................",
"...................................................................................................................................................",
"...................................................................................................................................................",
"...................................................................................................................................................",
"...................................................................................................................................................",
"...................................................................................................................................................",
"...................................................................................................................................................",
"...................................................................................................................................................",
"...................................................................................................................................................",
"...................................................................................................................................................",
"...................................................................................................................................................",
"...................................................................................................................................................",
"...................................................................................................................................................",
"...................................................................................................................................................",
"...................................................................................................................................................",
"..................................................................................................................................................."
};
