/* XPM */
static char *xpm_[] = {
/* columns rows colors chars-per-pixel */
"147 147 3 1 ",
"  c black",
". c #50505A",
"X c white",
/* pixels */
"                                                                                                                                                   ",
"                                                                                                                                                   ",
"                                                                                                                                                   ",
"...................................................................................................................................................",
"...................................................................................................................................................",
"...................................................................................................................................................",
"...................................................................................................................................................",
"...................................................................................................................................................",
"...................................................................................................................................................",
"...................................................................................................................................................",
"...................................................................................................................................................",
"...................................................................................................................................................",
"...................................................................................................................................................",
"...................................................................................................................................................",
"...................................................................................................................................................",
"...................................................................................................................................................",
"...................................................................................................................................................",
"...................................................................................................................................................",
"...................................................................................................................................................",
"...................................................................................................................................................",
"...................................................................................................................................................",
"...................................................................................................................................................",
"...................................................................................................................................................",
"...................................................................................................................................................",
"...................................................................................................................................................",
"...................................................................................................................................................",
"...................................................................................................................................................",
"...................................................................................................................................................",
"...................................................................................................................................................",
"...................................................................................................................................................",
"...................................................................................................................................................",
"...................................................................................................................................................",
"...................................................................................................................................................",
"...................................................................................................................................................",
"...................................................................................................................................................",
"...................................................................................................................................................",
"...................................................................................................................................................",
"...................................................................................................................................................",
"...................................................................................................................................................",
"...................................................................................................................................................",
"...................................................................................................................................................",
"                                          ...............                                                ..........................................",
"                                          ...............                                                ..........................................",
"                                          ...............                                                ..........................................",
"XXXXXXXXXXXXXXXXXXXXXXXXXXXXXXXXXXXXXXX   ...............   XXXXXXXXXXXXXXXXXXXXXXXXXXXXXXXXXXXXXXXXXX   ..........................................",
"XXXXXXXXXXXXXXXXXXXXXXXXXXXXXXXXXXXXXXX   ...............   XXXXXXXXXXXXXXXXXXXXXXXXXXXXXXXXXXXXXXXXXX   ..........................................",
"XXXXXXXXXXXXXXXXXXXXXXXXXXXXXXXXXXXXXXX   ...............   XXXXXXXXXXXXXXXXXXXXXXXXXXXXXXXXXXXXXXXXXX   ..........................................",
"XXXXXXXXXXXXXXXXXXXXXXXXXXXXXXXXXXXXXXX         .........   XXXXXXXXXXXXXXXXXXXXXXXXXXXXXXXXXXXXXXXXXX   ..........................................",
"XXXXXXXXXXXXXXXXXXXXXXXXXXXXXXXXXXXXXXX         .........   XXXXXXXXXXXXXXXXXXXXXXXXXXXXXXXXXXXXXXXXXX   ..........................................",
"XXXXXXXXXXXXXXXXXXXXXXXXXXXXXXXXXXXXXXX         .........   XXXXXXXXXXXXXXXXXXXXXXXXXXXXXXXXXXXXXXXXXX   ..........................................",
"XXXXXXXXXXXXXXXXXXXXXXXXXXXXXXXXXXXXXXXXXXXXX   .........   XXXXXXXXXXXXXXXXXXXXXXXXXXXXXXXXXXXXXXXXXX   ..........................................",
"XXXXXXXXXXXXXXXXXXXXXXXXXXXXXXXXXXXXXXXXXXXXX   .........   XXXXXXXXXXXXXXXXXXXXXXXXXXXXXXXXXXXXXXXXXX   ..........................................",
"XXXXXXXXXXXXXXXXXXXXXXXXXXXXXXXXXXXXXXXXXXXXX   .........   XXXXXXXXXXXXXXXXXXXXXXXXXXXXXXXXXXXXXXXXXX   ..........................................",
"XXXXXXXXXXXXXXXXXXXXXXXXXXXXXXXXXXXXXXXXXXXXX   .........   XXXXXXXXXXXXXXXXXXXXXXXXXXXXXXXXXXXXXXXXXX   ..........................................",
"XXXXXXXXXXXXXXXXXXXXXXXXXXXXXXXXXXXXXXXXXXXXX   .........   XXXXXXXXXXXXXX                               ..........................................",
"XXXXXXXXXXXXXXXXXXXXXXXXXXXXXXXXXXXXXXXXXXXXX   .........   XXXXXXXXXXXXXX                               ..........................................",
"XXXXXXXXXXXXXXXXX           XXXXXXXXXXXXXXXXX   .........   XXXXXXXXXXXXXX                               ..........................................",
"XXXXXXXXXXXXXXXXX           XXXXXXXXXXXXXXXXX   .........   XXXXXXXXXXXXXX   ......................................................................",
"XXXXXXXXXXXXXXXXX           XXXXXXXXXXXXXXXXX   .........   XXXXXXXXXXXXXX   ......................................................................",
"XXXXXXXXXXXXXXXXX   .....   XXXXXXXXXXXXXXXXX   .........   XXXXXXXXXXXXXX   ......................................................................",
"XXXXXXXXXXXXXXXXX   .....   XXXXXXXXXXXXXXXXX   .........   XXXXXXXXXXXXXX   ......................................................................",
"XXXXXXXXXXXXXXXXX   .....   XXXXXXXXXXXXXXXXX   .........   XXXXXXXXXXXXXX   ......................................................................",
"XXXXXXXXXXXXXXXXX   .....   XXXXXXXXXXXXXXXXX   .........   XXXXXXXXXXXXXX   ......................................................................",
"XXXXXXXXXXXXXXXXX   .....   XXXXXXXXXXXXXXXXX   .........   XXXXXXXXXXXXXX   ......................................................................",
"XXXXXXXXXXXXXXXXX           XXXXXXXXXXXXXXXXX   .........   XXXXXXXXXXXXXX   ......................................................................",
"XXXXXXXXXXXXXXXXX           XXXXXXXXXXXXXXXXX   .........   XXXXXXXXXXXXXX   ......................................................................",
"XXXXXXXXXXXXXXXXX           XXXXXXXXXXXXXXXXX   .........   XXXXXXXXXXXXXX                           ..............................................",
"XXXXXXXXXXXXXXXXXXXXXXXXXXXXXXXXXXXXXXXXXXXXX   .........   XXXXXXXXXXXXXX                           ..............................................",
"XXXXXXXXXXXXXXXXXXXXXXXXXXXXXXXXXXXXXXXXXXXXX   .........   XXXXXXXXXXXXXX                           ..............................................",
"XXXXXXXXXXXXXXXXXXXXXXXXXXXXXXXXXXXXXXXXXXXXX   .........   XXXXXXXXXXXXXXXXXXXXXXXXXXXXXXXXXXXXXX   ..............................................",
"XXXXXXXXXXXXXXXXXXXXXXXXXXXXXXXXXXXXXXXXXXXXX   .........   XXXXXXXXXXXXXXXXXXXXXXXXXXXXXXXXXXXXXX   ..............................................",
"XXXXXXXXXXXXXXXXXXXXXXXXXXXXXXXXXXXXXXXXXXXXX   .........   XXXXXXXXXXXXXXXXXXXXXXXXXXXXXXXXXXXXXX   ..............................................",
"XXXXXXXXXXXXXXXXXXXXXXXXXXXXXXXXXXXXXXXXXXXXX   .........   XXXXXXXXXXXXXXXXXXXXXXXXXXXXXXXXXXXXXX   ..............................................",
"XXXXXXXXXXXXXXXXXXXXXXXXXXXXXXXXXXXXXXXXXXXXX   .........   XXXXXXXXXXXXXXXXXXXXXXXXXXXXXXXXXXXXXX   ..............................................",
"XXXXXXXXXXXXXXXXXXXXXXXXXXXXXXXXXXXXXXX         .........   XXXXXXXXXXXXXXXXXXXXXXXXXXXXXXXXXXXXXX   ..............................................",
"XXXXXXXXXXXXXXXXXXXXXXXXXXXXXXXXXXXXXXX         .........   XXXXXXXXXXXXXXXXXXXXXXXXXXXXXXXXXXXXXX   ..............................................",
"XXXXXXXXXXXXXXXXXXXXXXXXXXXXXXXXXXXXXXX         .........   XXXXXXXXXXXXXXXXXXXXXXXXXXXXXXXXXXXXXX   ..............................................",
"XXXXXXXXXXXXXXXXXXXXXXXXXXXXXXXXXXXXXXX   ...............   XXXXXXXXXXXXXXXXXXXXXXXXXXXXXXXXXXXXXX   ..............................................",
"XXXXXXXXXXXXXXXXXXXXXXXXXXXXXXXXXXXXXXX   ...............   XXXXXXXXXXXXXXX                          ..............................................",
"XXXXXXXXXXXXXXXXXXXXXXXXXXXXXXXXXXXXXXX   ...............   XXXXXXXXXXXXXXX                          ..............................................",
"XXXXXXXXXXXXXXXXX           XXXXXXXXXXX   ...............   XXXXXXXXXXXXXXX                          ..............................................",
"XXXXXXXXXXXXXXXXX           XXXXXXXXXXX   ...............   XXXXXXXXXXXXXXX   .....................................................................",
"XXXXXXXXXXXXXXXXX           XXXXXXXXXXX   ...............   XXXXXXXXXXXXXXX   .....................................................................",
"XXXXXXXXXXXXXXXXX   .....   XXXXXXXXXXX      ............   XXXXXXXXXXXXXXX   .....................................................................",
"XXXXXXXXXXXXXXXXX   .....   XXXXXXXXXXX      ............   XXXXXXXXXXXXXXX   .....................................................................",
"XXXXXXXXXXXXXXXXX   .....   XXXXXXXXXXX         .........   XXXXXXXXXXXXXXX   .....................................................................",
"XXXXXXXXXXXXXXXXX   .....   XXXXXXXXXXXXXXX     .........   XXXXXXXXXXXXXXX   .....................................................................",
"XXXXXXXXXXXXXXXXX   .....   XXXXXXXXXXXXXXX     .........   XXXXXXXXXXXXXXX   .....................................................................",
"XXXXXXXXXXXXXXXXX   .....   XXXXXXXXXXXXXXXXX   .........   XXXXXXXXXXXXXXX   .....................................................................",
"XXXXXXXXXXXXXXXXX   .....   XXXXXXXXXXXXXXXXX   .........   XXXXXXXXXXXXXXX   .....................................................................",
"XXXXXXXXXXXXXXXXX   .....   XXXXXXXXXXXXXXXXX   .........   XXXXXXXXXXXXXXX                             ...........................................",
"XXXXXXXXXXXXXXXXX   .....   XXXXXXXXXXXXXXXXX   .........   XXXXXXXXXXXXXXX                             ...........................................",
"XXXXXXXXXXXXXXXXX   .....   XXXXXXXXXXXXXXXXX   .........   XXXXXXXXXXXXXXX                             ...........................................",
"XXXXXXXXXXXXXXXXX   .....   XXXXXXXXXXXXXXXXX   .........   XXXXXXXXXXXXXXXXXXXXXXXXXXXXXXXXXXXXXXXXX   ...........................................",
"XXXXXXXXXXXXXXXXX   .....   XXXXXXXXXXXXXXXXX   .........   XXXXXXXXXXXXXXXXXXXXXXXXXXXXXXXXXXXXXXXXX   ...........................................",
"XXXXXXXXXXXXXXXXX   .....   XXXXXXXXXXXXXXXXX   .........   XXXXXXXXXXXXXXXXXXXXXXXXXXXXXXXXXXXXXXXXX   ...........................................",
"XXXXXXXXXXXXXXXXX   .....   XXXXXXXXXXXXXXXXX   .........   XXXXXXXXXXXXXXXXXXXXXXXXXXXXXXXXXXXXXXXXX   ...........................................",
"XXXXXXXXXXXXXXXXX   .....   XXXXXXXXXXXXXXXXX   .........   XXXXXXXXXXXXXXXXXXXXXXXXXXXXXXXXXXXXXXXXX   ...........................................",
"XXXXXXXXXXXXXXXXX   .....   XXXXXXXXXXXXXXXXX   .........   XXXXXXXXXXXXXXXXXXXXXXXXXXXXXXXXXXXXXXXXX   ...........................................",
"XXXXXXXXXXXXXXXXX   .....   XXXXXXXXXXXXXXXXX   .........   XXXXXXXXXXXXXXXXXXXXXXXXXXXXXXXXXXXXXXXXX   ...........................................",
"XXXXXXXXXXXXXXXXX   .....   XXXXXXXXXXXXXXXXX   .........   XXXXXXXXXXXXXXXXXXXXXXXXXXXXXXXXXXXXXXXXX   ...........................................",
"                    .....                       .........                                               ...........................................",
"                    .....                       .........                                               ...........................................",
"                    .....                       .........                                               ...........................................",
"...................................................................................................................................................",
"...................................................................................................................................................",
"...................................................................................................................................................",
"...................................................................................................................................................",
"...................................................................................................................................................",
"...................................................................................................................................................",
"...................................................................................................................................................",
"...................................................................................................................................................",
"...................................................................................................................................................",
"...................................................................................................................................................",
"...................................................................................................................................................",
"...................................................................................................................................................",
"...................................................................................................................................................",
"...................................................................................................................................................",
"...................................................................................................................................................",
"...................................................................................................................................................",
"...................................................................................................................................................",
"...................................................................................................................................................",
"...................................................................................................................................................",
"...................................................................................................................................................",
"...................................................................................................................................................",
"...................................................................................................................................................",
"...................................................................................................................................................",
"...................................................................................................................................................",
"...................................................................................................................................................",
"...................................................................................................................................................",
"...................................................................................................................................................",
"...................................................................................................................................................",
"...................................................................................................................................................",
"...................................................................................................................................................",
"...................................................................................................................................................",
"...................................................................................................................................................",
"...................................................................................................................................................",
"...................................................................................................................................................",
"...................................................................................................................................................",
"...................................................................................................................................................",
"...................................................................................................................................................",
"...................................................................................................................................................",
"...................................................................................................................................................",
"...................................................................................................................................................",
"...................................................................................................................................................",
"...................................................................................................................................................",
"..................................................................................................................................................."
};
