/* XPM */
static char *xpm_[] = {
/* columns rows colors chars-per-pixel */
"147 147 3 1 ",
"  c black",
". c #50505A",
"X c white",
/* pixels */
"                                                                                                                                                   ",
"                                                                                                                                                   ",
"                                                                                                                                                   ",
"...................................................................................................................................................",
"...................................................................................................................................................",
"...................................................................................................................................................",
"...................................................................................................................................................",
"...................................................................................................................................................",
"...................................................................................................................................................",
"...................................................................................................................................................",
"...................................................................................................................................................",
"...................................................................................................................................................",
"...................................................................................................................................................",
"...................................................................................................................................................",
"...................................................................................................................................................",
"...................................................................................................................................................",
"...................................................................................................................................................",
"...................................................................................................................................................",
"...................................................................................................................................................",
"...................................................................................................................................................",
"...................................................................................................................................................",
"...................................................................................................................................................",
"...................................................................................................................................................",
"...................................................................................................................................................",
"...................................................................................................................................................",
"...................................................................................................................................................",
"...................................................................................................................................................",
"...................................................................................................................................................",
"...................................................................................................................................................",
"...................................................................................................................................................",
"...................................................................................................................................................",
"...................................................................................................................................................",
"...................................................................................................................................................",
"...................................................................................................................................................",
"...................................................................................................................................................",
"...................................................................................................................................................",
"...................................................................................................................................................",
"...................................................................................................................................................",
"...................................................................................................................................................",
"...................................................................................................................................................",
"...................................................................................................................................................",
"                  ................                                     ........................                                ....................",
"                  ................                                     ........................                                .................   ",
"                  ................                                     ........................                                .................   ",
"XXXXXXXXXXXXXXX   ................   XXXXXXXXXXXXXXXXXXXXXXXXXXXXXXX   ........................   XXXXXXXXXXXXXXXXXXXXXXXXXX   .................   ",
"XXXXXXXXXXXXXXX   ................   XXXXXXXXXXXXXXXXXXXXXXXXXXXXXXX   ........................   XXXXXXXXXXXXXXXXXXXXXXXXXX   .................   ",
"XXXXXXXXXXXXXXX   ................   XXXXXXXXXXXXXXXXXXXXXXXXXXXXXXX   ........................   XXXXXXXXXXXXXXXXXXXXXXXXXX   .................   ",
"XXXXXXXXXXXXXXX   .........          XXXXXXXXXXXXXXXXXXXXXXXXXXXXXXX   ...............            XXXXXXXXXXXXXXXXXXXXXXXXXX           .........   ",
"XXXXXXXXXXXXXXX   .........          XXXXXXXXXXXXXXXXXXXXXXXXXXXXXXX   ...............            XXXXXXXXXXXXXXXXXXXXXXXXXX           .........   ",
"XXXXXXXXXXXXXXX   .........          XXXXXXXXXXXXXXXXXXXXXXXXXXXXXXX         .........            XXXXXXXXXXXXXXXXXXXXXXXXXX           .........   ",
"XXXXXXXXXXXXXXX   .........   XXXXXXXXXXXXXXXXXXXXXXXXXXXXXXXXXXXXXXXXXXXX   .........   XXXXXXXXXXXXXXXXXXXXXXXXXXXXXXXXXXXXXXXXXXX   .........   ",
"XXXXXXXXXXXXXXX   .........   XXXXXXXXXXXXXXXXXXXXXXXXXXXXXXXXXXXXXXXXXXXX   .........   XXXXXXXXXXXXXXXXXXXXXXXXXXXXXXXXXXXXXXXXXXX   .........   ",
"XXXXXXXXXXXXXXX   .........   XXXXXXXXXXXXXXXXXXXXXXXXXXXXXXXXXXXXXXXXXXXX   .........   XXXXXXXXXXXXXXXXXXXXXXXXXXXXXXXXXXXXXXXXXXX   .........   ",
"XXXXXXXXXXXXXXX   .........   XXXXXXXXXXXXXXXXXXXXXXXXXXXXXXXXXXXXXXXXXXXX   .........   XXXXXXXXXXXXXXXXXXXXXXXXXXXXXXXXXXXXXXXXXXX   .........   ",
"XXXXXXXXXXXXXXX   .........   XXXXXXXXXXXXXXXXXXXXXXXXXXXXXXXXXXXXXXXXXXXX   .........   XXXXXXXXXXXXXXXXXXXXXXXXXXXXXXXXXXXXXXXXXXX   .........   ",
"XXXXXXXXXXXXXXX   .........   XXXXXXXXXXXXXXXXXXXXXXXXXXXXXXXXXXXXXXXXXXXX   .........   XXXXXXXXXXXXXXXXXXXXXXXXXXXXXXXXXXXXXXXXXXX   .........   ",
"XXXXXXXXXXXXXXX   .........   XXXXXXXXXXXXXXXXXXXXXXXXXXXXXXXXXXXXXXXXXXXX   .........   XXXXXXXXXXXXXXXXXXXXXXXXXXXXXXXXXXXXXXXXXXX   .........   ",
"XXXXXXXXXXXXXXX   .........   XXXXXXXXXXXXXXXXXXXXXXXXXXXXXXXXXXXXXXXXXXXX   .........   XXXXXXXXXXXXXXXXXXXXXXXXXXXXXXXXXXXXXXXXXXX   .........   ",
"XXXXXXXXXXXXXXX   .........   XXXXXXXXXXXXXXX              XXXXXXXXXXXXXXX   .........   XXXXXXXXXXXXXX                XXXXXXXXXXXXX   .........   ",
"XXXXXXXXXXXXXXX   .........   XXXXXXXXXXXXXXX              XXXXXXXXXXXXXXX   .........   XXXXXXXXXXXXXX                XXXXXXXXXXXXX   .........   ",
"XXX               .........   XXXXXXXXXXXXXXX              XXXXXXXXXXXXXXX   .........   XXXXXXXXXXXXXX                XXXXXXXXXXXXX   .........   ",
"XXX               .........   XXXXXXXXXXXXXXX   ........   XXXXXXXXXXXXXXX   .........   XXXXXXXXXXXXXX   ..........   XXXXXXXXXXXXX   .........   ",
"XXX               .........   XXXXXXXXXXXXXXX   ........   XXXXXXXXXXXXXXX   .........   XXXXXXXXXXXXXX   ..........   XXXXXXXXXXXXX   .........   ",
"XXX   .....................   XXXXXXXXXXXXXXX   ........   XXXXXXXXXXXXXXX   .........   XXXXXXXXXXXXXX   ..........   XXXXXXXXXXXXX   .........   ",
"XXX   .....................   XXXXXXXXXXXXXXX   ........   XXXXXXXXXXXXXXX   .........   XXXXXXXXXXXXXX   ..........   XXXXXXXXXXXXX   .........   ",
"XXX   .....................   XXXXXXXXXXXXXXX   ........   XXXXXXXXXXXXXXX   .........   XXXXXXXXXXXXXX   ..........   XXXXXXXXXXXXX   .........   ",
"XXX   .....................   XXXXXXXXXXXXXXX   ........                     .........   XXXXXXXXXXXXXX   ..........   XXXXXXXXXXXXX   .........   ",
"XXX   .....................   XXXXXXXXXXXXXXX   ........                     .........   XXXXXXXXXXXXXX   ..........   XXXXXXXXXXXXX   .........   ",
"XXX   .....................   XXXXXXXXXXXXXXX   ........                     .........   XXXXXXXXXXXXXX   ..........   XXXXXXXXXXXXX   .........   ",
"XXX               .........   XXXXXXXXXXXXXXX   ......................................   XXXXXXXXXXXXXX   ..........   XXXXXXXXXXXXX   .........   ",
"XXX               .........   XXXXXXXXXXXXXXX   ........                     .........   XXXXXXXXXXXXXX   ..........   XXXXXXXXXXXXX   .........   ",
"XXX               .........   XXXXXXXXXXXXXXX   ........                     .........   XXXXXXXXXXXXXX   ..........   XXXXXXXXXXXXX   .........   ",
"XXXXXXXXXXXXXXX   .........   XXXXXXXXXXXXXXX   ........                     .........   XXXXXXXXXXXXXX   ..........   XXXXXXXXXXXXX   .........   ",
"XXXXXXXXXXXXXXX   .........   XXXXXXXXXXXXXXX   ........   XXXXXXXXXXXXXXX   .........   XXXXXXXXXXXXXX   ..........   XXXXXXXXXXXXX   .........   ",
"XXXXXXXXXXXXXXX   .........   XXXXXXXXXXXXXXX   ........   XXXXXXXXXXXXXXX   .........   XXXXXXXXXXXXXX   ..........   XXXXXXXXXXXXX   .........   ",
"XXXXXXXXXXXXXXX   .........   XXXXXXXXXXXXXXX   ........   XXXXXXXXXXXXXXX   .........   XXXXXXXXXXXXXX   ..........   XXXXXXXXXXXXX   .........   ",
"XXXXXXXXXXXXXXX   .........   XXXXXXXXXXXXXXX   ........   XXXXXXXXXXXXXXX   .........   XXXXXXXXXXXXXX   ..........   XXXXXXXXXXXXX   .........   ",
"XXXXXXXXXXXXXXX   .........   XXXXXXXXXXXXXXX   ........   XXXXXXXXXXXXXXX   .........   XXXXXXXXXXXXXX   ..........   XXXXXXXXXXXXX   .........   ",
"XXXXXXXXXXXXXXX   .........   XXXXXXXXXXXXXXX   ........   XXXXXXXXXXXXXXX   .........   XXXXXXXXXXXXXX   ..........   XXXXXXXXXXXXX   .........   ",
"XXXXXXXXXXXXXXX   .........   XXXXXXXXXXXXXXX   ........   XXXXXXXXXXXXXXX   .........   XXXXXXXXXXXXXX   ..........   XXXXXXXXXXXXX   .........   ",
"XXXXXXXXXXXXXXX   .........   XXXXXXXXXXXXXXX   ........   XXXXXXXXXXXXXXX   .........   XXXXXXXXXXXXXX   ..........   XXXXXXXXXXXXX   .........   ",
"XXXXXXXXXXXXXXX   .........   XXXXXXXXXXXXXXX   ........   XXXXXXXXXXXXXXX   .........   XXXXXXXXXXXXXX   ..........   XXXXXXXXXXXXX   .........   ",
"XXXXXXXXXXXXXXX   .........   XXXXXXXXXXXXXXX   ........   XXXXXXXXXXXXXXX   .........   XXXXXXXXXXXXXX   ..........   XXXXXXXXXXXXX   .........   ",
"XXXXXXXXXXXXXXX   .........   XXXXXXXXXXXXXXX   ........   XXXXXXXXXXXXXXX   .........   XXXXXXXXXXXXXX   ..........   XXXXXXXXXXXXX   .........   ",
"XXXXXXXXXXXXXXX   .........   XXXXXXXXXXXXXXX              XXXXXXXXXXXXXXX   .........   XXXXXXXXXXXXXX                XXXXXXXXXXXXX   .........   ",
"XXXXXXXXXXXXXXX   .........   XXXXXXXXXXXXXXX              XXXXXXXXXXXXXXX   .........   XXXXXXXXXXXXXX                XXXXXXXXXXXXX   .........   ",
"XXXXXXXXXXXXXXX   .........   XXXXXXXXXXXXXXX              XXXXXXXXXXXXXXX   .........   XXXXXXXXXXXXXX                XXXXXXXXXXXXX   .........   ",
"XXXXXXXXXXXXXXX   .........   XXXXXXXXXXXXXXXXXXXXXXXXXXXXXXXXXXXXXXXXXXXX   .........   XXXXXXXXXXXXXXXXXXXXXXXXXXXXXXXXXXXXXXXXXXX   .........   ",
"XXXXXXXXXXXXXXX   .........   XXXXXXXXXXXXXXXXXXXXXXXXXXXXXXXXXXXXXXXXXXXX   .........   XXXXXXXXXXXXXXXXXXXXXXXXXXXXXXXXXXXXXXXXXXX   .........   ",
"XXXXXXXXXXXXXXX   .........   XXXXXXXXXXXXXXXXXXXXXXXXXXXXXXXXXXXXXXXXXXXX   .........   XXXXXXXXXXXXXXXXXXXXXXXXXXXXXXXXXXXXXXXXXXX   .........   ",
"XXXXXXXXXXXXXXX   .........   XXXXXXXXXXXXXXXXXXXXXXXXXXXXXXXXXXXXXXXXXXXX   .........   XXXXXXXXXXXXXXXXXXXXXXXXXXXXXXXXXXXXXXXXXXX   .........   ",
"XXXXXXXXXXXXXXX   .........   XXXXXXXXXXXXXXXXXXXXXXXXXXXXXXXXXXXXXXXXXXXX   .........   XXXXXXXXXXXXXXXXXXXXXXXXXXXXXXXXXXXXXXXXXXX   .........   ",
"XXXXXXXXXXXXXXX   .........   XXXXXXXXXXXXXXXXXXXXXXXXXXXXXXXXXXXXXXXXXXXX   .........   XXXXXXXXXXXXXXXXXXXXXXXXXXXXXXXXXXXXXXXXXXX   .........   ",
"XXXXXXXXXXXXXXX   .........   XXXXXXXXXXXXXXXXXXXXXXXXXXXXXXXXXXXXXXXXXXXX   .........   XXXXXXXXXXXXXXXXXXXXXXXXXXXXXXXXXXXXXXXXXXX   .........   ",
"XXXXXXXXXXXXXXX   .........   XXXXXXXXXXXXXXXXXXXXXXXXXXXXXXXXXXXXXXXXXXXX   .........   XXXXXXXXXXXXXXXXXXXXXXXXXXXXXXXXXXXXXXXXXXX   .........   ",
"XXXXXX            .........         XXXXXXXXXXXXXXXXXXXXXXXXXXXXXXXX         .........             XXXXXXXXXXXXXXXXXXXXXXXXX           .........   ",
"XXXXXX            .........         XXXXXXXXXXXXXXXXXXXXXXXXXXXXXXXX         .........             XXXXXXXXXXXXXXXXXXXXXXXXX           .........   ",
"XXXXXX            .........         XXXXXXXXXXXXXXXXXXXXXXXXXXXXXXXX         .........             XXXXXXXXXXXXXXXXXXXXXXXXX           .........   ",
"XXXXXX   ........................   XXXXXXXXXXXXXXXXXXXXXXXXXXXXXXXX   .........................   XXXXXXXXXXXXXXXXXXXXXXXXX   .................   ",
"XXXXXX   ........................   XXXXXXXXXXXXXXXXXXXXXXXXXXXXXXXX   .........................   XXXXXXXXXXXXXXXXXXXXXXXXX   .................   ",
"XXXXXX   ........................   XXXXXXXXXXXXXXXXXXXXXXXXXXXXXXXX   .........................   XXXXXXXXXXXXXXXXXXXXXXXXX   .................   ",
"         ........................                                      .........................                               .................   ",
"         ........................                                      .........................                               .................   ",
"         ........................                                      .........................                               .................   ",
"...................................................................................................................................................",
"...................................................................................................................................................",
"...................................................................................................................................................",
"...................................................................................................................................................",
"...................................................................................................................................................",
"...................................................................................................................................................",
"...................................................................................................................................................",
"...................................................................................................................................................",
"...................................................................................................................................................",
"...................................................................................................................................................",
"...................................................................................................................................................",
"...................................................................................................................................................",
"...................................................................................................................................................",
"...................................................................................................................................................",
"...................................................................................................................................................",
"...................................................................................................................................................",
"...................................................................................................................................................",
"...................................................................................................................................................",
"...................................................................................................................................................",
"...................................................................................................................................................",
"...................................................................................................................................................",
"...................................................................................................................................................",
"...................................................................................................................................................",
"...................................................................................................................................................",
"...................................................................................................................................................",
"...................................................................................................................................................",
"...................................................................................................................................................",
"...................................................................................................................................................",
"...................................................................................................................................................",
"...................................................................................................................................................",
"...................................................................................................................................................",
"...................................................................................................................................................",
"...................................................................................................................................................",
"...................................................................................................................................................",
"...................................................................................................................................................",
"...................................................................................................................................................",
"...................................................................................................................................................",
"...................................................................................................................................................",
"...................................................................................................................................................",
"...................................................................................................................................................",
"...................................................................................................................................................",
"...................................................................................................................................................",
"..................................................................................................................................................."
};
