/* XPM */
static char *xpm_[] = {
/* columns rows colors chars-per-pixel */
"147 147 3 1 ",
"  c black",
". c #50505A",
"X c white",
/* pixels */
"                                                                                                                                                   ",
"                                                                                                                                                   ",
"                                                                                                                                                   ",
"...................................................................................................................................................",
"...................................................................................................................................................",
"...................................................................................................................................................",
"...................................................................................................................................................",
"...................................................................................................................................................",
"...................................................................................................................................................",
"...................................................................................................................................................",
"...................................................................................................................................................",
"...................................................................................................................................................",
"...................................................................................................................................................",
"...................................................................................................................................................",
"...................................................................................................................................................",
"...................................................................................................................................................",
"...................................................................................................................................................",
"...................................................................................................................................................",
"...................................................................................................................................................",
"...................................................................................................................................................",
"...................................................................................................................................................",
"...................................................................................................................................................",
"...................................................................................................................................................",
"...................................................................................................................................................",
"...................................................................................................................................................",
"...................................................................................................................................................",
"...................................................................................................................................................",
"...................................................................................................................................................",
"...................................................................................................................................................",
"...................................................................................................................................................",
"...................................................................................................................................................",
"...................................................................................................................................................",
"...................................................................................................................................................",
"...................................................................................................................................................",
"...................................................................................................................................................",
"...................................................................................................................................................",
"...................................................................................................................................................",
"...................................................................................................................................................",
"...................................................................................................................................................",
"...................................................................................................................................................",
"....                   ............................................................................................................................",
"....                   ............................................................................................................................",
"....                   ............................................................................................................................",
"....   XXXXXXXXXXXXX   ............................................................................................................................",
"....   XXXXXXXXXXXXX   ............................................................................................................................",
"....   XXXXXXXXXXXXX   ............................................................................................................................",
"       XXXXXXXXXXXXX   ............................................................................................................................",
"       XXXXXXXXXXXXX   ............................................................................................................................",
"       XXXXXXXXXXXXX   ............................................................................................................................",
"   XXXXXXXXXXXXXXXXX   ............................................................................................................................",
"   XXXXXXXXXXXXXXXXX   ............................................................................................................................",
"   XXXXXXXXXXXXXXXXX   ............................................................................................................................",
"   XXXXXXXXXXXXXXXXX   ............................................................................................................................",
"XXXXXXXXXXXXXXXXXXXX   ............................................................................................................................",
"XXXXXXXXXXXXXXXXXXXX   ............................................................................................................................",
"XXXXXXXXXXXXXXXXXXXX   ............................................................................................................................",
"XXXXXXXXXXXXXXXXXXXX   ............................................................................................................................",
"XXXXXXXXXXXXXXXXXXXX   ............................................................................................................................",
"XXXXXXXXXXXXXXXXXXXX   ............................................................................................................................",
"XXXXXXXXXXXXXXXXXXXX   ............................................................................................................................",
"XXXXXXXXXXXXXXXXXXXX   ............................................................................................................................",
"XXXXXXXXXXXXXXXXXXXX   ............................................................................................................................",
"XXXXXXXXXXXXXXXXXXXX   ............................................................................................................................",
"XXXXXXXXXXXXXXXXXXXX   ............................................................................................................................",
"XXXXXXXXXXXXXXXXXXXX   ............................................................................................................................",
"XXXXXXXXXXXXXXXXXXXX   ............................................................................................................................",
"XXXXXXXXXXXXXXXXXXXX   ............................................................................................................................",
"XXXXXXXXXXXXXXXXXXXX   ............................................................................................................................",
"XXXXXXXXXXXXXXXXXXXX   ............................................................................................................................",
"XXXXXXXXXXXXXXXXXXXX   ............................................................................................................................",
"XXXXXXXXXXXXXXXXXXXX   ............................................................................................................................",
"XXXXXXXXXXXXXXXXXXXX   ............................................................................................................................",
"XXXXXXXXXXXXXXXXXXXX   ............................................................................................................................",
"XXXXXXXXXXXXXXXXXXXX   ............................................................................................................................",
"XXXXXXXXXXXXXXXXXXXX   ............................................................................................................................",
"XXXXXXXXXXXXXXXXXXXX   ............................................................................................................................",
"XXXXXXXXXXXXXXXXXXXX   ............................................................................................................................",
"XXXXXXXXXXXXXXXXXXXX   ............................................................................................................................",
"XXXXXXXXXXXXXXXXXXXX   ............................................................................................................................",
"XXXXXXXXXXXXXXXXXXXX   ............................................................................................................................",
"XXXXXXXXXXXXXXXXXXXX   ............................................................................................................................",
"XXXXXXXXXXXXXXXXXXXX   ............................................................................................................................",
"XXXXXXXXXXXXXXXXXXXX   ............................................................................................................................",
"XXXXXXXXXXXXXXXXXXXX   ............................................................................................................................",
"XXXXXXXXXXXXXXXXXXXX   ............................................................................................................................",
"XXXXXXXXXXXXXXXXXXXX   ............................................................................................................................",
"XXXXXXXXXXXXXXXXXXXX   ............................................................................................................................",
"XXXXXXXX     XXXXXXX   ............................................................................................................................",
"XXXXXXXX     XXXXXXX   ............................................................................................................................",
"XXXXXXXX     XXXXXXX   ............................................................................................................................",
"XXXXXXXX     XXXXXXX   ............................................................................................................................",
"XXXXXXXX     XXXXXXX   ............................................................................................................................",
"XXXXXXXX     XXXXXXX   ............................................................................................................................",
"XXXX         XXXXXXX   ............................................................................................................................",
"XXXX         XXXXXXX   ............................................................................................................................",
"XXXX         XXXXXXX   ............................................................................................................................",
"XXXX   ...   XXXXXXX   ............................................................................................................................",
"XXXX   ...   XXXXXXX   ............................................................................................................................",
"XXXX   ...   XXXXXXX   ............................................................................................................................",
"XXXX   ...   XXXXXXX   ............................................................................................................................",
"XXXX   ...   XXXXXXX   ............................................................................................................................",
"XXXX   ...   XXXXXXX   ............................................................................................................................",
"       ...             ............................................................................................................................",
"       ...             ............................................................................................................................",
"       ...             ............................................................................................................................",
"...................................................................................................................................................",
"...................................................................................................................................................",
"...................................................................................................................................................",
"...................................................................................................................................................",
"...................................................................................................................................................",
"...................................................................................................................................................",
"...................................................................................................................................................",
"...................................................................................................................................................",
"...................................................................................................................................................",
"...................................................................................................................................................",
"...................................................................................................................................................",
"...................................................................................................................................................",
"...................................................................................................................................................",
"...................................................................................................................................................",
"...................................................................................................................................................",
"...................................................................................................................................................",
"...................................................................................................................................................",
"...................................................................................................................................................",
"...................................................................................................................................................",
"...................................................................................................................................................",
"...................................................................................................................................................",
"...................................................................................................................................................",
"...................................................................................................................................................",
"...................................................................................................................................................",
"...................................................................................................................................................",
"...................................................................................................................................................",
"...................................................................................................................................................",
"...................................................................................................................................................",
"...................................................................................................................................................",
"...................................................................................................................................................",
"...................................................................................................................................................",
"...................................................................................................................................................",
"...................................................................................................................................................",
"...................................................................................................................................................",
"...................................................................................................................................................",
"...................................................................................................................................................",
"...................................................................................................................................................",
"...................................................................................................................................................",
"...................................................................................................................................................",
"...................................................................................................................................................",
"...................................................................................................................................................",
"..................................................................................................................................................."
};
