/* XPM */
static char *xpm_[] = {
/* columns rows colors chars-per-pixel */
"147 147 3 1 ",
"  c black",
". c #50505A",
"X c white",
/* pixels */
"                                                                                                                                                   ",
"                                                                                                                                                   ",
"                                                                                                                                                   ",
"...................................................................................................................................................",
"...................................................................................................................................................",
"...................................................................................................................................................",
"...................................................................................................................................................",
"...................................................................................................................................................",
"...................................................................................................................................................",
"...................................................................................................................................................",
"...................................................................................................................................................",
"...................................................................................................................................................",
"...................................................................................................................................................",
"...................................................................................................................................................",
"...................................................................................................................................................",
"...................................................................................................................................................",
"...................................................................................................................................................",
"...................................................................................................................................................",
"...................................................................................................................................................",
"...................................................................................................................................................",
"...................................................................................................................................................",
"...................................................................................................................................................",
"...................................................................................................................................................",
"...................................................................................................................................................",
"...................................................................................................................................................",
"...................................................................................................................................................",
"...................................................................................................................................................",
"...................................................................................................................................................",
"...................................................................................................................................................",
"...................................................................................................................................................",
"...................................................................................................................................................",
"...................................................................................................................................................",
"...................................................................................................................................................",
"...................................................................................................................................................",
"...................................................................................................................................................",
"...................................................................................................................................................",
"...................................................................................................................................................",
"...................................................................................................................................................",
"...................................................................................................................................................",
"...................................................................................................................................................",
"...................................................................................................................................................",
"............................................................................................................................                       ",
"............................................................................................................................                       ",
"............................................................................................................................                       ",
"...........................................................................................................................    XXXXXXXXXXXXXXXXXXXX",
"...........................................................................................................................    XXXXXXXXXXXXXXXXXXXX",
"...........................................................................................................................    XXXXXXXXXXXXXXXXXXXX",
"...................................................................................................................            XXXXXXXXXXXXXXXXXXXX",
"...................................................................................................................            XXXXXXXXXXXXXXXXXXXX",
"...................................................................................................................            XXXXXXXXXXXXXXXXXXXX",
"...................................................................................................................   XXXXXXXXXXXXXXXXXXXXXXXXXXXXX",
"...................................................................................................................   XXXXXXXXXXXXXXXXXXXXXXXXXXXXX",
"...................................................................................................................   XXXXXXXXXXXXXXXXXXXXXXXXXXXXX",
"...................................................................................................................   XXXXXXXXXXXXXXXXXXXXXXXXXXXXX",
"...................................................................................................................   XXXXXXXXXXXXXXXXXXXXXXXXXXXXX",
"...................................................................................................................   XXXXXXXXXXXXXXXXXXXXXXXXXXXXX",
"...................................................................................................................   XXXXXXXXXXXXXXXXXXXXXXXXXXXXX",
"...................................................................................................................   XXXXXXXXXXXXXXXXXXXXXXXXXXXXX",
"...................................................................................................................   XXXXXXXXXXXXXXXXXXXXXXXXXXXXX",
"...................................................................................................................   XXXXXXXXXXXXXXXXXXXXXXXXXXXXX",
"...................................................................................................................   XXXXXXXXXXXXXXXXXXXXXXXXXXXXX",
"...................................................................................................................   XXXXXXXXXXXXXXXXXXXXXXXXXXXXX",
"...................................................................................................................   XXXXXXXXXXXXXXXXXXXXXXXXXXXXX",
"...................................................................................................................   XXXXXXXXXXXXXXXXXXXXXXXXXXXXX",
"...................................................................................................................   XXXXXXXXXXXXXXXXXXXXXXXXXXXXX",
"...................................................................................................................   XXXXXXXXXXXXXXXXXXXXXXXXXXXXX",
"...................................................................................................................   XXXXXXXXXXXXXXXXXXXXXXXXXXXXX",
"...................................................................................................................   XXXXXXXXXXXXXXXXXXXXXXXXXXXXX",
"...................................................................................................................   XXXXXXXXXXXXXXXXXXXXXXXXXXXXX",
"...................................................................................................................   XXXXXXXXXXXXXXXXXXXXXXXXXXXXX",
"...................................................................................................................   XXXXXXXXXXXXXXXXXXXXXXXXXXXXX",
"...................................................................................................................   XXXXXXXXXXXXXXXXXXXXXXXXXXXXX",
"...................................................................................................................   XXXXXXXXXXXXXXXXXXXXXXXXXXXXX",
"...................................................................................................................   XXXXXXXXXXXXXXXXXXXXXXXXXXXXX",
"...................................................................................................................   XXXXXXXXXXXXXXXXXXXXXXXXXXXXX",
"...................................................................................................................   XXXXXXXXXXXXXXXXXXXXXXXXXXXXX",
"...................................................................................................................                   XXXXXXXXXXXXX",
"...................................................................................................................                   XXXXXXXXXXXXX",
"...................................................................................................................                   XXXXXXXXXXXXX",
"...................................................................................................................................   XXXXXXXXXXXXX",
"...................................................................................................................................   XXXXXXXXXXXXX",
"...................................................................................................................................   XXXXXXXXXXXXX",
"...................................................................................................................................   XXXXXXXXXXXXX",
"...................................................................................................................................   XXXXXXXXXXXXX",
"...................................................................................................................................   XXXXXXXXXXXXX",
"...................................................................................................................                   XXXXXXXXXXXXX",
"...................................................................................................................                   XXXXXXXXXXXXX",
"...................................................................................................................                   XXXXXXXXXXXXX",
"...................................................................................................................   XXXXXXXXXXXXXXXXXXXXXXXXXXXXX",
"...................................................................................................................   XXXXXXXXXXXXXXXXXXXXXXXXXXXXX",
"...................................................................................................................   XXXXXXXXXXXXXXXXXXXXXXXXXXXXX",
"...................................................................................................................   XXXXXXXXXXXXXXXXXXXXXXXXXXXXX",
"...................................................................................................................   XXXXXXXXXXXXXXXXXXXXXXXXXXXXX",
"...................................................................................................................   XXXXXXXXXXXXXXXXXXXXXXXXXXXXX",
"...................................................................................................................   XXXXXXXXXXXXXXXXXXXXXXXXXXXXX",
"...................................................................................................................   XXXXXXXXXXXXXXXXXXXXXXXXXXXXX",
"...................................................................................................................   XXXXXXXXXXXXXXXXXXXXXXXXXXXXX",
"...................................................................................................................   XXXXXXXXXXXXXXXXXXXXXXXXXXXXX",
"...................................................................................................................   XXXXXXXXXXXXXXXXXXXXXXXXXXXXX",
"...................................................................................................................   XXXXXXXXXXXXXXXXXXXXXXXXXXXXX",
"...................................................................................................................   XXXXXXXXXXXXXXXXXXXXXXXXXXXXX",
"...................................................................................................................                                ",
"...................................................................................................................                                ",
"...................................................................................................................                                ",
"...................................................................................................................................................",
"...................................................................................................................................................",
"...................................................................................................................................................",
"...................................................................................................................................................",
"...................................................................................................................................................",
"...................................................................................................................................................",
"...................................................................................................................................................",
"...................................................................................................................................................",
"...................................................................................................................................................",
"...................................................................................................................................................",
"...................................................................................................................................................",
"...................................................................................................................................................",
"...................................................................................................................................................",
"...................................................................................................................................................",
"...................................................................................................................................................",
"...................................................................................................................................................",
"...................................................................................................................................................",
"...................................................................................................................................................",
"...................................................................................................................................................",
"...................................................................................................................................................",
"...................................................................................................................................................",
"...................................................................................................................................................",
"...................................................................................................................................................",
"...................................................................................................................................................",
"...................................................................................................................................................",
"...................................................................................................................................................",
"...................................................................................................................................................",
"...................................................................................................................................................",
"...................................................................................................................................................",
"...................................................................................................................................................",
"...................................................................................................................................................",
"...................................................................................................................................................",
"...................................................................................................................................................",
"...................................................................................................................................................",
"...................................................................................................................................................",
"...................................................................................................................................................",
"...................................................................................................................................................",
"...................................................................................................................................................",
"...................................................................................................................................................",
"...................................................................................................................................................",
"...................................................................................................................................................",
"...................................................................................................................................................",
"..................................................................................................................................................."
};
