/* XPM */
static char *xpm_[] = {
/* columns rows colors chars-per-pixel */
"147 147 3 1 ",
"  c black",
". c #50505A",
"X c white",
/* pixels */
"                                                                                                                                                   ",
"                                                                                                                                                   ",
"                                                                                                                                                   ",
"...................................................................................................................................................",
"...................................................................................................................................................",
"...................................................................................................................................................",
"...................................................................................................................................................",
"...................................................................................................................................................",
"...................................................................................................................................................",
"...................................................................................................................................................",
"...................................................................................................................................................",
"...................................................................................................................................................",
"...................................................................................................................................................",
"...................................................................................................................................................",
"...................................................................................................................................................",
"...................................................................................................................................................",
"...................................................................................................................................................",
"...................................................................................................................................................",
"...................................................................................................................................................",
"...................................................................................................................................................",
"...................................................................................................................................................",
"...................................................................................................................................................",
"...................................................................................................................................................",
"...................................................................................................................................................",
"...................................................................................................................................................",
"...................................................................................................................................................",
"...................................................................................................................................................",
"...................................................................................................................................................",
"...................................................................................................................................................",
"...................................................................................................................................................",
"...................................................................................................................................................",
"...................................................................................................................................................",
"...................................................................................................................................................",
"...................................................................................................................................................",
"...................................................................................................................................................",
"...................................................................................................................................................",
"...................................................................................................................................................",
"...................................................................................................................................................",
"...................................................................................................................................................",
"                                                .........                                                ...........                     ..........",
"                                                .........                                                ...........                     ..........",
"                                                .........                                                ...........                     ..........",
"XXXXXXXXXXXXXXXXXXXXXXXXXXXXXXXXXXXXXXXXXXXXX   .........   XXXXXXXXXXXXXXXXXXXXXXXXXXXXXXXXXXXXXXXXXX   ...........   XXXXXXXXXXXXXXX   ..........",
"XXXXXXXXXXXXXXXXXXXXXXXXXXXXXXXXXXXXXXXXXXXXX   .........   XXXXXXXXXXXXXXXXXXXXXXXXXXXXXXXXXXXXXXXXXX   ...........   XXXXXXXXXXXXXXX   ..........",
"XXXXXXXXXXXXXXXXXXXXXXXXXXXXXXXXXXXXXXXXXXXXX   .........   XXXXXXXXXXXXXXXXXXXXXXXXXXXXXXXXXXXXXXXXXX   ...........   XXXXXXXXXXXXXXX   ..........",
"XXXXXXXXXXXXXXXXXXXXXXXXXXXXXXXXXXXXXXXXXXXXX   .........   XXXXXXXXXXXXXXXXXXXXXXXXXXXXXXXXXXXXXXXXXX   ...........   XXXXXXXXXXXXXXX   ..........",
"XXXXXXXXXXXXXXXXXXXXXXXXXXXXXXXXXXXXXXXXXXXXX   .........   XXXXXXXXXXXXXXXXXXXXXXXXXXXXXXXXXXXXXXXXXX   ...........   XXXXXXXXXXXXXXX             ",
"XXXXXXXXXXXXXXXXXXXXXXXXXXXXXXXXXXXXXXXXXXXXX   .........   XXXXXXXXXXXXXXXXXXXXXXXXXXXXXXXXXXXXXXXXXX   ...........   XXXXXXXXXXXXXXX             ",
"XXXXXXXXXXXXXXXXXXXXXXXXXXXXXXXXXXXXXXXXXXXXX   .........   XXXXXXXXXXXXXXXXXXXXXXXXXXXXXXXXXXXXXXXXXX   ...........   XXXXXXXXXXXXXXX             ",
"XXXXXXXXXXXXXXXXXXXXXXXXXXXXXXXXXXXXXXXXXXXXX   .........   XXXXXXXXXXXXXXXXXXXXXXXXXXXXXXXXXXXXXXXXXX   ...........   XXXXXXXXXXXXXXXXXXX         ",
"XXXXXXXXXXXXXXXXXXXXXXXXXXXXXXXXXXXXXXXXXXXXX   .........   XXXXXXXXXXXXXXXXXXXXXXXXXXXXXXXXXXXXXXXXXX   ...........   XXXXXXXXXXXXXXXXXXX         ",
"XXXXXXXXXXXXXXXXXXXXXXXXXXXXXXXXXXXXXXXXXXXXX   .........   XXXXXXXXXXXXXXXXXXXXXXXXXXXXXXXXXXXXXXXXXX   ...........   XXXXXXXXXXXXXXXXXXX         ",
"XXXXXXXXXXXXXXXXXXXXXXXXXXXXXXXXXXXXXXXXXXXXX   .........   XXXXXXXXXXXXXXXXXXXXXXXXXXXXXXXXXXXXXXXXXX   ...........   XXXXXXXXXXXXXXXXXXX         ",
"XXXXXXXXXXXXXXXXXXXXXXXXXXXXXXXXXXXXXXXXXXXXX   .........   XXXXXXXXXXXXXX                               ...........   XXXXXXXXXXXXXXXXXXXXXXXXXXXX",
"XXXXXXXXXXXXXXXXXXXXXXXXXXXXXXXXXXXXXXXXXXXXX   .........   XXXXXXXXXXXXXX                               ...........   XXXXXXXXXXXXXXXXXXXXXXXXXXXX",
"XXXXXXXXXXXXXXXXXXXXXXXXXXXXXXXXXXXXXXXXXXXXX   .........   XXXXXXXXXXXXXX                               ...........   XXXXXXXXXXXXXXXXXXXXXXXXXXXX",
"XXXXXXXXXXXXXXXXXXXXXXXXXXXXXXXXXXXXXXXXXXXXX   .........   XXXXXXXXXXXXXX   .......................................   XXXXXXXXXXXXXXXXXXXXXXXXXXXX",
"XXXXXXXXXXXXXXXXXXXXXXXXXXXXXXXXXXXXXXXXXXXXX   .........   XXXXXXXXXXXXXX   .......................................   XXXXXXXXXXXXXXXXXXXXXXXXXXXX",
"XXXXXXXXXXXXXXXXXXXXXXXXXXXXXXXXXXXXXXXXXXXXX   .........   XXXXXXXXXXXXXX   .......................................   XXXXXXXXXXXXXXXXXXXXXXXXXXXX",
"XXXXXXXXXXXXXXXXXXXXXXXXXXXXXXXXXXXXXXXXXXXXX   .........   XXXXXXXXXXXXXX   .......................................   XXXXXXXXXXXXXXXXXXXXXXXXXXXX",
"XXXXXXXXXXXXXXXXXXXXXXXXXXXXXXXXXXXXXXXXXXXXX   .........   XXXXXXXXXXXXXX   .......................................   XXXXXXXXXXXXXXXXXXXXXXXXXXXX",
"               XXXXXXXXXXXXXXX                  .........   XXXXXXXXXXXXXX   .......................................   XXXXXXXXXXXXXXXXXXXXXXXXXXXX",
"               XXXXXXXXXXXXXXX                  .........   XXXXXXXXXXXXXX   .......................................   XXXXXXXXXXXXXXXXXXXXXXXXXXXX",
"               XXXXXXXXXXXXXXX                  .........   XXXXXXXXXXXXXX   .......................................   XXXXXXXXXXXXXXXXXXXXXXXXXXXX",
"............   XXXXXXXXXXXXXXX   ........................   XXXXXXXXXXXXXX   .......................................   XXXXXXXXXXXXXXXXXXXXXXXXXXXX",
"............   XXXXXXXXXXXXXXX   ........................   XXXXXXXXXXXXXX                           ...............   XXXXXXXXXXXXXXXXXXXXXXXXXXXX",
"............   XXXXXXXXXXXXXXX   ........................   XXXXXXXXXXXXXX                           ...............   XXXXXXXXXXXXXXXXXXXXXXXXXXXX",
"............   XXXXXXXXXXXXXXX   ........................   XXXXXXXXXXXXXX                           ...............   XXXXXXXXXXXXXXXXXXXXXXXXXXXX",
"............   XXXXXXXXXXXXXXX   ........................   XXXXXXXXXXXXXXXXXXXXXXXXXXXXXXXXXXXXXX   ...............   XXXXXXXXXXXXXXXXXXXXXXXXXXXX",
"............   XXXXXXXXXXXXXXX   ........................   XXXXXXXXXXXXXXXXXXXXXXXXXXXXXXXXXXXXXX   ...............   XXXXXXXXXXXXXXXXXXXXXXXXXXXX",
"............   XXXXXXXXXXXXXXX   ........................   XXXXXXXXXXXXXXXXXXXXXXXXXXXXXXXXXXXXXX   ...............   XXXXXXXXXXXXXXXXXXXXXXXXXXXX",
"............   XXXXXXXXXXXXXXX   ........................   XXXXXXXXXXXXXXXXXXXXXXXXXXXXXXXXXXXXXX   ...............   XXXXXXXXXXXXXXXXXXXXXXXXXXXX",
"............   XXXXXXXXXXXXXXX   ........................   XXXXXXXXXXXXXXXXXXXXXXXXXXXXXXXXXXXXXX   ...............   XXXXXXXXXXXXXXXXXXXXXXXXXXXX",
"............   XXXXXXXXXXXXXXX   ........................   XXXXXXXXXXXXXXXXXXXXXXXXXXXXXXXXXXXXXX   ...............   XXXXXXXXXXXXXXXXXXXXXXXXXXXX",
"............   XXXXXXXXXXXXXXX   ........................   XXXXXXXXXXXXXXXXXXXXXXXXXXXXXXXXXXXXXX   ...............   XXXXXXXXXXXXXXXXXXXXXXXXXXXX",
"............   XXXXXXXXXXXXXXX   ........................   XXXXXXXXXXXXXXXXXXXXXXXXXXXXXXXXXXXXXX   ...............   XXXXXXXXXXXXXXXXXXXXXXXXXXXX",
"............   XXXXXXXXXXXXXXX   ........................   XXXXXXXXXXXXXXXXXXXXXXXXXXXXXXXXXXXXXX   ...............   XXXXXXXXXXXXXXXXXXXXXXXXXXXX",
"............   XXXXXXXXXXXXXXX   ........................   XXXXXXXXXXXXXXX                          ...............   XXXXXXXXXXXXXXXXXXXXXXXXXXXX",
"............   XXXXXXXXXXXXXXX   ........................   XXXXXXXXXXXXXXX                          ...............   XXXXXXXXXXXXXXXXXXXXXXXXXXXX",
"............   XXXXXXXXXXXXXXX   ........................   XXXXXXXXXXXXXXX                          ...............   XXXXXXXXXXXXXXXXXXXXXXXXXXXX",
"............   XXXXXXXXXXXXXXX   ........................   XXXXXXXXXXXXXXX   ......................................   XXXXXXXXXXXXXXXXXXXXXXXXXXXX",
"............   XXXXXXXXXXXXXXX   ........................   XXXXXXXXXXXXXXX   ......................................   XXXXXXXXXXXXXXXXXXXXXXXXXXXX",
"............   XXXXXXXXXXXXXXX   ........................   XXXXXXXXXXXXXXX   ......................................   XXXXXXXXXXXXXXXXXXXXXXXXXXXX",
"............   XXXXXXXXXXXXXXX   ........................   XXXXXXXXXXXXXXX   ......................................   XXXXXXXXXXXXXXXXXXXXXXXXXXXX",
"............   XXXXXXXXXXXXXXX   ........................   XXXXXXXXXXXXXXX   ......................................   XXXXXXXXXXXXXXXXXXXXXXXXXXXX",
"............   XXXXXXXXXXXXXXX   ........................   XXXXXXXXXXXXXXX   ......................................   XXXXXXXXXXXXXXXXXXXXXXXXXXXX",
"............   XXXXXXXXXXXXXXX   ........................   XXXXXXXXXXXXXXX   ......................................   XXXXXXX      XXXXXXXXXXXXXXX",
"............   XXXXXXXXXXXXXXX   ........................   XXXXXXXXXXXXXXX   ......................................   XXXXXXX      XXXXXXXXXXXXXXX",
"............   XXXXXXXXXXXXXXX   ........................   XXXXXXXXXXXXXXX   ......................................   XXXXXXX      XXXXXXXXXXXXXXX",
"............   XXXXXXXXXXXXXXX   ........................   XXXXXXXXXXXXXXX                                .........   XXXXXXX      XXXXXXXXXXXXXXX",
"............   XXXXXXXXXXXXXXX   ........................   XXXXXXXXXXXXXXX                                .........   XXXXXXX      XXXXXXXXXXXXXXX",
"............   XXXXXXXXXXXXXXX   ........................   XXXXXXXXXXXXXXX                                .........   XXXXXXX      XXXXXXXXXXXXXXX",
"............   XXXXXXXXXXXXXXX   ........................   XXXXXXXXXXXXXXXXXXXXXXXXXXXXXXXXXXXXXXXXXXXX   .........   XXXXXXX   .       XXXXXXXXXX",
"............   XXXXXXXXXXXXXXX   ........................   XXXXXXXXXXXXXXXXXXXXXXXXXXXXXXXXXXXXXXXXXXXX   .........   XXXXXXX   .       XXXXXXXXXX",
"............   XXXXXXXXXXXXXXX   ........................   XXXXXXXXXXXXXXXXXXXXXXXXXXXXXXXXXXXXXXXXXXXX   .........   XXXXXXX   .....   XXXXXXXXXX",
"............   XXXXXXXXXXXXXXX   ........................   XXXXXXXXXXXXXXXXXXXXXXXXXXXXXXXXXXXXXXXXXXXX   .........   XXXXXXX   .....   XXXXXXXXXX",
"............   XXXXXXXXXXXXXXX   ........................   XXXXXXXXXXXXXXXXXXXXXXXXXXXXXXXXXXXXXXXXXXXX   .........   XXXXXXX   .....   XXXXXXXXXX",
"............   XXXXXXXXXXXXXXX   ........................   XXXXXXXXXXXXXXXXXXXXXXXXXXXXXXXXXXXXXXXXXXXX   .........   XXXXXXX   .....   XXXXXXXXXX",
"............   XXXXXXXXXXXXXXX   ........................   XXXXXXXXXXXXXXXXXXXXXXXXXXXXXXXXXXXXXXXXXXXX   .........   XXXXXXX   .....   XXXXXXXXXX",
"............   XXXXXXXXXXXXXXX   ........................   XXXXXXXXXXXXXXXXXXXXXXXXXXXXXXXXXXXXXXXXXXXX   .........   XXXXXXX   .....   XXXXXXXXXX",
"............   XXXXXXXXXXXXXXX   ........................   XXXXXXXXXXXXXXXXXXXXXXXXXXXXXXXXXXXXXXXXXXXX   .........   XXXXXXX   .....   XXXXXXXXXX",
"............   XXXXXXXXXXXXXXX   ........................   XXXXXXXXXXXXXXXXXXXXXXXXXXXXXXXXXXXXXXXXXXXX   .........   XXXXXXX   .....   XXXXXXXXXX",
"............                     ........................                                                  .........             .....             ",
"............                     ........................                                                  .........             .....             ",
"............                     ........................                                                  .........             .....             ",
"...................................................................................................................................................",
"...................................................................................................................................................",
"...................................................................................................................................................",
"...................................................................................................................................................",
"...................................................................................................................................................",
"...................................................................................................................................................",
"...................................................................................................................................................",
"...................................................................................................................................................",
"...................................................................................................................................................",
"...................................................................................................................................................",
"...................................................................................................................................................",
"...................................................................................................................................................",
"...................................................................................................................................................",
"...................................................................................................................................................",
"...................................................................................................................................................",
"...................................................................................................................................................",
"...................................................................................................................................................",
"...................................................................................................................................................",
"...................................................................................................................................................",
"...................................................................................................................................................",
"...................................................................................................................................................",
"...................................................................................................................................................",
"...................................................................................................................................................",
"...................................................................................................................................................",
"...................................................................................................................................................",
"...................................................................................................................................................",
"...................................................................................................................................................",
"...................................................................................................................................................",
"...................................................................................................................................................",
"...................................................................................................................................................",
"...................................................................................................................................................",
"...................................................................................................................................................",
"...................................................................................................................................................",
"...................................................................................................................................................",
"...................................................................................................................................................",
"...................................................................................................................................................",
"...................................................................................................................................................",
"...................................................................................................................................................",
"...................................................................................................................................................",
"...................................................................................................................................................",
"...................................................................................................................................................",
"..................................................................................................................................................."
};
