/* XPM */
static char *xpm_[] = {
/* columns rows colors chars-per-pixel */
"147 147 3 1 ",
"  c black",
". c #50505A",
"X c white",
/* pixels */
"                                                                                                                                                   ",
"                                                                                                                                                   ",
"                                                                                                                                                   ",
"...................................................................................................................................................",
"...................................................................................................................................................",
"...................................................................................................................................................",
"...................................................................................................................................................",
"...................................................................................................................................................",
"...................................................................................................................................................",
"...................................................................................................................................................",
"...................................................................................................................................................",
"...................................................................................................................................................",
"...................................................................................................................................................",
"...................................................................................................................................................",
"...................................................................................................................................................",
"...................................................................................................................................................",
"...................................................................................................................................................",
"...................................................................................................................................................",
"...................................................................................................................................................",
"...................................................................................................................................................",
"...................................................................................................................................................",
"...................................................................................................................................................",
"...................................................................................................................................................",
"...................................................................................................................................................",
"...................................................................................................................................................",
"...................................................................................................................................................",
"...................................................................................................................................................",
"...................................................................................................................................................",
"...................................................................................................................................................",
"...................................................................................................................................................",
"...................................................................................................................................................",
"...................................................................................................................................................",
"...................................................................................................................................................",
"...................................................................................................................................................",
"...................................................................................................................................................",
"...................................................................................................................................................",
"...................................................................................................................................................",
"...................................................................................................................................................",
"...................................................................................................................................................",
"..................................................................................                                                  ............   ",
"..................................................................................                                                  ............   ",
"..................................................................................                                                  ............   ",
"..................................................................................   XXXXXXXXXXXXXXXXXXXXXXXXXXXXXXXXXXXXXXXXXXXX   ............   ",
"..................................................................................   XXXXXXXXXXXXXXXXXXXXXXXXXXXXXXXXXXXXXXXXXXXX   ............   ",
"..................................................................................   XXXXXXXXXXXXXXXXXXXXXXXXXXXXXXXXXXXXXXXXXXXX   ............   ",
"..................................................................................   XXXXXXXXXXXXXXXXXXXXXXXXXXXXXXXXXXXXXXXXXXXX   ............   ",
"..................................................................................   XXXXXXXXXXXXXXXXXXXXXXXXXXXXXXXXXXXXXXXXXXXX   ............   ",
"..................................................................................   XXXXXXXXXXXXXXXXXXXXXXXXXXXXXXXXXXXXXXXXXXXX   ............   ",
"..................................................................................   XXXXXXXXXXXXXXXXXXXXXXXXXXXXXXXXXXXXXXXXXXXX   ............   ",
"..................................................................................   XXXXXXXXXXXXXXXXXXXXXXXXXXXXXXXXXXXXXXXXXXXX   ............   ",
"..................................................................................                    XXXXXXXXXXXX                  ............   ",
"..................................................................................                    XXXXXXXXXXXX                  ............   ",
"..................................................................................                    XXXXXXXXXXXX                  ............   ",
"...................................................................................................   XXXXXXXXXXXX   ...........................   ",
"...................................................................................................   XXXXXXXXXXXX   ...........................   ",
"...................................................................................................   XXXXXXXXXXXX   ...........................   ",
"...................................................................................................   XXXXXXXXXXXX   ...........................   ",
"...................................................................................................   XXXXXXXXXXXX   ...........................   ",
"...................................................................................................   XXXXXXXXXXXX   ...........................   ",
"...................................................................................................   XXXXXXXXXXXX   ...........................   ",
"...................................................................................................   XXXXXXXXXXXX   ...........................   ",
"...................................................................................................   XXXXXXXXXXXX   ...........................   ",
"...................................................................................................   XXXXXXXXXXXX   ...........................   ",
"...................................................................................................   XXXXXXXXXXXX   ..............................",
"...................................................................................................   XXXXXXXXXXXX   ..............................",
"...................................................................................................   XXXXXXXXXXXX   ..............................",
"...................................................................................................   XXXXXXXXXXXX   ..............................",
"...................................................................................................   XXXXXXXXXXXX   ..............................",
"...................................................................................................   XXXXXXXXXXXX   ..............................",
"...................................................................................................   XXXXXXXXXXXX   ..............................",
"...................................................................................................   XXXXXXXXXXXX   ..............................",
"...................................................................................................   XXXXXXXXXXXX   ..............................",
"...................................................................................................   XXXXXXXXXXXX   ..............................",
"...................................................................................................   XXXXXXXXXXXX   ..............................",
"...................................................................................................   XXXXXXXXXXXX   ..............................",
"...................................................................................................   XXXXXXXXXXXX   ..............................",
"...................................................................................................   XXXXXXXXXXXX   ..............................",
"...................................................................................................   XXXXXXXXXXXX   ..............................",
"...................................................................................................   XXXXXXXXXXXX   ..............................",
"...................................................................................................   XXXXXXXXXXXX   ..............................",
"...................................................................................................   XXXXXXXXXXXX   ..............................",
"...................................................................................................   XXXXXXXXXXXX   ..............................",
"...................................................................................................   XXXXXXXXXXXX   ..............................",
"...................................................................................................   XXXXXXXXXXXX   ..............................",
"...................................................................................................   XXXXXXXXXXXX   ..............................",
"...................................................................................................   XXXXXXXXXXXX   ..............................",
"...................................................................................................   XXXXXXXXXXXX   ..............................",
"...................................................................................................   XXXXXXXXXXXX   ..............................",
"...................................................................................................   XXXXXXXXXXXX   ..............................",
"...................................................................................................   XXXXXXXXXXXX   ..............................",
"..................................................................................                    XXXXXXXXXXXX                  ...............",
"..................................................................................                    XXXXXXXXXXXX                  ...............",
"..................................................................................                    XXXXXXXXXXXX                  ...............",
"..................................................................................   XXXXXXXXXXXXXXXXXXXXXXXXXXXXXXXXXXXXXXXXXXXX   ...............",
"..................................................................................   XXXXXXXXXXXXXXXXXXXXXXXXXXXXXXXXXXXXXXXXXXXX   ...............",
"..................................................................................   XXXXXXXXXXXXXXXXXXXXXXXXXXXXXXXXXXXXXXXXXXXX   ...............",
"..................................................................................   XXXXXXXXXXXXXXXXXXXXXXXXXXXXXXXXXXXXXXXXXXXX   ...............",
"..................................................................................   XXXXXXXXXXXXXXXXXXXXXXXXXXXXXXXXXXXXXXXXXXXX   ...............",
"..................................................................................   XXXXXXXXXXXXXXXXXXXXXXXXXXXXXXXXXXXXXXXXXXXX   ...............",
"..................................................................................   XXXXXXXXXXXXXXXXXXXXXXXXXXXXXXXXXXXXXXXXXXXX   ...............",
"..................................................................................   XXXXXXXXXXXXXXXXXXXXXXXXXXXXXXXXXXXXXXXXXXXX   ...............",
"..................................................................................                                                  ...............",
"..................................................................................                                                  ...............",
"..................................................................................                                                  ...............",
"...................................................................................................................................................",
"...................................................................................................................................................",
"...................................................................................................................................................",
"...................................................................................................................................................",
"...................................................................................................................................................",
"...................................................................................................................................................",
"...................................................................................................................................................",
"...................................................................................................................................................",
"...................................................................................................................................................",
"...................................................................................................................................................",
"...................................................................................................................................................",
"...................................................................................................................................................",
"...................................................................................................................................................",
"...................................................................................................................................................",
"...................................................................................................................................................",
"...................................................................................................................................................",
"...................................................................................................................................................",
"...................................................................................................................................................",
"...................................................................................................................................................",
"...................................................................................................................................................",
"...................................................................................................................................................",
"...................................................................................................................................................",
"...................................................................................................................................................",
"...................................................................................................................................................",
"...................................................................................................................................................",
"...................................................................................................................................................",
"...................................................................................................................................................",
"...................................................................................................................................................",
"...................................................................................................................................................",
"...................................................................................................................................................",
"...................................................................................................................................................",
"...................................................................................................................................................",
"...................................................................................................................................................",
"...................................................................................................................................................",
"...................................................................................................................................................",
"...................................................................................................................................................",
"...................................................................................................................................................",
"...................................................................................................................................................",
"...................................................................................................................................................",
"...................................................................................................................................................",
"...................................................................................................................................................",
"...................................................................................................................................................",
"..................................................................................................................................................."
};
