/* XPM */
static char *xpm_[] = {
/* columns rows colors chars-per-pixel */
"96 96 2 1 ",
"  c #D52F2F",
". c #BADA1D",
/* pixels */
"                                                                                                ",
"                                                                                                ",
"                                                                                                ",
"                                                                                                ",
"                                                                                                ",
"                                                                                                ",
"                                                                                                ",
"                                                                                                ",
"                                                                                                ",
"                                                                                                ",
"                                                                                                ",
"                                                                                                ",
"                                                                                                ",
"                                                                                                ",
"                                                                                                ",
"                                                                                                ",
"                                                                                                ",
"                                                                                                ",
"                                                                                                ",
"                                                                                                ",
"                                                                                                ",
"                                                                                            .   ",
"                                                                                                ",
"                                                                                                ",
"                                                                                                ",
"                                                                                                ",
"                                                                                                ",
"                                                      ......                                    ",
"                                                      ......                                    ",
"                                                     .......                                    ",
"                                                     ...  ..                                    ",
"                                                     ... ...                                    ",
"                                                     .......                                    ",
"                                                     . ....                                     ",
"                            ...                      ......                                     ",
"                           .                                                                    ",
"                          .                                                                     ",
"                          .                                                                     ",
"                          .                                                                     ",
"                         .                                                                      ",
"                         .                                                                      ",
"                         .                                                                      ",
"                        .                                                                       ",
"                        .                                                                       ",
"                        .                                                                       ",
"                        .                                                                       ",
"                        .                                                                       ",
"                       .                                                                        ",
"                       .                                                                        ",
"                       .                                                                        ",
"                       .                                                                        ",
"                       .                                                                        ",
"                      .                                                                         ",
"                      .                                                                         ",
"                      .                                                                         ",
"                      .                                                                         ",
"                      .                                                                         ",
"                      .                                                                         ",
"                      .                                   ...                                   ",
"                      .                                 .....                                   ",
"                      .                                 .   .                                   ",
"                       .                                ... .                                   ",
"                       .                               ......                                   ",
"                        .                            ........                                   ",
"                         ..                          ........                                   ",
"                          ...                        ..... ..                                   ",
"                                                     ...  ...                                   ",
"                                                     . .... .                                   ",
"                                                      .. .  .                                   ",
"                                                      . ....                                    ",
"                                                       ...                                      ",
"                                                                                                ",
"                                                                                                ",
"                                                                                                ",
"                                                                                                ",
"                                                                                                ",
"                                                                                                ",
"                                                                                                ",
"                                                                                                ",
"                                                                                                ",
"                                                                                                ",
"                                                                                                ",
"                                                                                                ",
"                                                                                                ",
"                                                                                                ",
"                                                                                                ",
"                                                                                                ",
"                                                                                                ",
"                                                                                                ",
"                                                                                                ",
"                                                                                                ",
"                                                                                                ",
"                                                                                                ",
"                                                                                                ",
"                                                                                                ",
"                                                                                                "
};
