/* XPM */
static char *xpm_[] = {
/* columns rows colors chars-per-pixel */
"96 96 3 1 ",
"  c black",
". c #50505A",
"X c white",
/* pixels */
"................................................................................................",
"................................................................................................",
"................................................................................................",
"................................................................................................",
"................................................................................................",
"................................................................................................",
"................................................................................................",
"................................................................................................",
"................................................................................................",
"................................................................................................",
"................................................................................................",
"................................................................................................",
"................................................................................................",
"................................................................................................",
"................................................................................................",
"................................................................................................",
"................................................................................................",
"....................................                        ....................................",
"..................................                            ..................................",
".................................                              .................................",
".................................   XXXXXXXXXXXXXXXXXXXXXXXX   .................................",
"...............................     XXXXXXXXXXXXXXXXXXXXXXXX     ...............................",
"...............................   XXXXXXXXXXXXXXXXXXXXXXXXXXXX   ...............................",
".............................     XXXXXXXXXXXXXXXXXXXXXXXXXXXX     .............................",
".............................   XXXXXXXXXXXXXXXXXXXXXXXXXXXXXXXX   .............................",
"...........................     XXXXXXXXXXXXXXXXXXXXXXXXXXXXXXXX     ...........................",
"...........................   XXXXXXXXXXXXXXXXXXXXXXXXXXXXXXXXXXXX   ...........................",
".........................     XXXXXX                        XXXXXX   ...........................",
".........................   XXXXXXXX                        XXXXXXXX   .........................",
".........................   XXXXXXXX                        XXXXXXXX   .........................",
".........................   XXXXXXXX   ..................   XXXXXXXX     .......................",
".......................     XXXXX      ..................      XXXXX     .......................",
".......................   XXXXXXX      ..................      XXXXXXX   .......................",
".......................   XXXXX     ........................     XXXXX   .......................",
".......................   XXXXX     ........................     XXXXX   .......................",
".......................   XXXXX   ............................   XXXXX   .......................",
".......................   XXXXX   ............................   XXXXX   .......................",
".......................   XXXXX   ............................   XXXXX   .......................",
".......................   XXXXX   ............................   XXXXX   .......................",
".......................   XXXXX     ........................     XXXXX   .......................",
".......................   XXXXXX    ........................    XXXXXX   .......................",
".......................   XXXXXXX      ..................      XXXXXXX   .......................",
".......................    XXXXXX                              XXXXXX    .......................",
".........................    XXXXXXX                        XXXXXXX    .........................",
"..........................   XXXXXXX                        XXXXXXX   ..........................",
"..........................   XXXXXXXXXXXXXXXXXXXXXXXXXXXXXXXXXXXXXX   ..........................",
"...........................   XXXXXXXXXXXXXXXXXXXXXXXXXXXXXXXXXXXX   ...........................",
"...........................   XXXXXXXXXXXXXXXXXXXXXXXXXXXXXXXXXXXX   ...........................",
"...........................   XXXXXXXXXXXXXXXXXXXXXXXXXXXXXXXXXXXX   ...........................",
"...........................   XXXXXXXXXXXXXXXXXXXXXXXXXXXXXXXXXXXX   ...........................",
"..........................   XXXXXXXXXXXXXXXXXXXXXXXXXXXXXXXXXXXXXX   ..........................",
"..........................   XXXXXXX                        XXXXXXX   ..........................",
".........................    XXXXXXX                        XXXXXXX    .........................",
".......................    XXXXXX                              XXXXXX    .......................",
".......................   XXXXXXX      ..................      XXXXXXX   .......................",
".......................   XXXXXX    ........................    XXXXXX   .......................",
".......................   XXXXX     ........................     XXXXX   .......................",
".......................   XXXXX   ............................   XXXXX   .......................",
".......................   XXXXX   ............................   XXXXX   .......................",
".......................   XXXXX   ............................   XXXXX   .......................",
".......................   XXXXX   ............................   XXXXX   .......................",
".......................   XXXXX     ........................     XXXXX   .......................",
".......................   XXXXX     ........................     XXXXX   .......................",
".......................   XXXXXXX      ..................      XXXXXXX   .......................",
".......................     XXXXX      ..................      XXXXX     .......................",
".........................   XXXXXXXX   ..................   XXXXXXXX     .......................",
".........................   XXXXXXXX                        XXXXXXXX   .........................",
".........................   XXXXXXXX                        XXXXXXXX   .........................",
".........................     XXXXXX                        XXXXXX   ...........................",
"...........................   XXXXXXXXXXXXXXXXXXXXXXXXXXXXXXXXXXXX   ...........................",
"...........................     XXXXXXXXXXXXXXXXXXXXXXXXXXXXXXXX     ...........................",
".............................   XXXXXXXXXXXXXXXXXXXXXXXXXXXXXXXX   .............................",
".............................     XXXXXXXXXXXXXXXXXXXXXXXXXXXX     .............................",
"...............................   XXXXXXXXXXXXXXXXXXXXXXXXXXXX   ...............................",
"...............................     XXXXXXXXXXXXXXXXXXXXXXXX     ...............................",
".................................   XXXXXXXXXXXXXXXXXXXXXXXX   .................................",
".................................                              .................................",
"..................................                            ..................................",
"....................................                        ....................................",
"................................................................................................",
"................................................................................................",
"................................................................................................",
"................................................................................................",
"................................................................................................",
"................................................................................................",
"................................................................................................",
"................................................................................................",
"................................................................................................",
"................................................................................................",
"................................................................................................",
"................................................................................................",
"................................................................................................",
"................................................................................................",
"................................................................................................",
"................................................................................................",
"................................................................................................"
};
