/* XPM */
static char *xpm_[] = {
/* columns rows colors chars-per-pixel */
"96 96 3 1 ",
"  c black",
". c #50505A",
"X c white",
/* pixels */
"................................................................................................",
"................................................................................................",
"................................................................................................",
"................................................................................................",
"................................................................................................",
"................................................................................................",
"................................................................................................",
"................................................................................................",
"................................................................................................",
"................................................................................................",
"................................................................................................",
"................................................................................................",
"................................................................................................",
"................................................................................................",
"................................................................................................",
"................................................................................................",
"................................................................................................",
".......................                                               ..........................",
".......................                                               ..........................",
".......................                                               ..........................",
".......................   XXXXXXXXXXXXXXXXXXXXXXXXXXXXXXXXXXXXXXXXX   ..........................",
".......................   XXXXXXXXXXXXXXXXXXXXXXXXXXXXXXXXXXXXXXXXX   ..........................",
".......................   XXXXXXXXXXXXXXXXXXXXXXXXXXXXXXXXXXXXXXXXX   ..........................",
".......................   XXXXXXXXXXXXXXXXXXXXXXXXXXXXXXXXXXXXXXXXX   ..........................",
".......................   XXXXXXXXXXXXXXXXXXXXXXXXXXXXXXXXXXXXXXXXX   ..........................",
".......................   XXXXXXXXXXXXXXXXXXXXXXXXXXXXXXXXXXXXXXXXX   ..........................",
".......................   XXXXXXXXXXXXXXXXXXXXXXXXXXXXXXXXXXXXXXXXX   ..........................",
".......................   XXXXX                                       ..........................",
".......................   XXXXX                                       ..........................",
".......................   XXXXX                                       ..........................",
".......................   XXXXX   ..............................................................",
".......................   XXXXX   ..............................................................",
".......................   XXXXX   ..............................................................",
".......................   XXXXX   ..............................................................",
".......................   XXXXX   ..............................................................",
".......................   XXXXX   ..............................................................",
".......................   XXXXX   ..............................................................",
".......................   XXXXX   ..............................................................",
".......................   XXXXX   ..............................................................",
".......................   XXXXX   ..............................................................",
".......................   XXXXX   ..............................................................",
".......................   XXXXX   ..............................................................",
".......................   XXXXX                                   ..............................",
".......................   XXXXX                                   ..............................",
".......................   XXXXX                                   ..............................",
".......................   XXXXXXXXXXXXXXXXXXXXXXXXXXXXXXXXXXXXX   ..............................",
".......................   XXXXXXXXXXXXXXXXXXXXXXXXXXXXXXXXXXXXX     ............................",
".......................   XXXXXXXXXXXXXXXXXXXXXXXXXXXXXXXXXXXXXXX   ............................",
".......................   XXXXXXXXXXXXXXXXXXXXXXXXXXXXXXXXXXXXXXX     ..........................",
".......................   XXXXXXXXXXXXXXXXXXXXXXXXXXXXXXXXXXXXXXXXX   ..........................",
".......................                                     XXXXXXX   ..........................",
".......................                                     XXXXXXXX    ........................",
".......................                                     XXXXXXXX    ........................",
"..........................................................     XXXXXXX   .......................",
"..........................................................     XXXXXXX   .......................",
".......................           ..........................     XXXXX   .......................",
".......................           ...........................    XXXXX   .......................",
".......................   XXXXX   ............................   XXXXX   .......................",
".......................   XXXXX   ............................   XXXXX   .......................",
".......................   XXXXX   ............................   XXXXX   .......................",
".......................   XXXXX    ...........................   XXXXX   .......................",
".......................   XXXXX     ........................     XXXXX   .......................",
".......................   XXXXX     ........................     XXXXX   .......................",
".......................   XXXXXXX      ..................      XXXXXXX   .......................",
".......................    XXXXXX      ..................      XXXXX     .......................",
".......................    XXXXXXXXX   ..................   XXXXXXXX     .......................",
".........................   XXXXXXXX                        XXXXXXXX   .........................",
".........................   XXXXXXXX                        XXXXXXXX   .........................",
"..........................    XXXXXX                        XXXXXX   ...........................",
"...........................   XXXXXXXXXXXXXXXXXXXXXXXXXXXXXXXXXXXX   ...........................",
"...........................     XXXXXXXXXXXXXXXXXXXXXXXXXXXXXXXX     ...........................",
".............................   XXXXXXXXXXXXXXXXXXXXXXXXXXXXXXXX   .............................",
".............................     XXXXXXXXXXXXXXXXXXXXXXXXXXXX     .............................",
"...............................   XXXXXXXXXXXXXXXXXXXXXXXXXXXX   ...............................",
"...............................     XXXXXXXXXXXXXXXXXXXXXXXX     ...............................",
".................................   XXXXXXXXXXXXXXXXXXXXXXXX   .................................",
".................................                              .................................",
"..................................                            ..................................",
"....................................                        ....................................",
"................................................................................................",
"................................................................................................",
"................................................................................................",
"................................................................................................",
"................................................................................................",
"................................................................................................",
"................................................................................................",
"................................................................................................",
"................................................................................................",
"................................................................................................",
"................................................................................................",
"................................................................................................",
"................................................................................................",
"................................................................................................",
"................................................................................................",
"................................................................................................",
"................................................................................................"
};
