/* XPM */
static char *xpm_[] = {
/* columns rows colors chars-per-pixel */
"96 96 3 1 ",
"  c black",
". c #50505A",
"X c white",
/* pixels */
"................................................................................................",
"................................................................................................",
"................................................................................................",
"................................................................................................",
"................................................................................................",
"................................................................................................",
"................................................................................................",
"................................................................................................",
"................................................................................................",
"................................................................................................",
"................................................................................................",
"................................................................................................",
"................................................................................................",
"................................................................................................",
"................................................................................................",
"................................................................................................",
"................................................................................................",
"..................................................              ................................",
"..................................................              ................................",
"..................................................              ................................",
"................................................    XXXXXXXXX   ................................",
"................................................    XXXXXXXXX   ................................",
"..............................................      XXXXXXXXX   ................................",
"..............................................      XXXXXXXXX   ................................",
"...........................................     XXXXXXXXXXXXX   ................................",
"...........................................     XXXXXXXXXXXXX   ................................",
"...........................................     XXXXXXXXXXXXX   ................................",
"........................................        XXXXXXXXXXXXX   ................................",
"........................................        XXXXXXXXXXXXX   ................................",
"........................................   XXXXXXXXXXXXXXXXXX   ................................",
".....................................      XXXXXXXXXXXXXXXXXX   ................................",
".....................................      XXXXXXXXXXXXXXXXXX   ................................",
".....................................      XXXXXXXXXXXXXXXXXX   ................................",
"...................................    XXXXXXXXXXXXXXXXXXXXXX   ................................",
"...................................    XXXXXXXXXXXXXXXXXXXXXX   ................................",
"...................................    XXXXXXXXXXXXXXXXXXXXXX   ................................",
"................................       XXXXXXXXXX    XXXXXXXX   ................................",
"................................   XXXXXXXXXXXXXX    XXXXXXXX   ................................",
"................................   XXXXXXXXXXXXXX    XXXXXXXX   ................................",
"................................   XXXXXXXXXXX       XXXXXXXX   ................................",
".............................      XXXXXXXXXXX       XXXXXXXX   ................................",
".............................    XXXXXXXXXXXXX       XXXXXXXX   ................................",
".............................    XXXXXXXXXXXXX   .   XXXXXXXX   ................................",
"...........................      XXXXXXXXXX      .   XXXXXXXX   ................................",
"...........................   XXXXXXXXXXXXX      .   XXXXXXXX   ................................",
"...........................   XXXXXXXXXXXXX   ....   XXXXXXXX   ................................",
"...........................   XXXXXXXXXX      ....   XXXXXXXX   ................................",
".........................     XXXXXXXXXX      ....   XXXXXXXX   ................................",
".........................   XXXXXXXXXXXX   .......   XXXXXXXX   ................................",
".......................     XXXXXXXXXXXX   .......   XXXXXXXX   ................................",
".......................     XXXXXXXXX      .......   XXXXXXXX   ................................",
".......................   XXXXXXXXXXX      .......   XXXXXXXX   ................................",
".......................   XXXXXXXXXXX   ..........   XXXXXXXX   ................................",
".......................   XXXXXXXXX     ..........   XXXXXXXX   ................................",
".......................   XXXXXXXXX   ............   XXXXXXXX   ................................",
".......................   XXXXXXXXX   ............   XXXXXXXX   ................................",
".......................   XXXXXXXXX                  XXXXXXXX            .......................",
".......................   XXXXXXXXX                  XXXXXXXX            .......................",
".......................   XXXXXXXXX                  XXXXXXXX            .......................",
".......................   XXXXXXXXXXXXXXXXXXXXXXXXXXXXXXXXXXXXXXXXXXXX   .......................",
".......................   XXXXXXXXXXXXXXXXXXXXXXXXXXXXXXXXXXXXXXXXXXXX   .......................",
".......................   XXXXXXXXXXXXXXXXXXXXXXXXXXXXXXXXXXXXXXXXXXXX   .......................",
".......................   XXXXXXXXXXXXXXXXXXXXXXXXXXXXXXXXXXXXXXXXXXXX   .......................",
".......................   XXXXXXXXXXXXXXXXXXXXXXXXXXXXXXXXXXXXXXXXXXXX   .......................",
".......................   XXXXXXXXXXXXXXXXXXXXXXXXXXXXXXXXXXXXXXXXXXXX   .......................",
".......................   XXXXXXXXXXXXXXXXXXXXXXXXXXXXXXXXXXXXXXXXXXXX   .......................",
".......................                              XXXXXXXX            .......................",
".......................                              XXXXXXXX            .......................",
".......................                              XXXXXXXX            .......................",
"..................................................   XXXXXXXX   ................................",
"..................................................   XXXXXXXX   ................................",
"..................................................   XXXXXXXX   ................................",
"..................................................   XXXXXXXX   ................................",
"..................................................   XXXXXXXX   ................................",
"..................................................   XXXXXXXX   ................................",
"..................................................   XXXXXXXX   ................................",
"..................................................              ................................",
"..................................................              ................................",
"..................................................              ................................",
"................................................................................................",
"................................................................................................",
"................................................................................................",
"................................................................................................",
"................................................................................................",
"................................................................................................",
"................................................................................................",
"................................................................................................",
"................................................................................................",
"................................................................................................",
"................................................................................................",
"................................................................................................",
"................................................................................................",
"................................................................................................",
"................................................................................................",
"................................................................................................",
"................................................................................................"
};
