/* XPM */
static char *xpm_[] = {
/* columns rows colors chars-per-pixel */
"96 96 3 1 ",
"  c black",
". c #50505A",
"X c white",
/* pixels */
"................................................................................................",
"................................................................................................",
"................................................................................................",
"................................................................................................",
"................................................................................................",
"................................................................................................",
"................................................................................................",
"................................................................................................",
"................................................................................................",
"................................................................................................",
"................................................................................................",
"................................................................................................",
"................................................................................................",
"................................................................................................",
"................................................................................................",
"................................................................................................",
"................................................................................................",
"....................................                        ....................................",
"..................................                            ..................................",
".................................                              .................................",
".................................   XXXXXXXXXXXXXXXXXXXXXXXX   .................................",
"...............................     XXXXXXXXXXXXXXXXXXXXXXXX     ...............................",
"...............................   XXXXXXXXXXXXXXXXXXXXXXXXXXXX   ...............................",
".............................     XXXXXXXXXXXXXXXXXXXXXXXXXXXX     .............................",
".............................   XXXXXXXXXXXXXXXXXXXXXXXXXXXXXXXX   .............................",
"...........................     XXXXXXXXXXXXXXXXXXXXXXXXXXXXXXXX     ...........................",
"...........................   XXXXXXXXXXXXXXXXXXXXXXXXXXXXXXXXXXXX   ...........................",
".........................     XXXXXX                        XXXXXX   ...........................",
".........................   XXXXXXXX                        XXXXXXXX   .........................",
".........................   XXXXXXXX                        XXXXXXXX   .........................",
".........................   XXXXXXXX   ..................   XXXXXXXX     .......................",
".......................     XXXXX      ..................      XXXXX     .......................",
".......................   XXXXXXX      ..................      XXXXXXX   .......................",
".......................   XXXXX     ........................     XXXXX   .......................",
".......................   XXXXX     ........................     XXXXX   .......................",
".......................   XXXXX   ............................   XXXXX   .......................",
".......................   XXXXX   ............................   XXXXX   .......................",
".......................   XXXXX   ............................   XXXXX   .......................",
".......................   XXXXX   ............................   XXXXX   .......................",
".......................   XXXXX     ........................     XXXXX   .......................",
".......................   XXXXXX    ........................    XXXXXX   .......................",
".......................   XXXXXXX      ..................      XXXXXXX   .......................",
".......................    XXXXXX                              XXXXXXX   .......................",
".......................      XXXXXXX                        XXXXXXXXXX   .......................",
".........................    XXXXXXX                        XXXXXXXXXX   .......................",
".........................    XXXXXXXXXXXXXXXXXXXXXXXXXXXXXXXXXXXXXXXXX   .......................",
"...........................   XXXXXXXXXXXXXXXXXXXXXXXXXXXXXXXXXXXXXXXX   .......................",
"...........................   XXXXXXXXXXXXXXXXXXXXXXXXXXXXXXXXXXXXXXXX   .......................",
"...........................   XXXXXXXXXXXXXXXXXXXXXXXXXXXXXXXXXXXXXXXX   .......................",
"............................    XXXXXXXXXXXXXXXXXXXXXXXXXXXXXXXXXXXXXX   .......................",
"............................     XXXXXXXXXXXXXXXXXXXXXXXXXXXXXXXXXXXXX   .......................",
"..............................                              XXXXXXXXXX   .......................",
"..............................                                  XXXXXX   .......................",
".................................                               XXXXXX   .......................",
"..........................................................      XXXXXX   .......................",
".............................................................   XXXXXX   .......................",
".............................................................   XXXXXX   .......................",
"..............................................................  XXXXXX   .......................",
"..............................................................   XXXXX   .......................",
"..............................................................   XXXXX   .......................",
"..........................         ...........................   XXXXX   .......................",
".........................           ........................     XXXXX   .......................",
".........................           ........................     XXXXX   .......................",
".........................   XXXXX      ..................      XXXXXXX   .......................",
".........................   XXXXX      ..................      XXXXX     .......................",
".........................   XXXXXXXX   ..................   XXXXXXXX     .......................",
".........................   XXXXXXXX                        XXXXXXXX   .........................",
".........................   XXXXXXXX                        XXXXXXXX   .........................",
".........................     XXXXXX                        XXXXXX   ...........................",
"...........................   XXXXXXXXXXXXXXXXXXXXXXXXXXXXXXXXXXXX   ...........................",
"...........................     XXXXXXXXXXXXXXXXXXXXXXXXXXXXXXXX     ...........................",
".............................   XXXXXXXXXXXXXXXXXXXXXXXXXXXXXXXX   .............................",
".............................     XXXXXXXXXXXXXXXXXXXXXXXXXXXX     .............................",
"...............................   XXXXXXXXXXXXXXXXXXXXXXXXXXXX   ...............................",
"...............................     XXXXXXXXXXXXXXXXXXXXXXXX     ...............................",
".................................   XXXXXXXXXXXXXXXXXXXXXXXX   .................................",
".................................                              .................................",
"..................................                            ..................................",
"....................................                        ....................................",
"................................................................................................",
"................................................................................................",
"................................................................................................",
"................................................................................................",
"................................................................................................",
"................................................................................................",
"................................................................................................",
"................................................................................................",
"................................................................................................",
"................................................................................................",
"................................................................................................",
"................................................................................................",
"................................................................................................",
"................................................................................................",
"................................................................................................",
"................................................................................................",
"................................................................................................"
};
