/* XPM */
static char *xpm_[] = {
/* columns rows colors chars-per-pixel */
"96 96 3 1 ",
"  c black",
". c #50505A",
"X c white",
/* pixels */
"................................................................................................",
"................................................................................................",
"................................................................................................",
"................................................................................................",
"................................................................................................",
"................................................................................................",
"................................................................................................",
"................................................................................................",
"................................................................................................",
"................................................................................................",
"................................................................................................",
"................................................................................................",
"................................................................................................",
"................................................................................................",
"................................................................................................",
"................................................................................................",
"................................................................................................",
".........................................               ........................................",
".........................................               ........................................",
".........................................               ........................................",
".........................................  XXXXXXXXXX   ........................................",
".........................................  XXXXXXXXXX   ........................................",
".........................................  XXXXXXXXXX   ........................................",
"....................................       XXXXXXXXXX   ........................................",
"....................................       XXXXXXXXXX   ........................................",
"....................................       XXXXXXXXXX   ........................................",
"....................................  XXXXXXXXXXXXXXX   ........................................",
"....................................  XXXXXXXXXXXXXXX   ........................................",
"..............................        XXXXXXXXXXXXXXX   ........................................",
"..............................        XXXXXXXXXXXXXXX   ........................................",
"..............................        XXXXXXXXXXXXXXX   ........................................",
"..............................   XXXXXXXXXXXXXXXXXXXX   ........................................",
"..............................   XXXXXXXXXXXXXXXXXXXX   ........................................",
"..............................   XXXXXXXXXXXXXXXXXXXX   ........................................",
"..............................   XXXXXXXXXXXXXXXXXXXX   ........................................",
"..............................   XXXXXXXXXXXXXXXXXXXX   ........................................",
"..............................             XXXXXXXXXX   ........................................",
"..............................             XXXXXXXXXX   ........................................",
"..............................             XXXXXXXXXX   ........................................",
"........................................   XXXXXXXXXX   ........................................",
"........................................   XXXXXXXXXX   ........................................",
"........................................   XXXXXXXXXX   ........................................",
"........................................   XXXXXXXXXX   ........................................",
"........................................   XXXXXXXXXX   ........................................",
"........................................   XXXXXXXXXX   ........................................",
"........................................   XXXXXXXXXX   ........................................",
"........................................   XXXXXXXXXX   ........................................",
"........................................   XXXXXXXXXX   ........................................",
"........................................   XXXXXXXXXX   ........................................",
"........................................   XXXXXXXXXX   ........................................",
"........................................   XXXXXXXXXX   ........................................",
"........................................   XXXXXXXXXX   ........................................",
"........................................   XXXXXXXXXX   ........................................",
"........................................   XXXXXXXXXX   ........................................",
"........................................   XXXXXXXXXX   ........................................",
"........................................   XXXXXXXXXX   ........................................",
"........................................   XXXXXXXXXX   ........................................",
"........................................   XXXXXXXXXX   ........................................",
"........................................   XXXXXXXXXX   ........................................",
"........................................   XXXXXXXXXX   ........................................",
"........................................   XXXXXXXXXX   ........................................",
"........................................   XXXXXXXXXX   ........................................",
"........................................   XXXXXXXXXX   ........................................",
"........................................   XXXXXXXXXX   ........................................",
"........................................   XXXXXXXXXX   ........................................",
"........................................   XXXXXXXXXX   ........................................",
"........................................   XXXXXXXXXX   ........................................",
"..............................             XXXXXXXXXX             ..............................",
"..............................             XXXXXXXXXX             ..............................",
"..............................             XXXXXXXXXX             ..............................",
"..............................   XXXXXXXXXXXXXXXXXXXXXXXXXXXXXX   ..............................",
"..............................   XXXXXXXXXXXXXXXXXXXXXXXXXXXXXX   ..............................",
"..............................   XXXXXXXXXXXXXXXXXXXXXXXXXXXXXX   ..............................",
"..............................   XXXXXXXXXXXXXXXXXXXXXXXXXXXXXX   ..............................",
"..............................   XXXXXXXXXXXXXXXXXXXXXXXXXXXXXX   ..............................",
"..............................   XXXXXXXXXXXXXXXXXXXXXXXXXXXXXX   ..............................",
"..............................                                    ..............................",
"..............................                                    ..............................",
"..............................                                    ..............................",
"................................................................................................",
"................................................................................................",
"................................................................................................",
"................................................................................................",
"................................................................................................",
"................................................................................................",
"................................................................................................",
"................................................................................................",
"................................................................................................",
"................................................................................................",
"................................................................................................",
"................................................................................................",
"................................................................................................",
"................................................................................................",
"................................................................................................",
"................................................................................................",
"................................................................................................"
};
