/* XPM */
static char *xpm_[] = {
/* columns rows colors chars-per-pixel */
"96 96 3 1 ",
"  c black",
". c #50505A",
"X c white",
/* pixels */
"................................................................................................",
"................................................................................................",
"................................................................................................",
"................................................................................................",
"................................................................................................",
"................................................................................................",
"................................................................................................",
"................................................................................................",
"................................................................................................",
"................................................................................................",
"................................................................................................",
"................................................................................................",
"................................................................................................",
"................................................................................................",
"................................................................................................",
"................................................................................................",
"................................................................................................",
".......................                                                  .......................",
".......................                                                  .......................",
".......................                                                  .......................",
".......................   XXXXXXXXXXXXXXXXXXXXXXXXXXXXXXXXXXXXXXXXXXXX   .......................",
".......................   XXXXXXXXXXXXXXXXXXXXXXXXXXXXXXXXXXXXXXXXXXXX   .......................",
".......................   XXXXXXXXXXXXXXXXXXXXXXXXXXXXXXXXXXXXXXXXXXXX   .......................",
".......................   XXXXXXXXXXXXXXXXXXXXXXXXXXXXXXXXXXXXXXXXXXXX   .......................",
".......................   XXXXXXXXXXXXXXXXXXXXXXXXXXXXXXXXXXXXXXXXXXXX   .......................",
".......................   XXXXXXXXXXXXXXXXXXXXXXXXXXXXXXXXXXXXXXXXXXXX   .......................",
".......................   XXXXXXXXXXXXXXXXXXXXXXXXXXXXXXXXXXXXXXXXXXXX   .......................",
".......................                                    XXXXXXXXX     .......................",
".......................                                    XXXXXXXXX     .......................",
".......................                                  XXXXXXXXX    ..........................",
"....................................................     XXXXXXXXX   ...........................",
"....................................................   XXXXXXXXX     ...........................",
"..................................................     XXXXXXXXX   .............................",
"................................................     XXXXXXXXX     .............................",
"................................................     XXXXXXXXX   ...............................",
"...............................................    XXXXXXXXX     ...............................",
"...............................................    XXXXXXXXX     ...............................",
".............................................    XXXXXXXXX     .................................",
".............................................    XXXXXXXXX     .................................",
"...........................................    XXXXXXXXX     ...................................",
"...........................................    XXXXXXXXX   .....................................",
"..........................................     XXXXXXX     .....................................",
"..........................................   XXXXXXXXX   .......................................",
".........................................    XXXXXXXXX   .......................................",
".........................................   XXXXXXXX   .........................................",
".........................................   XXXXXXXX   .........................................",
".........................................   XXXXXX     .........................................",
".........................................   XXXXXX   ...........................................",
".........................................   XXXXXX   ...........................................",
".........................................   XXXXXX   ...........................................",
".........................................   XXXXXX   ...........................................",
".........................................   XXXXXX   ...........................................",
".........................................   XXXXXX   ...........................................",
".........................................   XXXXXX   ...........................................",
".........................................   XXXXXX   ...........................................",
".........................................   XXXXXX   ...........................................",
".........................................   XXXXXX   ...........................................",
".........................................   XXXXXX   ...........................................",
".........................................   XXXXXX   ...........................................",
".........................................   XXXXXX   ...........................................",
".........................................   XXXXXX   ...........................................",
".........................................   XXXXXX   ...........................................",
".........................................   XXXXXX   ...........................................",
".........................................   XXXXXX   ...........................................",
".........................................   XXXXXX   ...........................................",
".........................................   XXXXXX   ...........................................",
".........................................   XXXXXX   ...........................................",
".........................................   XXXXXX   ...........................................",
".........................................   XXXXXX   ...........................................",
".........................................   XXXXXX   ...........................................",
".........................................   XXXXXX   ...........................................",
".........................................   XXXXXX   ...........................................",
".........................................   XXXXXX   ...........................................",
".........................................   XXXXXX   ...........................................",
".........................................   XXXXXX   ...........................................",
".........................................   XXXXXX   ...........................................",
".........................................            ...........................................",
".........................................            ...........................................",
".........................................            ...........................................",
"................................................................................................",
"................................................................................................",
"................................................................................................",
"................................................................................................",
"................................................................................................",
"................................................................................................",
"................................................................................................",
"................................................................................................",
"................................................................................................",
"................................................................................................",
"................................................................................................",
"................................................................................................",
"................................................................................................",
"................................................................................................",
"................................................................................................",
"................................................................................................",
"................................................................................................"
};
