/* XPM */
static char *xpm_[] = {
/* columns rows colors chars-per-pixel */
"96 96 3 1 ",
"  c black",
". c #50505A",
"X c white",
/* pixels */
"................................................................................................",
"................................................................................................",
"................................................................................................",
"................................................................................................",
"................................................................................................",
"................................................................................................",
"................................................................................................",
"................................................................................................",
"................................................................................................",
"................................................................................................",
"................................................................................................",
"................................................................................................",
"................................................................................................",
"................................................................................................",
"................................................................................................",
"................................................................................................",
"................................................................................................",
"....................................                        ....................................",
"..................................                            ..................................",
".................................                              .................................",
".................................   XXXXXXXXXXXXXXXXXXXXXXXX   .................................",
"...............................     XXXXXXXXXXXXXXXXXXXXXXXX     ...............................",
"...............................   XXXXXXXXXXXXXXXXXXXXXXXXXXXX   ...............................",
".............................     XXXXXXXXXXXXXXXXXXXXXXXXXXXX     .............................",
".............................   XXXXXXXXXXXXXXXXXXXXXXXXXXXXXXXX   .............................",
"...........................     XXXXXXXXXXXXXXXXXXXXXXXXXXXXXXXX     ...........................",
"...........................   XXXXXXXXXXXXXXXXXXXXXXXXXXXXXXXXXXXX   ...........................",
".........................     XXXXXX                        XXXXXX   ...........................",
".........................   XXXXXXXX                        XXXXXXXX   .........................",
".........................   XXXXXXXX                        XXXXXXXX   .........................",
".........................   XXXXXXXX   ..................   XXXXXXXX     .......................",
".........................   XXXXX      ..................      XXXXX     .......................",
".........................   XXXXX      ..................      XXXXXXX   .......................",
".........................   XXX     ........................     XXXXX   .......................",
".........................   XXX     ........................     XXXXX   .......................",
".........................   XXX   ............................   XXXXX   .......................",
".........................         ............................   XXXXX   .......................",
".........................         ............................   XXXXX   .......................",
".........................         ............................   XXXXX   .......................",
"............................................................     XXXXX   .......................",
"............................................................     XXXXX   .......................",
".........................................................      XXXXXXX   .......................",
"..........................................                     XXXXXX    .......................",
"..........................................                  XXXXXXX    .........................",
"..........................................                  XXXXXXX   ..........................",
"..........................................   XXXXXXXXXXXXXXXXXXXXXX   ..........................",
"..........................................   XXXXXXXXXXXXXXXXXXXXX   ...........................",
"..........................................   XXXXXXXXXXXXXXXXXXXXX  ............................",
"..........................................   XXXXXXXXXXXXXXXXXXXXX  ............................",
"..........................................   XXXXXXXXXXXXXXXXXXXXX   ...........................",
"..........................................   XXXXXXXXXXXXXXXXXXXXXX   ..........................",
"..........................................                  XXXXXXX   ..........................",
"..........................................                  XXXXXXX    .........................",
"..........................................                     XXXXXX    .......................",
".........................................................      XXXXXXX   .......................",
"............................................................     XXXXX   .......................",
"............................................................     XXXXX   .......................",
".........................         ............................   XXXXX   .......................",
".........................         ............................   XXXXX   .......................",
".........................         ............................   XXXXX   .......................",
".........................   XXX   ............................   XXXXX   .......................",
".........................   XXX     ........................     XXXXX   .......................",
".........................   XXX     ........................     XXXXX   .......................",
".........................   XXXXX      ..................      XXXXXXX   .......................",
".........................   XXXXX      ..................      XXXXX     .......................",
".........................   XXXXXXXX   ..................   XXXXXXXX     .......................",
".........................   XXXXXXXX                        XXXXXXXX   .........................",
".........................   XXXXXXXX                        XXXXXXXX   .........................",
".........................     XXXXXX                        XXXXXX   ...........................",
"...........................   XXXXXXXXXXXXXXXXXXXXXXXXXXXXXXXXXXXX   ...........................",
"...........................     XXXXXXXXXXXXXXXXXXXXXXXXXXXXXXXX     ...........................",
".............................   XXXXXXXXXXXXXXXXXXXXXXXXXXXXXXXX   .............................",
".............................     XXXXXXXXXXXXXXXXXXXXXXXXXXXX     .............................",
"...............................   XXXXXXXXXXXXXXXXXXXXXXXXXXXX   ...............................",
"...............................     XXXXXXXXXXXXXXXXXXXXXXXX     ...............................",
".................................   XXXXXXXXXXXXXXXXXXXXXXXX   .................................",
".................................                              .................................",
"..................................                            ..................................",
"....................................                        ....................................",
"................................................................................................",
"................................................................................................",
"................................................................................................",
"................................................................................................",
"................................................................................................",
"................................................................................................",
"................................................................................................",
"................................................................................................",
"................................................................................................",
"................................................................................................",
"................................................................................................",
"................................................................................................",
"................................................................................................",
"................................................................................................",
"................................................................................................",
"................................................................................................",
"................................................................................................"
};
