/* XPM */
static char *xpm_[] = {
/* columns rows colors chars-per-pixel */
"96 96 3 1 ",
"  c black",
". c #50505A",
"X c white",
/* pixels */
"................................................................................................",
"................................................................................................",
"................................................................................................",
"................................................................................................",
"................................................................................................",
"................................................................................................",
"................................................................................................",
"................................................................................................",
"................................................................................................",
"................................................................................................",
"................................................................................................",
"................................................................................................",
"................................................................................................",
"................................................................................................",
"................................................................................................",
"................................................................................................",
"................................................................................................",
"..................................                          ....................................",
"..................................                          ....................................",
".................................                              .................................",
".................................   XXXXXXXXXXXXXXXXXXXXXXXX   .................................",
"...............................     XXXXXXXXXXXXXXXXXXXXXXXX     ...............................",
"...............................   XXXXXXXXXXXXXXXXXXXXXXXXXXXX   ...............................",
".............................     XXXXXXXXXXXXXXXXXXXXXXXXXXXX     .............................",
".............................   XXXXXXXXXXXXXXXXXXXXXXXXXXXXXXXX   .............................",
"...........................     XXXXXXXXXXXXXXXXXXXXXXXXXXXXXXXX     ...........................",
"...........................   XXXXXXXXXXXXXXXXXXXXXXXXXXXXXXXXXXXX   ...........................",
"...........................   XXXXXX                        XXXXXX     .........................",
".........................   XXXXXXXX                        XXXXXXXX   .........................",
".........................   XXXXXXXX                        XXXXXXXX   .........................",
".........................   XXXXXXXX    ................    XXXXXXXX   .........................",
".......................     XXXXX       ..................     XXXXX     .......................",
".......................   XXXXXXX     ....................     XXXXXXX   .......................",
".......................   XXXXX       ......................     XXXXX   .......................",
".......................   XXXXX   ............................   XXXXX   .......................",
".......................   XXXXX   ............................   XXXXX   .......................",
".......................   XXXXX   ............................   XXXXX   .......................",
".......................   XXXXX   ............................   XXXXX   .......................",
".......................   XXXXX   ............................   XXXXX   .......................",
".......................   XXXXX   ............................   XXXX    .......................",
".......................   XXXXX   ..........................     XXXX    .......................",
".......................           ..........................   XXXX      .......................",
".......................           ........................     XXXX    .........................",
".......................           ........................   XXXXXX   ..........................",
"........................................................     XXXX     ..........................",
"........................................................     XXXX     ..........................",
"......................................................    XXXXXX   .............................",
"......................................................    XXXXXX   .............................",
"...................................................       XXX      .............................",
"...................................................    XXXXXX   ................................",
"................................................       XXXXXX   ................................",
"................................................    XXXXXXX   ..................................",
"..............................................      XXXXX     ..................................",
"............................................     XXXXXXXX     ..................................",
"............................................     XXXXX     .....................................",
"..........................................    XXXXXXXX     .....................................",
"........................................      XXXXXX    ........................................",
"........................................      XXXXXX   .........................................",
"......................................     XXXXXX      .........................................",
"....................................       XXXXXX    ...........................................",
"....................................       XXXX      ...........................................",
"..................................     XXXXXXXX   ..............................................",
"..................................     XXXXXX     ..............................................",
"...............................        XXXXXX   ................................................",
"...............................    XXXXXXX      ................................................",
"...............................    XXXXXXX   ...................................................",
"..........................         XXXX                                .........................",
"..........................      XXXXXXX                                .........................",
"..........................      XXXXXXX                                .........................",
"..........................   XXXXXXXXXXXXXXXXXXXXXXXXXXXXXXXXXXXXXXX   .........................",
"..........................   XXXXXXXXXXXXXXXXXXXXXXXXXXXXXXXXXXXXXXX   .........................",
"..........................   XXXXXXXXXXXXXXXXXXXXXXXXXXXXXXXXXXXXXXX   .........................",
"..........................   XXXXXXXXXXXXXXXXXXXXXXXXXXXXXXXXXXXXXXX   .........................",
"..........................   XXXXXXXXXXXXXXXXXXXXXXXXXXXXXXXXXXXXXXX   .........................",
"..........................   XXXXXXXXXXXXXXXXXXXXXXXXXXXXXXXXXXXXXXX   .........................",
"..........................                                             .........................",
"..........................                                             .........................",
"..........................                                             .........................",
"................................................................................................",
"................................................................................................",
"................................................................................................",
"................................................................................................",
"................................................................................................",
"................................................................................................",
"................................................................................................",
"................................................................................................",
"................................................................................................",
"................................................................................................",
"................................................................................................",
"................................................................................................",
"................................................................................................",
"................................................................................................",
"................................................................................................",
"................................................................................................",
"................................................................................................",
"................................................................................................"
};
