/* XPM */
static char *xpm_[] = {
/* columns rows colors chars-per-pixel */
"96 96 2 1 ",
"  c #259819",
". c #43D30C",
/* pixels */
"............    ....    ........................................    ............................",
"............    ....    ........................................    ............    ....    ....",
"................    ............................................    ............    ....    ....",
"................    ............................................    ............    ....    ....",
"................    ............................................................    ....    ....",
"................    .........................    ....    ...........................    ........",
".............................................    ....    ...........................    ........",
".............................................    ....    ...........................    ........",
".............................................            ...........................    ........",
".................................................    ...........................................",
".................................................    ...........................................",
"........    .....................................    ...........................................",
"........    ....    ............................................................................",
"........    ....    ............................................................................",
"........    ....    ..............................................................    ..........",
"............        ..............................................................    ..........",
"............    ..................................................................    ..........",
"............    ..................................................................    ..........",
"............    ................................................................................",
"................................................................................................",
"........................................    ....    ............................................",
"........................................    ....    ............................................",
"........................................    ....    ............................................",
"........................................    ....    ............................................",
"............................................    ................................................",
"............................................    ........................    ....    ............",
"............................................    ........................    ....    ............",
"............................................    ........................    ....    ............",
"........................................................................    ....    ............",
"............................................................................    ................",
"............................................................................    ................",
"............................................................................    ................",
"................................    ........................................    ................",
"................................    ............................................................",
"................................    ............................................................",
"................................    ............................................................",
"........    ....    ............................................................................",
"........    ....    ............................................    ....    ....................",
"........    ....    ............................................    ....    ....................",
"........    ....    ............................................    ....    ....................",
"............    ................................................    ....    ....................",
"............    ....................................................    ........................",
"............    ....................................................    ........................",
"............    ....................................................    ........................",
"....................................................................    ........................",
"................................................................................................",
"    ....................................................................................    ....",
"    ....................................................................................    ....",
"    ............................................    ....    ............................    ....",
"    ............................................    ....    ............................    ....",
"................................................    ....    ................................    ",
"................................................    ....    ................................    ",
"....................................................    ....................................    ",
"....................................................    ....................................    ",
"....................................................    ........................................",
"....................................................    ........................................",
"..............    ....    ..............................................    ....    ............",
"..............    ....    ..............................................    ....    ............",
"..............    ....    ..............................................    ....    ............",
"..............    ....    ..............................................    ....    ............",
"..................    ..............    ....    ............................    ................",
"..................    ..............    ....    ............................    ................",
"..................    ..............    ....    ............................    ................",
"..................    ..............    ....    ............................    ................",
"........................................    ....................................................",
"........................................    ....................................................",
"........................................    ....................................................",
"........................................    ....................................................",
"................................................................................................",
"................................................................................................",
"................................................................................................",
"................................................................................................",
"................    ....    ...................................    ....    .....................",
"................    ....    ...................................    ....    .....................",
"................    ....    ...................................    ....    .....................",
"................    ....    ...................................    ....    .....................",
"....................    ...........................................    .........................",
"....................    ...........................................    .........................",
"....................    ...........................................    .........................",
"....................    ...........................................    .........................",
"................................    ...........    ....    .....................................",
"................................    ...........    ....    .....................................",
"................................    ...........    ....    .....................    ....    ....",
"................................    ...........    ....    .....................    ....    ....",
"    ....    .......................................    .........................    ....    ....",
"    ....    .......................................    .........................    ....    ....",
"    ....    .......................................    .............................    ........",
"    ....    .......................................    .............................    ........",
"....    ............................................................................    ........",
"....    ............................................................................    ........",
"....    ........................................................................................",
"....    ........................................................................................",
"............................................................    ....    ........................",
"............................................................    ....    ........................",
"............    ....    ....................................    ....    ........................",
"............    ....    ....................................    ....    ........................"
};
