/* XPM */
static char *xpm_[] = {
/* columns rows colors chars-per-pixel */
"96 96 11 1 ",
"  c #1E1E1C",
". c #266F25",
"X c #4C654C",
"o c #965239",
"O c #B2512C",
"+ c #118910",
"@ c #259819",
"# c #43D30C",
"$ c #899B3E",
"% c #AFD02A",
"& c #EAD7D0",
/* pixels */
"############@@@@####@@@@########################################@@@@############################",
"############@@@@####@@@@############            ################@@@@############@@@@####@@@@####",
"################@@@@#############                ######           @@############@@@@####@@@@####",
"################@@@@############                 ####              @############@@@@####@@@@####",
"################@@@@###########     OOOOOOOO                       #############@@@@####@@@@####",
"################@@@@##########    OOOOOOOOOOOO                      ################@@@@########",
"##############################    OOOOOOOOOOOOO        OOOOOOO      ################@@@@########",
"##############################    OOO&&&&&&OOOOO     OOOOOOOOOO      ###############@@@@########",
"##############################    OO&&&&&&&OOOOO    OOOOOOOOOOOO     ###############@@@@########",
"##############################    OO&&&&OOOOOOOO    OOOOOOOOOOOO     ###########################",
"##############################    OOO&&OOOOOOOOO    OOOO&&OOOOOO        ########################",
"########@@@@############    ##    OOOOOOOOOOOOOO    OOOO&&OOOOO          #######################",
"########@@@@####@@@@#              OOOOOOOOOOOOOoooOOOOOOOOOOOO             ####################",
"########@@@@####@@@                OOOOOOOOOOOOOoooOOOOOOOOOOO              ####################",
"########@@@@####@@@                OOOOOOOOO        OOOOOOOOOO      O          ###@@@@##########",
"############@@@@@@@       OOOOO    OOOOOOOOO        OOOOOOOOOO    OOOOO        ###@@@@##########",
"############@@@@       OOOOOOOOOOoooOOOO                OOOOoo    OOOOOOOO      ##@@@@##########",
"############@@@@     OOOOOOOOOOOOoooOOOO                OOOOooOOOOOOOOOOOO      ##@@@@##########",
"############@@@@     OOOOOOOOOOOOOoo        %%%%%%%%        ooOOOOOOOOOOOOO      ###############",
"################     OOOOOOOO&&&OOOO        %%%%%%%%        OOOOOOOOOOOOOOOO     ###############",
"################    OOOOOOO&&&&&OOOO    %%%%%%%%%%%%%%%%    OOOOO&&OOOOOOOOO     ###############",
"################   oooOOOOO&&&&&OOOO    %%%%%%%%%%%%%%%%    OOOOO&&&OOOOOOooo    ###############",
"################   oooOOOOOOO&&&OO    %%%%%%%%%%%%%%%%%%%%    OOO&&&OOOOOOooo    ###############",
"################    ooOOOOOOO&&OOO    %%%%%%%%%%%%%%%%%%%%    OOO&&OOOOOOOooo    ###############",
"################    oooOOOOOOOOOOO    %%%%%%%%%%%%%%%%%%%%    OOOOOooOOOOoooO    ###############",
"################    ooooOOOOOOOOOO    %%%%%%%%%%%%%%%%%%%%    OOOOOooooooooOO    @@@############",
"################      oooOOOOOOO    %%%%%%%%%%%%%%%%%%%%%%%%    OOOOoooooooO     @@@############",
"##################    ooooOOOOOO    $$%%%%%%%%%%%%%%%%%%%%%%    oo    O          @@@############",
"##################    ooooOOOOOO    $$%%%%%%%%%%%%%%%%%%%%$$    oo              @@@@############",
"##################        OOOOOO    $$%%%%%%%%%%%%%%%%%%%%$$    oo              ################",
"######################    OOOOOO    $$$%%%%%%%%%%%%%%%%%%%$$    OO             @################",
"######################         O    $$$%%%%%%%%%%%%%%%%%%$$$    OOOO       #@@@@################",
"######################         O    $$$$%%%%%%%%%%%%%%%%%$$$    OOOO      ##@@@@################",
"########################       O    $$$$%%%%%%%%%%%%%%%$$$$$    OOOOOO      ####################",
"######################         OOO    $$$$$$$%%%%%%%%%$$$$$   OOOOOOOO      ####################",
"#####################       ooOOOO    $$$$$$$$$$$$$$$$$$$$$   OOOOOOOOOO    ####################",
"########@@@@####@@@@#     oooooOOO       $$$$$$$$$$$$$$       OOOOOO&&OO     ###################",
"########@@@@####@@@@#     oooooOOO        $$$$$$$$$$$$        OOOOO&&&OOO    ###################",
"########@@@@####@@@@#    oooooOOOOOOOO        $$$$$       OOOOOOOOO&&&Ooo    ###################",
"########@@@@####@@@@#    oooooOOOOOOOO        $$$$$       OOOOOOOOOOOOooo    ###################",
"############@@@@#####    ooooooOOOOOOOOOOO            OOOOOOOOOOOOOOOOooo    ###################",
"############@@@@#####    oooooooOOOOOOOOooo          oooooooOOOOOOOOoooo     ###################",
"############@@@@#####     ooooooooooooOOoooOOO    OOOooooooooooooooooooo     ###################",
"############@@@@######    ooooooooooooOOooOOOO    OOOOO   oooooooooooooo   #####################",
"######################    oooooooooO     OOOOOOOOOOOOO                     #####################",
"######################     ooooooooO     OOOOOOOOOOOOO                     #####################",
"@@@@##################                   OOOOOOOOOOOOO                  ################@@@@####",
"@@@@###################                  OOOOOOOOOOOOO                  ################@@@@####",
"@@@@###################                  O    OOOO         @############################@@@@####",
"@@@@#######################                   OOOO       @@@############################@@@@####",
"#####################################         OO         @@@################################@@@@",
"#####################################                    @@@################################@@@@",
"#######################################               @@####################################@@@@",
"#######################################               @@####            ####################@@@@",
"##########################################            @@#               ########################",
"##########################################    ++..    @@#                 ######################",
"##############@@@@####@@@@################    ++..                        @@####@@@@############",
"##############@@@@####@@@@################    ++..           ++....+      @@####@@@@############",
"##############@@@@####@@             #####    ++..        ++.......       @@####@@@@############",
"##############@@@@####@@               ###    ++..        +.....+        @@@####@@@@############",
"##################@@@@##               @##    ++..      .....           ####@@@@################",
"##################@@@@##                      ++..    ++...             ####@@@@################",
"##################@@@@###      +..+           ++..                   #######@@@@################",
"##################@@@@###       ....++        ++..                   #######@@@@################",
"##########################       ......       ++..                 #############################",
"###########################        ....       ++..           ###################################",
"###########################                   ++..    ##########################################",
"#############################                 ++..    ##########################################",
"################        #####                 ++..    ##################        ################",
"################        #######               ++..    ##################        ################",
"############                ##############    ++..    ##############                ############",
"############                ##############    ++..    ##############                ############",
"########        ++++++++        ##########    ++..    #########@        ++++++++        ########",
"########        ++++++++        ##########    ++..    #########@        ++++++++        ########",
"########    ....++++++++++++        XXXXXX    ++..    XXXXXX        +++++++++.......    ########",
"########    ......++++++++++        XXXXXX    ++..    XXXXXX        +++++++.........    ########",
"########        .........+++++++        XX    ++..    XX        ++++++++........        ########",
"########        ..........++++++        XX    ++..    XX        +++++...........        ########",
"############           .........++++          +...          ++++........            ############",
"############            ............          ....          ++..........            ############",
"################                .......+      ....      ........                ################",
"################                .......+      ....      ........                ################",
"########################                      ...                       XXX#####@@@@####@@@@####",
"########################                       ..                      XXXXXX###@@@@####@@@@####",
"@@@@####@@@@###########XXXXXXXXX                                XXXXXXXXXXXXXXXX@@@@####@@@@####",
"@@@@####@@@@##XXXXXXXXXXXXXXXXXX                                XXXXXXXXXXXXXXXX@@@@####@@@@####",
"@@@@####@@@@##XXXXXXXXXXXXXXXXXXXXXXXX              XX  XXXXXXXXXXXXXXXXXXXXXXXXXXXX@@@@########",
"@@@@####@@@@##XXXXXXXXXXXXXXXXXXXXXXXXXXXXXXXXXXXXXXXXXXXXXXXXXXXXXXXXXXXXXXXXXXXXXX@@@@########",
"####@@@@#######XXXXXXXXXXXXXXXXXXXXXXXXXXXXXXXXXXXXXXXXXXXXXXXXXXXXXXXXXXXXXXXXXX###@@@@########",
"####@@@@###############XXXXXXXXXXXXXXXXXXXXXXXXXXXXXXXXXXXXXXXXXXXXXXXXXXXXXXXX#####@@@@########",
"####@@@@###########################XXXXXXXXXXXXXXXXXXXXXXXXXXXXXXX######XXXX####################",
"####@@@@#############################XXXXXXXXXXXXXXXXXXX######XX################################",
"########################################XXXXXXXXXXXXX#######@@@@####@@@@########################",
"############################################################@@@@####@@@@########################",
"############@@@@####@@@@####################################@@@@####@@@@########################",
"############@@@@####@@@@####################################@@@@####@@@@########################"
};
