/* XPM */
static char *xpm_[] = {
/* columns rows colors chars-per-pixel */
"96 96 15 1 ",
"  c #040404",
". c gray4",
"X c #141713",
"o c #1E1E1C",
"O c #266F25",
"+ c #4C654C",
"@ c #965239",
"# c #B2512C",
"$ c #118910",
"% c #259819",
"& c #43D30C",
"* c #899B3E",
"= c #AFD02A",
"- c #EAD7D0",
"; c #E7EEE5",
/* pixels */
"&&&&&&&&&&&&%%%%&&&&%%%%&&&&&&&&&&&&&&&&&&&&&&&&&&&&&&&&&&&&&&&&%%%%&&&&&&&&&&&&&&&&&&&&&&&&&&&&",
"&&&&&&&&&&&&%%%%&&&&%%%%&&&&&&&&    oooooooooooo&&&&&&&&&&&&     %%%&&&&&&&&&&&&%%%%&&&&%%%%&&&&",
"&&&&&&&&&&&&&&&&%%%%&&&&&&&&&&&&    ooooooooooooo&&&&&&ooo       o%%&&&&&&&&&&&&%%%%&&&&%%%%&&&&",
"&&&&&&&&&&&&&&&&%%%%&&&&&&&&&&  ooo       ooooooo&&&&ooooo   oo  oo%&&&&&&&&&&&&%%%%&&&&%%%%&&&&",
"&&&&&&&&&&&&&&&&%%%%&&&&&&&&&&  oo           ooooooooooo   oooooooo&&&&&&&&&&&&&%%%%&&&&%%%%&&&&",
"&&&&&&&&&&&&&&&&%%%%&&&&&&&&&   oo  ######      oooooo     oo  ooooo&&&&&&&&&&&&&&&&%%%%&&&&&&&&",
"&&&&&&&&&&&&&&&&&&&&&&&&&&&&&  ooo  ########    ooo  o   ####  ooooo&&&&&&&&&&&&&&&&%%%%&&&&&&&&",
"&&&&&&&&&&&&&&&&&&&&&&&&&&&&&&oooo  #------#####oo   ########    oooo&&&&&&&&&&&&&&&%%%%&&&&&&&&",
"&&&&&&&&&&&&&&&&&ooooooooo&&&&ooo  #-------#####oo  #########    oooo&&&&&&&&&&&&&&&%%%%&&&&&&&&",
"&&&&&&&&&&&&&&&&&oooooooooo&&&ooo  #----########oooo#########    oooo&&&&&&&&&&&&&&&&&&&&&&&&&&&",
"&&&&&&&&&&&&&&&&&ooo    oooo&&oooo###--#########oooo####--###    ooooooo&&&&&&&&&&&&&&&&&&&&&&&&",
"&&&&&&&&%%%%&&&&&ooo#### ooo&&oooo##############oooo####--####   oooooooo&&&&&&&&&&&&&&&&&&&&&&&",
"&&&&&&&&%%%%&&&&%oo ##### oo oo  oo#############@@@###########   ooooooooooo&&&&&&&&&&&&&&&&&&&&",
"&&&&&&&&%%%%&&&&%ooo######o  oo  oo#############@@@###########oooooooooooooo&&&&&&&&&&&&&&&&&&&&",
"&&&&&&&&%%%%&&&&%ooo#######oooo  oo#########oooooooo##########oooo    ooooooooo&&&%%%%&&&&&&&&&&",
"&&&&&&&&&&&&%%%%%  oo#######     oo#########oooooooo##########ooo        oooooo&&&%%%%&&&&&&&&&&",
"&&&&&&&&&&&&%%%%o  oo#######     XXX####oooooooooooooooo####@@ooX           oooo&&%%%%&&&&&&&&&&",
"&&&&&&&&&&&&%%%%o    ############XXXX###oooooooooooooooo###    XX  #####    oooo&&%%%%&&&&&&&&&&",
"&&&&&&&&&&&&%%%%o    ############XXXXooooooo========ooooooo    XX  ########oooooo&&&&&&&&&&&&&&&",
"&&&&&&&&&&&&&&&&o    ########---#XXXXXoooooo========oooooooo##XXXX##########ooooo&&&&&&&&&&&&&&&",
"&&&&&&&&&&&&&&&&oo  #######-----##XXXXXo================oooo#XXXXX-#########o   o&&&&&&&&&&&&&&&",
"&&&&&&&&&&&&&&&&oo  @@#####-----##;XXXXX================ooooXXXXX---######@@    o&&&&&&&&&&&&&&&",
"&&&&&&&&&&&&&&&&oo  @@#######---##XXXXXXX=================oXXXXXX---######@    oo&&&&&&&&&&&&&&&",
"&&&&&&&&&&&&&&&&oo  @@#######--###oXXXXXXX===============XXXXXXX#--#######    ooo&&&&&&&&&&&&&&&",
"&&&&&&&&&&&&&&&&oo  @@@###########ooXXXXXXXXX==========XXXXXXXXX###@@####    oooo&&&&&&&&&&&&&&&",
"&&&&&&&&&&&&&&&&oooo@@@@##########oooXXXXXXXXXX====XXXXXXXXXXXX####@@@@@       oo%%%&&&&&&&&&&&&",
"&&XXXXXXXXXX&&&&oooooo@@@#######oooo==XXXXXXXXX====XXXXXXXXXXXoo####@@@        oo%%%&&&&&&&&&&&&",
"&&XXXXXXXXXXXXX&&&oooo@@@@######oooo**XXXXXXXXX=====XXXXXXXXXooo@@oooo#    oooooo%%%&&&&&&&&&&&&",
"&&XXXXXXXXXXXXXXX&oooo@@@@######ooooXX===XXXXX=======XXXXXX*oooo@@oooooooooooooo%%%%&&&XXXX&&&&&",
"&&XXXOOOOXXXXXXXXXXooooooo######ooooXX====================**oooo@@oooooooooooooo&&&&&XXXXXX&&&&&",
"&&XXXXOOOOOOOXXXXXXXX&oooo######ooX;XXX===================**XXXo##ooooooooooooo%&&&XXXXXXXXX&&&&",
"&&XXXXOOOOOOOOOXXXXXX&ooooooooo#ooX;XXXX==============XXX**...Xo####ooooooo&%%%XXXXXXXXXXXXXX&&&",
"&&XXXXOOOOOOOOOOXXXXXXooooooooo#ooX;XXXXXXX===========XXX...XXXo####oooooo&&XXXXXXXXXXXXXXXXX&&&",
"&&&XXXXOO   OOOOOOXXXXX&ooooooo#o  ;XX;XXXXXXXX==XX==XXXXX...XXo######oooooXXXXXXXXXXXXXXXXXX&&&",
"&&&XXXXOO     OOOOOXXXXXooooooo##  X;XX;X;XXXXXXXX;XXXX;;X;;..X#######ooooXXXXXXXXOOOOOOOXXXXX&&",
"&&&&XXXXOO     OOOOOXXXXXooo@@###  X;X;;;;;X;;XX;X;;XX;;;;;;..X#########XXXXXXXOOOOOOOOOOOXXXX&&",
"&&&&XXXXOOOO    OOOOXXXXXo@@@@@##  o;;X;;X;X;;;;;;;;;;;;;;;XX.X#####--#XXXXXXOOOOOOOOOOOOOXXXX&&",
"&&&&&XXXXOOOO    OOOOXXXXX@@@@@##   XXX;;X;;;X;;;;X;;;X;;XXX.XX####---XXXXXOOOOOOOO   OOOXXXX&&&",
"&&&&&XXXXXOOOO   OOOOoXXXXX@@@###   XXoX;X;;oX;;X;XX;;Xoo;.XXXX####---XXXXoOOOOOOO    OOOXXXX&&&",
"&&&&&&XXXXOOOOO    OOOoXXXXX@@######XXXXXXo;oXX;X;XX;XXooo..X#######XXXXXoOOOOOOO    OOOOXXXX&&&",
"&&&&&&XXXXXOOOOO   OOOOXXXXX@@@#####XXXXXXoooXXXoooX;XX###XXX#######XXXXXOOOOOO     OOOOXXXXX&&&",
"&&&&&&&XXXXXOOOOO   OOOoXXXXX@@@#######XX@@ooXXXooooXXX@@@@XX######XXXXXOOOOOO     OOOOOXXXXX&&&",
"&&&&&&&XXXXXOOOOO    OOOoXXXXX@@@@@@@@##@@@###XXoo###XX@@@@@@@@@@@XXXXXOOOOoo    OOOOOOXXXXX&&&&",
"&&&&&&&&XXXXXOOOOOO  OOOOoXXXXX@@@@@@@##@@####XXoo#####ooo@@@@@@@XXXXXOOOOoO    OOOOOXXXXXX&&&&&",
"&&&&&&&&&XXXXXOOOOO   OOOoXXXXX@@@@#ooooo#############oooooooooooXXXOOOOOOo    OOOOOOXXXXXX&&&&&",
"&&&&&&&&&XXXXXXOOOOO   OOOoXXXXX@@@#ooooo#############ooooooooooXXXXOOOOOO    OOOOOOXXXXX&&&&&&&",
"%%%%&&&&&&&XXXXOOOOO   OOOOoXXXXXoooooooo#############oooooooooXXXXOOOOOO    OOOOOOXXXXX%%%%&&&&",
"%%%%&&&&&&&&XXXXOOOOO   OOOOXXXXXXooooooo#############ooooooooXXXXXOOOO     OOOOOOXXXXX&%%%%&&&&",
"%%%%&&&&&&&&XXXXOOOOO    OOOOXXXXXXoooooo#oooo####ooooooooo%&XXXXXXOOO    OOOOOOOOXXXXX&%%%%&&&&",
"%%%%&&&&&&&&&XXXXOOOOOO   OOOoXXXXXooooooooooo####ooooooo%%%XXXXXXOOO   OOOOOOOOOXXXXX&&%%%%&&&&",
"&&&&&&&&&&&&&XXXXXOOOOO    OOOOXXXXX&ooooooooo##ooooooooo%%XXXXXXOOO    OOOOOOOOXXXXX&&&&&&&%%%%",
"&&&&&&&&&&&&&&XXXXOOOOOO    OOOOXXXXXoooooooooooooooooooo%XXXXXXOO     OOOOOOOOXXXXX&&&&&&&&%%%%",
"&&&&&&&&&&&&&&XXXXXOOOOOO    OOOXXXXXX&ooooooooooooooo%%&XXXXXXOO     OOOOOOOXXXXXX&&&&&&&&&%%%%",
"&&&&&&&&&&&&&&&XXXXXOOOOOO    OOOXXXXX&ooooooooooooooo%%XXXXXXoO    OOOOOOOOXXXXXX&&&&&&&&&&%%%%",
"&&&&&&&&&&&&&&&&XXXXXOOOOOO    OOOXXXXX&&&oooooooooooo%XXXXXXoO    OOOOOOOOXXXXXX&&&&&&&&&&&&&&&",
"&&&&&&&&&&&&&&&&&XXXXOOOOOOO   OOOOXXXX&&&oooo$$OOooooXXXXXXoOO   OOOOOOoXXXXXX&&&&&&&&&&&&&&&&&",
"&&&&&&&&&&&&&&%%%XXXXXOOOOOOO   OOOXXXXX&&oooo$$OOoooXXXXXXooOO  OOOOOOoXXXXXX&&%%%%&&&&&&&&&&&&",
"&&&&&&&&&&&&&&%%%%XXXXXOOOOOO    OOOXXXXX&oooo$$OOooXXXXXooooOOOOOOOoooXXXXXX&&&%%%%&&&&&&&&&&&&",
"&&&&&&&&&&&&&&%%%%XXXXXXOOOOOO   OOOoXXXX&oooo$$OOooXXXXooOOOOOOOOOoooXXXXXX&&&&%%%%&&&&&&&&&&&&",
"&&&&&&&&&&&&&&%%%%&XXXXXXOOOOOO  OOOoXXXX&oooo$$OOooXXXoooOOOOOOOooooXXXXXX%&&&&%%%%&&&&&&&&&&&&",
"&&&&&&&&&&&&&&&&&&%%%XXXXXoOOOOOOOOOooXXX&oooo$$OOooXXXoOOOOOooooooXXXXXX&&&%%%%&&&&&&&&&&&&&&&&",
"&&&&&&&&&&&&&&&&&&%%%%XXXXXoooOOOOOOooXXXooooo$$OOooooOOOOOooooooXXXXXXX&&&&%%%%&&&&&&&&&&&&&&&&",
"&&&&&&&&&&&&&&&&&&%%%%XXXXXXooOOOOOooooooooooo$$OOoooooooooooooXXXXXXXX&&&&&%%%%&&&&&&&&&&&&&&&&",
"&&&&&&&&&&&&&&&&&&%%%%&&XXXXXoooOOOOOOoooooooo$$OOoooooooooooXXXXXXXXX&&&&&&%%%%&&&&&&&&&&&&&&&&",
"&&&&&&&&&&&&&&&&&&&&&&&&&XXXXXXooOOOOOOooooooo$$OOooooXXXXXXXXXXXXX&&&&&&&&&&&&&&&&&&&&&&&&&&&&&",
"&&&&&&&&&&&&&&&&&&&&&&&&&XXXXXXXXooOOOOooooooo$$OOooooXXXXXXXXXXX&&&&&&&&&&&&&&&&&&&&&&&&&&&&&&&",
"&&&&&&&&&&&&&&&&&&&&&&&&&&&XXXXXXXXXXXXXXXXooo$$OOooooXXXXXXXXX&&&&&&&&&&&&&&&&&&&&&&&&&&&&&&&&&",
"&&&&&&&&&&&&&&&&&&&&&&&&&&&&XXXXXXXXXXXXXXXooo$$OOoooo&&&&&&&&&&&&&&&&&&&&&&&&&&&&&&&&&&&&&&&&&&",
"&&&&&&&&&&&&&&&&oooooooo&&&&&ooXXXXXXXXXXXXooo$$OOoooo&&&&&&&&&&&&&&&&&&oooooooo&&&&&&&&&&&&&&&&",
"&&&&&&&&&&&&&&&&oooooooo&&&&&&&ooXXXXXoooooooo$$OOoooo&&&&&&&&&&&&&&&&&&oooooooo&&&&&&&&&&&&&&&&",
"&&&&&&&&&&&&oooooooooooooooo&&&&&&&&&&&&&&oooo$$OOoooo&&&&&&&&&&&&&&oooooooooooooooo&&&&&&&&&&&&",
"&&&&&&&&&&&&oooooooooooooooo&&&&&&&&&&&&&&oooo$$OOoooo&&&&&&&&&&&&&&oooooooooooooooo&&&&&&&&&&&&",
"&&&&&&&&oooooooo$$$$$$$$oooooooo&&&&&&&&&&oooo$$OOoooo&&&&&&&&&%oooooooo$$$$$$$$oooooooo&&&&&&&&",
"&&&&&&&&oooooooo$$$$$$$$oooooooo&&&&&&&&&&oooo$$OOoooo&&&&&&&&&%oooooooo$$$$$$$$oooooooo&&&&&&&&",
"&&&&&&&&ooooOOOO$$$$$$$$$$$$oooooooo++++++oooo$$OOoooo++++++oooooooo$$$$$$$$$OOOOOOOoooo&&&&&&&&",
"&&&&&&&&ooooOOOOOO$$$$$$$$$$oooooooo++++++oooo$$OOoooo++++++oooooooo$$$$$$$OOOOOOOOOoooo&&&&&&&&",
"&&&&&&&&ooooooooOOOOOOOOO$$$$$$$oooooooo++oooo$$OOoooo++oooooooo$$$$$$$$OOOOOOOOoooooooo&&&&&&&&",
"&&&&&&&&ooooooooOOOOOOOOOO$$$$$$oooooooo++oooo$$OOoooo++oooooooo$$$$$OOOOOOOOOOOoooooooo&&&&&&&&",
"&&&&&&&&&&&&oooooooooooOOOOOOOOO$$$$oooooooooo$OOOoooooooooo$$$$OOOOOOOOoooooooooooo&&&&&&&&&&&&",
"&&&&&&&&&&&&ooooooooooooOOOOOOOOOOOOooooooooooOOOOoooooooooo$$OOOOOOOOOOoooooooooooo&&&&&&&&&&&&",
"&&&&&&&&&&&&&&&&ooooooooooooooooOOOOOOO$ooooooOOOOooooooOOOOOOOOoooooooooooooooo&&&&&&&&&&&&&&&&",
"&&&&&&&&&&&&&&&&ooooooooooooooooOOOOOOO$ooooooOOOOooooooOOOOOOOOoooooooooooooooo&&&&&&&&&&&&&&&&",
"&&&&&&&&&&&&&&&&&&&&&&&&ooooooooooooooooooooooOOOooooooooooooooooooooooo+++&&&&&%%%%&&&&%%%%&&&&",
"&&&&&&&&&&&&&&&&&&&&&&&&oooooooooooooooooooooooOOoooooooooooooooooooooo++++++&&&%%%%&&&&%%%%&&&&",
"%%%%&&&&%%%%&&&&&&&&&&&+++++++++oooooooooooooooooooooooooooooooo++++++++++++++++%%%%&&&&%%%%&&&&",
"%%%%&&&&%%%%&&++++++++++++++++++oooooooooooooooooooooooooooooooo++++++++++++++++%%%%&&&&%%%%&&&&",
"%%%%&&&&%%%%&&++++++++++++++++++++++++oooooooooooooo++oo++++++++++++++++++++++++++++%%%%&&&&&&&&",
"%%%%&&&&%%%%&&++++++++++++++++++++++++++++++++++++++++++++++++++++++++++++++++++++++%%%%&&&&&&&&",
"&&&&%%%%&&&&&&&++++++++++++++++++++++++++++++++++++++++++++++++++++++++++++++++++&&&%%%%&&&&&&&&",
"&&&&%%%%&&&&&&&&&&&&&&&++++++++++++++++++++++++++++++++++++++++++++++++++++++++&&&&&%%%%&&&&&&&&",
"&&&&%%%%&&&&&&&&&&&&&&&&&&&&&&&&&&&+++++++++++++++++++++++++++++++&&&&&&++++&&&&&&&&&&&&&&&&&&&&",
"&&&&%%%%&&&&&&&&&&&&&&&&&&&&&&&&&&&&&+++++++++++++++++++&&&&&&++&&&&&&&&&&&&&&&&&&&&&&&&&&&&&&&&",
"&&&&&&&&&&&&&&&&&&&&&&&&&&&&&&&&&&&&&&&&+++++++++++++&&&&&&&%%%%&&&&%%%%&&&&&&&&&&&&&&&&&&&&&&&&",
"&&&&&&&&&&&&&&&&&&&&&&&&&&&&&&&&&&&&&&&&&&&&&&&&&&&&&&&&&&&&%%%%&&&&%%%%&&&&&&&&&&&&&&&&&&&&&&&&",
"&&&&&&&&&&&&%%%%&&&&%%%%&&&&&&&&&&&&&&&&&&&&&&&&&&&&&&&&&&&&%%%%&&&&%%%%&&&&&&&&&&&&&&&&&&&&&&&&",
"&&&&&&&&&&&&%%%%&&&&%%%%&&&&&&&&&&&&&&&&&&&&&&&&&&&&&&&&&&&&%%%%&&&&%%%%&&&&&&&&&&&&&&&&&&&&&&&&"
};
