/* XPM */
static char *xpm_[] = {
/* columns rows colors chars-per-pixel */
"96 96 16 1 ",
"  c black",
". c #040404",
"X c gray4",
"o c #141713",
"O c #1E1E1C",
"+ c #266F25",
"@ c #4C654C",
"# c #965239",
"$ c #B2512C",
"% c #118910",
"& c #259819",
"* c #43D30C",
"= c #899B3E",
"- c #AFD02A",
"; c #EAD7D0",
": c #E7EEE5",
/* pixels */
"************&&&&****&&&&****************************************&&&&****************************",
"************&&&&****&&&&********....OOOOOOOOOOOO************.....&&&************&&&&****&&&&****",
"****************&&&&************....OOOOOOOOOOOOO******OOO.......O&&************&&&&****&&&&****",
"****************&&&&**********..OOO.......OOOOOOO****OOOOO...OO..OO&************&&&&****&&&&****",
"****************&&&&**********..OO...........OOOOOOOOOOO...OOOOOOOO*************&&&&****&&&&****",
"****************&&&&*********...OO..$$$$$$......OOOOOO.....OO..OOOOO****************&&&&********",
"*****************************..OOO..$$$$$$$$....OOO..O...$$$$..OOOOO****************&&&&********",
"******************************OOOO..$;;;;;;$$$$$OO...$$$$$$$$....OOOO***************&&&&********",
"*****************OOOOOOOOO****OOO..$;;;;;;;$$$$$OO..$$$$$$$$$....OOOO***************&&&&********",
"*****************OOOOOOOOOO***OOO..$;;;;$$$$$$$$OOOO$$$$$$$$$....OOOO***************************",
"*****************OOO....OOOO**OOOO$$$;;$$$$$$$$$OOOO$$$$;;$$$....OOOOOOO************************",
"********&&&&*****OOO$$$$.OOO**OOOO$$$$$$$$$$$$$$OOOO$$$$;;$$$$...OOOOOOOO***********************",
"********&&&&****&OO.$$$$$.OO.OO..OO$$$$$$$$$$$$$###$$$$$$$$$$$...OOOOOOOOOOO********************",
"********&&&&****&OOO$$$$$$O..OO..OO$$$$$$$$$$$$$###$$$$$$$$$$$OOOOOOOOOOOOOO********************",
"********&&&&****&OOO$$$$$$$OOOO..OO$$$$$$$$$OOOOOOOO$$$$$$$$$$OOOO....OOOOOOOOO***&&&&**********",
"************&&&&&..OO$$$$$$$.....OO$$$$$$$$$OOOOOOOO$$$$$$$$$$OOO........OOOOOO***&&&&**********",
"************&&&&O..OO$$$$$$$.....ooo$$$$OOOOOOOOOOOOOOOO$$$$##OOo...........OOOO**&&&&**********",
"************&&&&O....$$$$$$$$$$$$oooo$$$OOOOOOOOOOOOOOOO$$$....oo..$$$$$....OOOO**&&&&**********",
"************&&&&O....$$$$$$$$$$$$ooooOOOOOOO--------OOOOOOO....oo..$$$$$$$$OOOOOO***************",
"****************O....$$$$$$$$;;;$oooooOOOOOO--------OOOOOOOO$$oooo$$$$$$$$$$OOOOO***************",
"****************OO..$$$$$$$;;;;;$$oooooO----------------OOOO$ooooo;$$$$$$$$$O...O***************",
"****************OO..##$$$$$;;;;;$$:ooooo----------------OOOOooooo;;;$$$$$$##....O***************",
"****************OO..##$$$$$$$;;;$$ooooooo-----------------Ooooooo;;;$$$$$$#....OO***************",
"****************OO..##$$$$$$$;;$$$Oooooooo---------------ooooooo$;;$$$$$$$....OOO***************",
"****************OO..###$$$$$$$$$$$OOooooooooo----------ooooooooo$$$##$$$$....OOOO***************",
"****************OOOO####$$$$$$$$$$OOOoooooooooo----oooooooooooo$$$$#####.......OO&&&************",
"****************OOOOOO###$$$$$$$OOOO--ooooooooo----oooooooooooOO$$$$###........OO&&&************",
"******************OOOO####$$$$$$OOOO==ooooooooo-----oooooooooOOO##OOOO$....OOOOOO&&&************",
"******************OOOO####$$$$$$OOOOoo---ooooo-------oooooo=OOOO##OOOOOOOOOOOOOO&&&&************",
"********************OOOOOO$$$$$$OOOOoo--------------------==OOOO##OOOOOOOOOOOOOO****************",
"**********************OOOO$$$$$$OOo:ooo-------------------==oooO$$OOOOOOOOOOOOO&****************",
"**********************OOOOOOOOO$OOo:oooo--------------ooo==XXXoO$$$$OOOOOOO*&&******************",
"*********************oOOOOOOOOO$OOo:ooooooo-----------oooXXXoooO$$$$OOOOOO**********************",
"*********************ooOOOOOOOO$O..:oo:oooooooo--oo--oooooXXXooO$$$$$$OOOOO*********************",
"*********************ooOOOOOOOO$$..o:oo:o:oooooooo:oooo::o::XXo$$$$$$$OOOOo*********************",
"*********************oOOOOOO##$$$..o:o:::::o::oo:o::oo::::::XXo$$$$$$$$$ooo*********************",
"**********************OOOO#####$$..O::o::o:o:::::::::::::::ooXo$$$$$;;$$ooo*********************",
"**********************OOo######$$...ooo::o:::o::::o:::o::oooXoo$$$$;;;$$oooo********************",
"**********************OOo#####$$$...ooOo:o::Oo::o:oo::oOO:Xoooo$$$$;;;$$ooOOO*******************",
"**********************OOo#####$$$$$$ooooooO:Ooo:o:oo:ooOOOXXo$$$$$$$$$$$oOOOO*******************",
"**********************OOO######$$$$$ooooooOOOoooOOOo:oo$$$ooo$$$$$$$$$$$oOOOO*******************",
"***********************OOo######$$$$$$$oo##OOoooOOOOooo####oo$$$$$$$$$$$OOOOO*******************",
"***********************OOO############$$###$$$ooOO$$$oo#########$$$$$$$$OOOO********************",
"***********************OOOO###########$$##$$$$ooOO$$$$$OOO#######$$$$$##OOO+********************",
"************************OOOO#######$OOOOO$$$$$$$$$$$$$OOOOOOOOOOOoooooOOOOO*********************",
"*************************OOOOO#####$OOOOO$$$$$$$$$$$$$OOOOOOOOOOoooooOOOO***********************",
"&&&&**********************OOOOoooOOOOOOOO$$$$$$$$$$$$$OOOOOOOOOoooooOOO******************&&&****",
"&&&&***********************OooooooOOOOOOO$$$$$$$$$$$$$OOOOOOOOoooooOO********************&&&****",
"&&&&***********************OOooooooOOOOOO$OOOO$$$$OOOOOOOOO*****************************&&&&****",
"&&&&**************************oooooOOOOOOOOOOO$$$$OOOOOOO&******************************&&&&****",
"*******************************ooooo*OOOOOOOOO$$OOOOOOOOO&**********************************&&&&",
"*************************************OOOOOOOOOOOOOOOOOOOO&**********************************&&&&",
"**OOOOOOOOOOOOOOOOOOOOO****************OOOOOOOOOOOOOOO&&*oooooo++.....+++*******************&&&&",
"**OOOOOOOOOOOOOOOOOOOOOOOOOO***********OOOOOOOOOOOOOOO&&ooooooOOOOOOOOOOOO++oo**************&&&&",
"**OOOOOOOOOOOOOOOOOOOOOOOOOOO*************OOOOOOOOOOOO&oOOOOOOOOOOOOOOOOOOOOOOOoo***************",
"**OOOO+++++++++++oooOOOOOOOOOOOOOOOO******OOOO%%++OOOOOOOOOOOOOOOOOOOOOOOOOOOOOOOOO*************",
"**OOOOO+++++++++++++++++OOOOOOOOOOOOOOOO**OOOO%%++OOOOOOOOOOOOOOOO+++++OOOOOOOOOOOOOOOO*********",
"***OOOO+++   ++++++++++++++++OOOOOOOOOOOo*OOOO%%++OOoOOOOOOOO+++++++++++++++oOOOOOOOOOOOOO******",
"***OOOOO++    ++++++++++++++++..OOOOOOOOOOOOOO%%++OOooooOO+++++++++++++++++++++++OOOOOOOOOO*****",
"****OOOOO++      ++++++++++++++..+++OooOOOOOOO%%++OOoooOOO+++++++++++++++++++++++++++OOOOOOOO***",
"****OOOOOO++               +++++++++OOoOOOOOOO%%++OOoooO++++++++                +++++++OOOOOOO**",
"*****OOOOOO++++                 ++++OOoooOOOOO%%++OOOO+                            ++++++OOOOOO*",
"******OOOOOOO++++++++++++       +++OOOOOOOOOOO%%++OOO++           ++++++++++++     ++++++OOOOOO*",
"*******OOOOOOO++++++++++++++++++++++++OOOOOOOO%%++OOO++++++++++++++++++++++++++++++++++OOOOOOOO*",
"********OOOOOOOOOO++++++++++++++++++OOOOOOOOOO%%++OOO++++++++++++++++++++++++++++OOOOOOOOOOOOO**",
"**********OOOOOOOOOOOOOOOooooooooOOOOOOOOOOOOO%%++OOOOO+++++++++o++++++++++OOOOOOOOOOOOOOOOO****",
"************OOOOOOOOOOOOOOOOOOOOOOOOOOOOOooOOO%%++OOOOOOOOOOOOOOOOOOOOOOOOOOOOOOOOOOOOOOO*******",
"****************OOOOOOOOOOOOOOOOOOOOOOOooooOOO%%++OOOOOOOOOOOOOOOOOOOOOOOOOOOOOOOOO*************",
"****************OOOOOOOOOOOOOOOOOOOOoooooooOOO%%++OOOOOOOOOOOOOOOOOOOOOOOOOOOOOO****************",
"****************OOOOOOOO*******OOoooooOOOOOOOO%%++OOOO******************OOOOOOOO****************",
"************OOOOOOOOOOOOOOOO**************OOOO%%++OOOO**************OOOOOOOOOOOOOOOO************",
"************OOOOOOOOOOOOOOOO**************OOOO%%++OOOO**************OOOOOOOOOOOOOOOO************",
"********OOOOOOOO%%%%%%%%OOOOOOOO**********OOOO%%++OOOO*********&OOOOOOOO%%%%%%%%OOOOOOOO********",
"********OOOOOOOO%%%%%%%%OOOOOOOO**********OOOO%%++OOOO*********&OOOOOOOO%%%%%%%%OOOOOOOO********",
"********OOOO++++%%%%%%%%%%%%OOOOOOOO@@@@@@OOOO%%++OOOO@@@@@@OOOOOOOO%%%%%%%%%+++++++OOOO********",
"********OOOO++++++%%%%%%%%%%OOOOOOOO@@@@@@OOOO%%++OOOO@@@@@@OOOOOOOO%%%%%%%+++++++++OOOO********",
"********OOOOOOOO+++++++++%%%%%%%OOOOOOOO@@OOOO%%++OOOO@@OOOOOOOO%%%%%%%%++++++++OOOOOOOO********",
"********OOOOOOOO++++++++++%%%%%%OOOOOOOO@@OOOO%%++OOOO@@OOOOOOOO%%%%%+++++++++++OOOOOOOO********",
"************OOOOOOOOOOO+++++++++%%%%OOOOOOOOOO%+++OOOOOOOOOO%%%%++++++++OOOOOOOOOOOO************",
"************OOOOOOOOOOOO++++++++++++OOOOOOOOOO++++OOOOOOOOOO%%++++++++++OOOOOOOOOOOO************",
"****************OOOOOOOOOOOOOOOO+++++++%OOOOOO++++OOOOOO++++++++OOOOOOOOOOOOOOOO****************",
"****************OOOOOOOOOOOOOOOO+++++++%OOOOOO++++OOOOOO++++++++OOOOOOOOOOOOOOOO****************",
"************************OOOOOOOOOOOOOOOOOOOOOO+++OOOOOOOOOOOOOOOOOOOOOOO@@@*****&&&&****&&&&****",
"************************OOOOOOOOOOOOOOOOOOOOOOO++OOOOOOOOOOOOOOOOOOOOOO@@@@@@***&&&&****&&&&****",
"&&&&****&&&&***********@@@@@@@@@OOOOOOOOOOOOOOOOOOOOOOOOOOOOOOOO@@@@@@@@@@@@@@@@&&&&****&&&&****",
"&&&&****&&&&**@@@@@@@@@@@@@@@@@@OOOOOOOOOOOOOOOOOOOOOOOOOOOOOOOO@@@@@@@@@@@@@@@@&&&&****&&&&****",
"&&&&****&&&&**@@@@@@@@@@@@@@@@@@@@@@@@OOOOOOOOOOOOOO@@OO@@@@@@@@@@@@@@@@@@@@@@@@@@@@&&&&********",
"&&&&****&&&&**@@@@@@@@@@@@@@@@@@@@@@@@@@@@@@@@@@@@@@@@@@@@@@@@@@@@@@@@@@@@@@@@@@@@@@&&&&********",
"****&&&&*******@@@@@@@@@@@@@@@@@@@@@@@@@@@@@@@@@@@@@@@@@@@@@@@@@@@@@@@@@@@@@@@@@@***&&&&********",
"****&&&&***************@@@@@@@@@@@@@@@@@@@@@@@@@@@@@@@@@@@@@@@@@@@@@@@@@@@@@@@@*****&&&&********",
"****&&&&***************************@@@@@@@@@@@@@@@@@@@@@@@@@@@@@@@******@@@@********************",
"****&&&&*****************************@@@@@@@@@@@@@@@@@@@******@@********************************",
"****************************************@@@@@@@@@@@@@*******&&&&****&&&&************************",
"************************************************************&&&&****&&&&************************",
"************&&&&****&&&&************************************&&&&****&&&&************************",
"************&&&&****&&&&************************************&&&&****&&&&************************"
};
