/* XPM */
static char *xpm_[] = {
/* columns rows colors chars-per-pixel */
"96 96 9 1 ",
"  c black",
". c #020202",
"X c #3F6046",
"o c #606060",
"O c #259819",
"+ c #43D30C",
"@ c #243381",
"# c #263FBD",
"$ c #CACACA",
/* pixels */
"++++++++++++OOOO++++OOOO++++++++++++++++++++++++++++++++++++++++OOOO++++++++++++++++++++++++++++",
"++++++++++++OOOO++++OOOO++++++++++++++++++++++++++++++++++++++++OOOO++++++++++++OOOO++++OOOO++++",
"++++++++++++++++OOOO++++++++++++++++++++++++        ++++++++++++OOOO++++++++++++OOOO++++OOOO++++",
"++++++++++++++++OOOO++++++++++++++++++++++++        ++++++++++++OOOO++++++++++++OOOO++++OOOO++++",
"++++++++++++++++OOOO++++++++++++++++++++++++        ++++++++++++++++++++++++++++OOOO++++OOOO++++",
"++++++++++++++++OOOO++++++++++++++++++++++++        +OOOO+++++++++++++++++++++++++++OOOO++++++++",
"++++++++++++++++++++++++++++++++++++++++++    @@@@    OOO+++++++++++++++++++++++++++OOOO++++++++",
"++++++++++++++++++++++++++++++++++++++++++    @@@@    OOO+++++++++++++++++++++++++++OOOO++++++++",
"++++++++++++++++    ++++++++++++++++++++++    @@@@    OOO+++++++++++++++++++    ++++OOOO++++++++",
"++++++++++++++++    ++++++++++++++++++++++    @@@@    ++++++++++++++++++++++    ++++++++++++++++",
"++++++++++++            ++++++++++++++++    @@@@@@@@    ++++++++++++++++            ++++++++++++",
"++++++++OOOO            ++++++++++++++++    @@@@@@@@    ++++++++++++++++            ++++++++++++",
"++++++++        $$$$        ++++++++++++    @#####@@@   ++++++++++++        $$$$        ++++++++",
"++++++++        $$$$        ++++++++++++    @#####@@@   ++++++++++++        $$$$        ++++++++",
"++++++++    $$$$$$$$$$$$    ++++++++++    @@@#####@@@@    ++++++++++    $$$$$$$$$$$$    ++++++++",
"++++++++    oo$$$$$$$$oo    ++++++++++    @@@#######@@    ++++++++++    $$$$$$$$$ooo    ++++++++",
"++++++++    oooo$$$ooooo    ++++++++++    @@########@@    ++++++++++    ooooo$$ooooo    ++++++++",
"++++++++    oooo$$$ooooo    ++++++++++   @@@#########@    ++++++++++    ooooo$$ooooo    ++++++++",
"++++++++        oooo        ++++++++    @@@@#########@@@    ++++++++        oooo        ++++++++",
"++++++++        oooo        ++++++++    @@@###########@@    ++++++++        oooo        ++++++++",
"+++++++++                      +++++    @@@###########@@    +++++                      +++++++++",
"+++++++++                      +++++    @@############@@    +++++                      +++++++++",
"+++++++++    $$$    $$$               @@@##############@@@               $$$    $$$    +++++++++",
"+++++++++    $$$    $$$               @@@##############@@@               $$$    $$$    +++++++++",
"+++++++++    $$$$$$$$$$    $$$$       @################@@@       $$$$    $$$$$$$$$$    +++++++++",
"+++++++++    $$oooooooo    $$$$       @#################@@       $$$$    $$$oooo$$$    +++++++++",
"+++++++++    $$oooooooo    $$$$$    @@@##################@@@    $$$$$    $$$oooo$$$    +++++++++",
"+++++++++    oooooooooo    $$$$$    @@@##################@@@   ooo$$$    oooooooooo    +++++++++",
"+++++++++    ooo    ooo    $$$$$    @@@##################@@@   ooo$$$    ooo    ooo    +++++++++",
"+++++++++    ooo    ooo    $$$ooo   @@@##################@@@   oooo$$    ooo    ooo    +++++++++",
"+++++++++                  $$$ooo   @@@###############@@@@@@    ooo$$                  +++++++++",
"+++++++++                  $$oooo   @@@@@@@#######@@@@@@@@@@    ooo$$                  +++++++++",
"++++++++        $$$$       $$ooo            @@###@@@            ooo$        $$$$        ++++++++",
"++++++++        $$$$       $$ooo            @@@@@@@@            ooo$        $$$$        ++++++++",
"++++++++    $$$$$$$$$$$    $$$oooooo        @@@@@@@@       oooooooo$    $$$$$$$$$$$$    ++++++++",
"++++++++    oo$$$$$$$$$    $$$oooooo        @@@@@@@@       oooooooo$    $$$$$$$$$$oo    ++++++++",
"++++++++    oooo$$$$oooo    $$ooooooooooooooo       ooooooooooooooo$    oooo$$$ooooo    ++++++++",
"++++++++    oooooo$$oooo    $$$$$$$$ooooooooo       ooooooooo$$$$$$$    oooo$ooooooo    ++++++++",
"++++++++        oooo        $$$$$$$$ooooooooo       ooooooooo$$$$$$$       ooooo        ++++++++",
"++++++++        oooo        $$$$$$$$$$$$$$$$        $$$$$$$$$$$$$$$$       ooooo        ++++++++",
"++++++++                        $$$$    $$$$$$$$$$$$$$$$    $$$$                        ++++++++",
"++++++++                        $$$$    $$$$        $$$$    $$$$                        ++++++++",
"++++++++    ooo$    $ooo                                                ooo$    $ooo    ++++++++",
"++++++++    ooo$    $ooo                                                ooo$    $ooo    ++++++++",
"++++++++    ooo$$$$$$ooo    $$$$    $$$$                $$$$    $$$$    ooo$$$$$$ooo    ++++++++",
"++++++++    ooo$$$$$$ooo    $$$$    $$$$    $$$$$$$$    $$$$    $$$$    ooo$$$$$$ooo    ++++++++",
"OOOO++++    ooo$....$ooo    $$$$$$$$$$$$$$$$$$$$$$$$$$$$$$$$$$$$$$$$    ooo$$$$$$ooo    OOOO++++",
"OOOO++++    ooo$....$ooo    $$$$$$$$$$$$$$$$$$$$$$$$$$$$$$$$$$$$$$$$    ooo$....$ooo    OOOO++++",
"OOOO++++    ooo$$$$$$ooo    $$$$$$$$$$..$$$$..$$$$  $$$$..$$$$$$$$$$    ooo$....$ooo    OOOO++++",
"OOOO++++    ooo$$$$$$ooo    $$$$$$$$$$..$$$$..$$$$  $$$$..$$$$$$$$$$    ooo$$$$$$ooo    OOOO++++",
"++++++++    ooo$$$$$$ooo    $$$$$$$$$$..$$$$..$$$$..$$$$..$$$$$$$$$$    ooo$$$$$$ooo    ++++OOOO",
"++++++++    ooo$$$$$$ooo    $$$$$$$$$$..$$$$..$$$$..$$$$..$$$$$$$$$$    ooo$$$$$$ooo    ++++OOOO",
"++++++++    ooo$$$$$$ooo    $$$$$$$$$$$$$$$$$$$$$$$$$$$$$$$$$$$$$$$$    ooo$$$$$$ooo    ++++OOOO",
"++++++++    ooo$$$$$$ooo    oooooooooo$$oooooooooooooooo$$ooooooooooo   ooo$$$$$$ooo    ++++OOOO",
"++++++++    ooo$$$$$$ooo    ooooooooooooooooooooooooooooooooooooooooo   ooo$$$$$$ooo    ++++++++",
"++++++++    ooo$$$$$$ooo    ooooooooooooooooooooooooooooooooooooooooo   ooo$$$$$$ooo    ++++++++",
"++++++++    ooo$$$$$$ooo            oooo                oooo            ooo$$$$$$ooo    ++++++++",
"++++++++    ooo$$$$$$ooo            oooo                oooo            ooo$$$$$$ooo    ++++++++",
"++++++++    ooo$$$$$$ooo                                                ooo$$$$$$ooo    ++++++++",
"++++++++    ooo$$$$$$ooo                                                ooo$$$$$$ooo    ++++++++",
"++++++++    ooo$$$$$$ooo    $$$$$$$$    $$$$$$$$$$$$$$$$    $$$$$$$$    ooo$$$$$$ooo    ++++++++",
"++++++++    ooo$$$$$$ooo    $$$$$$$$    $$$$$$$$$$$$$$$$    $$$$$$$$    ooo$$$$$$ooo    ++++++++",
"++++++++    ooo$$$$$$ooo    $$$$$$$$$$$$$$$$$$$$$$$$$$$$$$$$$$$$$$$$    ooo$$$$$$ooo    ++++++++",
"++++++++    ooo$$$$$$ooo    $$$$$$$$$$$$$$$$$$$$$$$$$$$$$$$$$$$$$$$$    ooo$$$$$$ooo    ++++++++",
"++++++++    ooo$$$$$$ooo    $$$..$$$$$$$....        ....$$$$$$$..$$$    ooo$$$$$$ooo    ++++++++",
"++++++++    ooo$$$$$$ooo    $$$..$$$$$$$....        ....$$$$$$$..$$$    ooo$$$$$$ooo    ++++++++",
"++++++++    ooo$$$$$$ooo    $$$..$$$$$$$....        ....$$$$$$$..$$$    ooo$$$$$$ooo    ++++++++",
"++++++++    ooo$$$$$$ooo    $$$..$$$$$$$....        ....$$$$$$$..$$$    ooo$$$$$$ooo    ++++++++",
"++++++++    ooo$$$$$$ooo    $$$$$$$$....    XX    XX    ....$$$$$$$$    ooo$$$$$$ooo    ++++++++",
"++++++++    ooo$$$$$$ooo    $$$$$$$$....    XX    XX    ....$$$$$$$$    ooo$$$$$$ooo    ++++++++",
"++++++++    ooo$$$$$$ooo    $$$$$$$$....    XX    XX    ....$$$$$$$$    ooo$$$$$$ooo    ++++++++",
"++++++++    ooo$$$$$$ooo    $$$$$$$$....    XX    XX    ....$$$$$$$$    ooo$$$$$$ooo    ++++++++",
"++++++++    ooo$$$$$$ooo    $$$$$$$$    XXXXXX    XXXXXX    $$$$$$$$    ooo$$$$$$ooo    ++++++++",
"++++++++    ooo$$$$$$ooo    $$$$$$$$    XXXXXX    XXXXXX    $$$$$$$$    ooo$$$$$$ooo    ++++++++",
"++++++++    ooo$$$$$$ooo    $$$$$$$$    XXXXXX    XXXXXX    $$$$$$$$    ooo$$$$$$ooo    ++++++++",
"++++++++    ooo$$$$$$ooo    $$$$$$$$    XXXXXX    XXXXXX    $$$$$$$$    ooo$$$$$$ooo    ++++++++",
"++++++++    ooo$$$$$$ooo    $$$$$$$$    XXX..X    X..XXX    $$$$$$$$    ooo$$$$$$ooo    ++++++++",
"++++++++    ooo$$$$$$ooo    $$$$$$$$    XXX..X    X..XXX    $$$$$$$$    ooo$$$$$$ooo    ++++++++",
"++++++++    ooo$$$$$$ooo    $$$$$$$$    XXXXXX    XXXXXX    $$$$$$$$    ooo$$$$$$ooo    ++++++++",
"++++++++    ooo$$$$$$ooo    oooooooo    XXXXXX    XXXXXX    oooooooo    ooo$$$$$$ooo    ++++++++",
"++++++++    ooo$$$$$$ooo    oooooooo    XXXXXX    XXXXXX    oooooooo    ooo$$$$$$ooo    ++++++++",
"++++++++    ooo$$$$$$ooo    oooooooo    XXXXXX    XXXXXX    oooooooo    ooo$$$$$$ooo    ++++++++",
"++++++++    oooo$$$ooooo                                                oooo$$$ooooo    OOOO++++",
"++++++++    oooo$$$ooooo                                                oooo$$$ooooo    OOOO++++",
"OOOO++++    oooooooooooo                                                oooooooooooo    OOOO++++",
"OOOO++++    oooooooooooo                                                oooooooooooo    OOOO++++",
"OOOO++++    oooooooooooo    +++++++++++++++++++++++OOOO+++++++++++++    oooooooooooo    ++++++++",
"OOOO++++    oooooooooooo    +++++++++++++++++++++++OOOO+++++++++++++    oooooooooooo    ++++++++",
"++++OOOO++++            ++++++++++++++++++++++++++++++++++++++++++++++++            OOOO++++++++",
"++++OOOO++++            ++++++++++++++++++++++++++++++++++++++++++++++++            OOOO++++++++",
"++++OOOO++++            ++++++++++++++++++++++++++++++++++++++++++++++++            ++++++++++++",
"++++OOOO++++            ++++++++++++++++++++++++++++++++++++++++++++++++            ++++++++++++",
"++++++++++++++++++++++++++++++++++++++++++++++++++++++++++++OOOO++++OOOO++++++++++++++++++++++++",
"++++++++++++++++++++++++++++++++++++++++++++++++++++++++++++OOOO++++OOOO++++++++++++++++++++++++",
"++++++++++++OOOO++++OOOO++++++++++++++++++++++++++++++++++++OOOO++++OOOO++++++++++++++++++++++++",
"++++++++++++OOOO++++OOOO++++++++++++++++++++++++++++++++++++OOOO++++OOOO++++++++++++++++++++++++"
};
