/* XPM */
static char *xpm_[] = {
/* columns rows colors chars-per-pixel */
"96 96 14 1 ",
"  c black",
". c #020202",
"X c #1B1717",
"o c #332A2A",
"O c #323C34",
"+ c #423636",
"@ c #3F6046",
"# c #606060",
"$ c #259819",
"% c #43D30C",
"& c #C7EA0D",
"* c #243381",
"= c #263FBD",
"- c #CACACA",
/* pixels */
"%%%%%%%%%%%%$$$$%%%%$$$$%%%%%%%%%%%%%%%%%%%%%%%%%%%%%%%%%%%%%%%%$$$$%%%%%%%%%%%%%%%%%%%%%%%%%%%%",
"%%%%%%%%%%%%$$$$%%%%$$$$%%%%%%%%%%%%%%%%%%%%%%%%%%%%%%%%%%%%%%%%$$$$%%%%%%%%%XXXX$$$%%%%$$$$%%%%",
"%%%%%%%%%%%%%%%%$$$$%%%%%%%%%%%%%%%%%%%%%%%%        %%%%%%%%%%%%$$$$%%%%%%%%%XXXXXXXXXXX$$$$%%%%",
"%%%%%%%%%%%%%%%%$$$$%%%%%%%%%%%%%%%%%%%%%%%%        %%%%%%%%%%%%$$$$%%%%%%%%%XX&&XXXXXXXXXX$%%%%",
"%%%%%%%%%%%%%%%%$$$$%%%%%%%%%%%%%%%%%%%%%%%%        %%%%%%%%%%%%%%%%%%%%%%%%%XX&&&&&&&XXXXX$%%%%",
"%%%%%%%%%%%%%%%%$$$$%%%%%%%%%%%%%%%%%%%%%%%%        %$$$$%%%%%%%%%%%%%%%%%%%%XX&&XXXXXXX%%%%%%%%",
"%%%%%%%%%%%%%%%%%%%%%%%%%%%%%%%%%%%%%%%%%%    ****    $$$%%%%%%%%%%%%%%%%%%%%XXXXXXXXX$$%%%%%%%%",
"%%%%%%%%%%%%%%%%%%%%%%%%%%%%%%%%%%%%%%%%%%    ****    $$$%%%%%%%%%%%%%%%%%%%%XXXX%%%$$$$%%%%%%%%",
"%%%%%%%%%%%%%%%%    %%%%%%%%%%%%%%%%%%%%%%    ****    $$$%%%%%%%%%%%%%%%%%%% XX %%%%$$$$%%%%%%%%",
"%%%%%%%%%%%%%%%%    %%%%%%%%%%%%%%%%%%%%%%    ****    %%%%%%%%%%%%%%%%%%%%%% XX %%%%%%%%%%%%%%%%",
"%%%%%%%%%%%%            %%%%%%%%%%%%%%%%    ********    %%%%%%%%%%%%%%%%     XX     %%%%%%%%%%%%",
"%%%%%%%%$$$$            %%%%%%%%%%%%%%%%    ********    %%%%%%%%%%%%%%%%     XX     %%%%%%%%%%%%",
"%%%%%%%%        ----        %%%%%%%%%%%%    *=====***   %%%%%%%%%%%%        -XX-        %%%%%%%%",
"%%%%%%%%        ----        %%%%%%%%%%%%    *=====***   %%%%%%%%%%%%        -XX-        %%%%%%%%",
"%%%%%%%%    ------------    %%%%%%%%%%    ***=====****    %%%%%%%%%%    -----XX-----    %%%%%%%%",
"%%%%%%%%    ##--------##    %%%%%%%%%%    ***=======**    %%%%%%%%%%    -----XX--###    %%%%%%%%",
"%%%%%%%%    ####---#####    %%%%%%%%%%    **========**    %%%%%%%%%%    #####--#####    %%%%%%%%",
"%%%%%%%%    ####---#####    %%%%%%%%%%   ***=========*    %%%%%%%%%%    #####--#####    %%%%%%%%",
"%%%%%%%%        ####        %%%%%%%%    ****=========***    %%%%%%%%        ####        %%%%%%%%",
"%%%%%%%%        ####        %%%%%%%%    ***===========**    %%%%%%%%        ####        %%%%%%%%",
"%%%%%%%%%                      %%%%%    ***===========**    %%%%%                      %%%%%%%%%",
"%%%%%%%%%                      %%%%%    **============**    %%%%%                      %%%%%%%%%",
"%%%%%%%%%    ---    ---               ***==============***               ---    ---    %%%%%%%%%",
"%%%%%%%%%    ---    ---               ***==============***               ---    ---    %%%%%%%%%",
"%%%%%%%%%    ----------    ----       *================***       ----    ----------    %%%%%%%%%",
"%%%%%%%%%    --########    ----       *=================**       ----    ---####---    %%%%%%%%%",
"%%%%%%%%%    --########    -----    ***==================***    -----    ---####---    %%%%%%%%%",
"%%%%%%%%%    ##########    -----    ***==================***   ###---    ##########    %%%%%%%%%",
"%%%%%%%%%    ###    ###    -----    ***==================***   ###---    ###    ###    %%%%%%%%%",
"%%%%%%%%%    ###    ###    ---###   ***==================***   ####--    ###    ###    %%%%%%%%%",
"%%%%%%%%%                  ---###   ***===============******    ###--                  %%%%%%%%%",
"%%%%%%%%%                  --####   *******=======**********    ###--                  %%%%%%%%%",
"%%%%%%%%        ----       --###            **===***            ###-        ----        %%%%%%%%",
"%%%%%%%%        ----       --###            ********            ###-        ----        %%%%%%%%",
"%%%%%%%%    -----------    ---######        ********       ########-    ------------    %%%%%%%%",
"%%%%%%%%    ##---------    ---######        ********       ########-    ----------##    %%%%%%%%",
"%%%%%%%%    ####----####    --###############       ###############-    ####---#####    %%%%%%%%",
"%%%%%%%%    ######--####    --------#########       #########-------    ####-#######    %%%%%%%%",
"%%%%%%%%        ####        --------#########       #########-------       #####        %%%%%%%%",
"%%%%%%%%        ####        ----------------        ----------------       #####        %%%%%%%%",
"%%%%%%%%                        ----    ----------------    ----                        %%%%%%%%",
"%%%%%%%%                        ----    ----        ----    ----                        %%%%%%%%",
"%%%%%%%%    ###-    -###                                                ###-    -###    %%%%%%%%",
"%%%%%%%%    ###-    -###                                                ###-    -###    %%%%%%%%",
"%%%%%%%%    ###------###    ----    ----                ----    ----    ###------###    %%%%%%%%",
"%%%%%%%%    ###------###    ----    ----    --------    ----    ----    ###------###    %%%%%%%%",
"$$$$%%%%    ###-....-###    ----------------------------------------    ###------###    $$$$%%%%",
"$$$$%%%%    ###-....-###    ----------------------------------------    ###-....-###    $$$$%%%%",
"$$$$%%%%    ###------###    ----------..----..----  ----..----------    ###-....-###    $$$$%%%%",
"$$$$%%%%    ###------###    ----------..----..----  ----..----------    ###------###    $$$$%%%%",
"%%%%%%%%    ###------###    ----------..----..----..----..----------    ###------###    %%%%$$$$",
"%%%%%%%%    ###------###    ----------..----..----..----..----------    ###------###    %%%%$$$$",
"%%%%%%%%    ###------###    ----------------------------------------    ###------###    %%%%$$$$",
"%%%%%%%%    ###------###    ##########--################--###########   ###------###    %%%%$$$$",
"%%%%%%%%    ###------###    #########################################   ###------###    %%%%%%%%",
"%%%%%%%%    ###------###    #########################################   ###------###    %%%%%%%%",
"%%%%%%%%    ###------###            ####                ####            ###------###    %%%%%%%%",
"%%%%%%%%    ###------###            ####                ####            ###------###    %%%%%%%%",
"%%%%%%%%    ###------###                                                ###------###    %%%%%%%%",
"%%%%%%%%    ###------###                                                ###------###    %%%%%%%%",
"%%%%%%%%    ###------###    --------    ----------------    --------    ###------###    %%%%%%%%",
"%%%%%%%%    ###------###    --------    ----------------    --------    ###------###    %%%%%%%%",
"%%%%%%%%    ###------###    ----------------------------------------    ###------###    %%%%%%%%",
"%%%%%%%%    ###------###    ----------------------------------------    ###------###    %%%%%%%%",
"%%%%%%%%    ###------###               -....        ....-               ###------###    %%%%%%%%",
"%%%%%%%%    ###------###               -....        ....-               ###------###    %%%%%%%%",
"%%%%%%%%    ###------###               -....        ....-               ###------###    %%%%%%%%",
"%%%%%%%%    ###------###               -....        ....-               ###------###    %%%%%%%%",
"%%%%%%%%    ###------###        @@@@....    ++++++++    ....@@@@        ###------###    %%%%%%%%",
"%%%%%%%%    ###------###        @@@@....    ++++++++    ....@@@@        ###------###    %%%%%%%%",
"%%%%%%%%    ###------###        @@@@....    ++++++++    ....@@@@        ###------###    %%%%%%%%",
"%%%%%%%%    ###------###        @@@@....    ++++++++    ....@@@@        ###------###    %%%%%%%%",
"%%%%%%%%    ###------###        @@@@    ++++++++++++++++    @@@@        ###------###    %%%%%%%%",
"%%%%%%%%    ###------###        @@@@    ++++++++++++++++    @@@@        ###------###    %%%%%%%%",
"%%%%%%%%    ###------###        @@@@    ++++++++++++++++    @@@@        ###------###    %%%%%%%%",
"%%%%%%%%    ###------###        @@@@    ++++++++++++++++    @@@@        ###------###    %%%%%%%%",
"%%%%%%%%    ###------###        @@@@    ++++++++++++++++    @@@@        ###------###    %%%%%%%%",
"%%%%%%%%    ###------###        @@@@    ++++++++++++++++    @@@@        ###------###    %%%%%%%%",
"%%%%%%%%    ###------###        @@@@    ++++++++++++++++    @@@@        ###------###    %%%%%%%%",
"%%%%%%%%    ###------###        OOOO    oooooooooooooooo    OOOO        ###------###    %%%%%%%%",
"%%%%%%%%    ###------###        OOOO    oooooooooooooooo    OOOO        ###------###    %%%%%%%%",
"%%%%%%%%    ###------###        OOOO    oooooooooooooooo    OOOO        ###------###    %%%%%%%%",
"%%%%%%%%    ####---#####                                                ####---#####    $$$$%%%%",
"%%%%%%%%    ####---#####                                                ####---#####    $$$$%%%%",
"$$$$%%%%    ############                                                ############    $$$$%%%%",
"$$$$%%%%    ############                                                ############    $$$$%%%%",
"$$$$%%%%    ############    %%%%%%%%%%%%%%%%%%%%%%%$$$$%%%%%%%%%%%%%    ############    %%%%%%%%",
"$$$$%%%%    ############    %%%%%%%%%%%%%%%%%%%%%%%$$$$%%%%%%%%%%%%%    ############    %%%%%%%%",
"%%%%$$$$%%%%            %%%%%%%%%%%%%%%%%%%%%%%%%%%%%%%%%%%%%%%%%%%%%%%%            $$$$%%%%%%%%",
"%%%%$$$$%%%%            %%%%%%%%%%%%%%%%%%%%%%%%%%%%%%%%%%%%%%%%%%%%%%%%            $$$$%%%%%%%%",
"%%%%$$$$%%%%            %%%%%%%%%%%%%%%%%%%%%%%%%%%%%%%%%%%%%%%%%%%%%%%%            %%%%%%%%%%%%",
"%%%%$$$$%%%%            %%%%%%%%%%%%%%%%%%%%%%%%%%%%%%%%%%%%%%%%%%%%%%%%            %%%%%%%%%%%%",
"%%%%%%%%%%%%%%%%%%%%%%%%%%%%%%%%%%%%%%%%%%%%%%%%%%%%%%%%%%%%$$$$%%%%$$$$%%%%%%%%%%%%%%%%%%%%%%%%",
"%%%%%%%%%%%%%%%%%%%%%%%%%%%%%%%%%%%%%%%%%%%%%%%%%%%%%%%%%%%%$$$$%%%%$$$$%%%%%%%%%%%%%%%%%%%%%%%%",
"%%%%%%%%%%%%$$$$%%%%$$$$%%%%%%%%%%%%%%%%%%%%%%%%%%%%%%%%%%%%$$$$%%%%$$$$%%%%%%%%%%%%%%%%%%%%%%%%",
"%%%%%%%%%%%%$$$$%%%%$$$$%%%%%%%%%%%%%%%%%%%%%%%%%%%%%%%%%%%%$$$$%%%%$$$$%%%%%%%%%%%%%%%%%%%%%%%%"
};
