/* XPM */
static char *xpm_[] = {
/* columns rows colors chars-per-pixel */
"96 96 11 1 ",
"  c black",
". c #241F24",
"X c #263528",
"o c #334F38",
"O c #9A4C3A",
"+ c #C34022",
"@ c #259819",
"# c #43D30C",
"$ c #A6DD1E",
"% c #B9FF0B",
"& c white",
/* pixels */
"############@@@@####@@@@########################################@@@@############################",
"############@@@@####@@@@########################################@@@@############@@@@####@@@@####",
"################@@@@############################################@@@@############@@@@####@@@@####",
"################@@@@############################################@@@@############@@@@####@@@@####",
"################@@@@############################################################@@@@####@@@@####",
"################@@@@#########################@@@@####@@@@###########################@@@@########",
"#############################################@@@@####@@@@###########################@@@@########",
"#############################################@@@@####@@@@###########################@@@@########",
"#############################################@@@@@@@@@@@@###########################@@@@########",
"#################################################@@@@###########################################",
"#################################################@@@@###########################################",
"########@@@@#####################################@@@@###########################################",
"########@@@@####@@@@############################################################################",
"########@@@@####@@@@############################################################################",
"########@@@@####@@@@##############################################################@@@@##########",
"############@@@@@@@@##############################################################@@@@##########",
"############@@@@######################.............###############################@@@@##########",
"############@@@@####################.................. ###########################@@@@##########",
"############@@@@##################.....%%%%%%%%%%%%%.  . #######################################",
"#################################...%%%%%%%%%%%%%%%%%%%...######################################",
"################################...%%%%%%%%%%%%%%&&&&&%%...#####################################",
"###############################...%%%%%%%%OOOOO&&&&&&&%%%...####################################",
"###############################..%%%%%OOOOOOO&&&&&&&&&$$$$ . ###################################",
"##############################..%%%%%&OOOOOO&&&&&&&&&$$$$$$.. ##################################",
"#############################...%%%&&&&&OO&&&&&&&&&O+$$$$$$.. ##################################",
"############################...%%%%&&&&&&&&&&&&&&+OO++$$$$$$.. #########@@@@####@@@@############",
"############################..%%%%%&&&&&&&&&&&&++++++++$$$$$.  #########@@@@####@@@@############",
"############################..%%%%%%&&&&&&&&&&+++++++++$$$$$.  #########@@@@####@@@@############",
"############################..%%%%%OO&&&&&&&&++++++++++$$$$$...#########@@@@####@@@@############",
"############################..%%%%%O&&&&&&&O++++++++++++$$$$   #############@@@@################",
"############################..%%%%%&&&&&&&O+++++++++++++$$$$ . #############@@@@################",
"############################..%%%%%&&&&&OO++++++++++++++$$$$   #############@@@@################",
"############################..%%%%&&&&&O++++++++++++++$$$$$$..##############@@@@################",
"#############################..%%%&&&&OO++++++++++++++$$$$$$..##################################",
"#############################...%%&&&&OO+++++++++++$$$$$$$$..###################################",
"##############################..%$&&&$$$+++++++++++$$$$$$$$..###################################",
"########@@@@####@@@@##########...$$$$$$$$+++++++$$$$$$$$$$..####################################",
"########@@@@####@@@@###########  $$$$$$$$$$$$$$$$$$$$$$$$...####@@@@####@@@@####################",
"########@@@@####@@@@############# .$$$$$$$$$$$$$$$$$$$$$$..#####@@@@####@@@@####################",
"########@@@@####@@@@##############...$$$$$$$$$$$$$$$$$....######@@@@####@@@@####################",
"############@@@@###################........$$$$$$$.......#######@@@@####@@@@####################",
"############@@@@######################.....$$$$$......##############@@@@########################",
"############@@@@#########################..$$$$$..##################@@@@########################",
"############@@@@#########################..$$$$$..##################@@@@########################",
"#########################################..$$$$$..##################@@@@########################",
"#########################################..$$$$$..##############################################",
"@@@@#####################################..$$$$$..######################################@@@@####",
"@@@@#####################################..$$$$$..######################################@@@@####",
"@@@@#####################################..$$$$$..@@####@@@@############################@@@@####",
"@@@@#####################################..$$$$$..@@####@@@@############################@@@@####",
"#########################################..$$$$$..@@####@@@@################################@@@@",
"#########################################..$$$$$..@@####@@@@################################@@@@",
"#########################################..$$$$$..##@@@@####################################@@@@",
"#########################################..$$$$$..##@@@@####################################@@@@",
"#########################################..$$$$$..##@@@@########################################",
"#########################################..$$$$$..##@@@@########################################",
"##############@@@@####@@@@###############..$$$$$..######################@@@@####@@@@############",
"##############@@@@####@@@@###############..$$$$$..######################@@@@####@@@@############",
"##############@@@@####@@@@###############..$$$$$..######################@@@@####@@@@############",
"##############@@@@####@@@@###############..$$$$$..######################@@@@####@@@@############",
"##################@@@@###################..$$$$$..##########################@@@@################",
"##################@@@@###################..$$$$$..##########################@@@@################",
"##################@@@@###################..$$$$$..##########################@@@@################",
"##################@@@@###################..$$$$$................############@@@@################",
"#########################################..$$$$$................ ###############################",
"#########################################..$$$$$%%%%%%%%%%%%%%%%..##############################",
"#########################################..$$$$$%%%%%%%%%%%%%%%%..##############################",
"#########################################..$$$$$$%$$$$$$$$$$$$$$..##############################",
"#########################################..$$$$$$.................##############################",
"#########################################..$$$$$................################################",
"#########################################..$$$$$%%%%%%%%%..#####################################",
"#########################################..$$$$$%%%%%%%%$..#####################################",
"################@@@@####@@@@#############..$$$$$$$$$$$$$$..####@@@@####@@@@#####################",
"################@@@@####@@@@#############..$$$$$...........####@@@@####@@@@#####################",
"################@@@@####@@@@#############..$$$$$.........######@@@@####@@@@#####################",
"################@@@@####@@@@#############..$$$$$..#############@@@@####@@@@#####################",
"####################@@@@#################..$$$$$..#################@@@@#########################",
"####################@@@@#################..$$$$$..#################@@@@#########################",
"####################@@@@#################..$$$$$..#################@@@@#########################",
"####################@@@@#################..$$$$$..#################@@@@#########################",
"################################@@@@#####..$$$$$..#####@@@@#####################################",
"################################@@@@#####..$$$$$..#####@@@@#####################################",
"################################@@@@######.......######@@@@#####################@@@@####@@@@####",
"################################@@@@######.......######@@@@#####################@@@@####@@@@####",
"@@@@####@@@@########################################@@@#########################@@@@####@@@@####",
"@@@@####@@@@##############################ooooooo###@@@#########################@@@@####@@@@####",
"@@@@####@@@@###########################ooooooooooooo@@@#############################@@@@########",
"@@@@####@@@@##########################ooooXXoXXXooooooooooo#########################@@@@########",
"####@@@@#############################ooooXXXXXXXXXXXooooooooo#######################@@@@########",
"####@@@@############################ooooXXXXXXXXXXXXXXXoooooo#######################@@@@########",
"####@@@@############################ooooXXXXXXXXXXXXXXXoooooo###################################",
"####@@@@############################oooooXXXXXXXXXXXooooooo#####################################",
"######################################oooooooXXXooooooo#####@@@@####@@@@########################",
"########################################ooooooooooo#ooo#####@@@@####@@@@########################",
"############@@@@####@@@@#################oooooooooo#########@@@@####@@@@########################",
"############@@@@####@@@@####################################@@@@####@@@@########################"
};
