/* XPM */
static char *xpm_[] = {
/* columns rows colors chars-per-pixel */
"96 96 9 1 ",
"  c #0D0E0D",
". c #25677A",
"X c #259819",
"o c #43D30C",
"O c #367F94",
"+ c #1383A3",
"@ c #3EADCC",
"# c #92C8D7",
"$ c #BBD7DF",
/* pixels */
"ooooooooooooXXXXooooXXXXooooooooooooooooooooooooooooooooooooooooXXXXoooooooooooooooooooooooooooo",
"ooooooooooooXXXXooooXXXXooooooooooooooooooooooooooooooooooooooooXXXXooooooooooooXXXXooooXXXXoooo",
"ooooooooooooooooXXXXooooooooooooooooooooooooooooooooooooooooooooXXXXooooooooooooXXXXooooXXXXoooo",
"ooooooooooooooooXXXXooooooooooooooooooooooooooooooooooooooooooooXXXXooooooooooooXXXXooooXXXXoooo",
"ooooooooooooooooXXXXooooooooooooooooooooooooooooooooooooooooooooooooooooooooooooXXXXooooXXXXoooo",
"ooooooooooooooooXXXXoooooooooooooooooooooooooXXXXooooXXXXoooooooooooooooooooooooooooXXXXoooooooo",
"oooooooooooooooooooooooooooooooooooooooooooooXXXXooooXXXXoooooooooooooooooooooooooooXXXXoooooooo",
"oooooooooooooooooooooooooooooooooooooooooooooXXXXooooXXXXoooooooooooooooooooooooooooXXXXoooooooo",
"oooooooooooooooooooooooooooooooooooooooooooooXXXXXXXXXXXXoooooooooooooooooooooooooooXXXXoooooooo",
"oooooooooooooooooooooooooooooooooooooooooooooooooXXXXooooooooooooooooooooooooooooooooooooooooooo",
"oooooooooooooooooooooooooooooooooooooooooooooooooXXXXooooooooooooooooooooooooooooooooooooooooooo",
"ooooooooXXXXoooooooooooooooooooooooooooooooooooooXXXXooooooooooooooooooooooooooooooooooooooooooo",
"ooooooooXXXXooooXXXXoooooooooooooooooooooooooooooooooooooooooooooooooooooooooooooooooooooooooooo",
"ooooooooXXXXooooXXXXoooooooooooooooooooooooooooooooooooooooooooooooooooooooooooooooooooooooooooo",
"ooooooooXXXXooooXXXXooooooooooooooooooooooooooooooooooooooooooooooooooooooooooooooXXXXoooooooooo",
"ooooooooooooXXXXXXXXooooooooooooooooooooooooooooooooooooooooooooooooooooooooooooooXXXXoooooooooo",
"ooooooooooooXXXXooooooooooooooooooooooooooooooooooooooooooooooooooooooooooooooooooXXXXoooooooooo",
"ooooooooooooXXXXooooooooooooooooooooooooooooooooooooooooooooooooooooooooooooooooooXXXXoooooooooo",
"ooooooooooooXXXXoooooooooooooooooooooooooooooooooooooooooooooooooooooooooooooooooooooooooooooooo",
"oooooooooooooooooooooooooooooooooooooooooooooooooooooooooooooooooooooooooooooooooooooooooooooooo",
"oooooooooooooooooooooooooooo                                        oooooooooooooooooooooooooooo",
"oooooooooooooooooooooooooooo                                        oooooooooooooooooooooooooooo",
"oooooooooooooooooooooooooooo                                        oooooooooooooooooooooooooooo",
"oooooooooooooooooooooooooooo                                        oooooooooooooooooooooooooooo",
"oooooooooooooooooooo        ########################################        oooooooooooooooooooo",
"oooooooooooooooooooo        ########################################        ooooXXXXoooooooooooo",
"oooooooooooooooooooo        ########################################        ooooXXXXoooooooooooo",
"oooooooooooooooooooo        ########################################        ooooXXXXoooooooooooo",
"oooooooooooooooo    ########################################################    XXXXoooooooooooo",
"oooooooooooooooo    ########################################################    oooooooooooooooo",
"oooooooooooooooo    ########################################################    oooooooooooooooo",
"oooooooooooooooo    ########################################################    oooooooooooooooo",
"oooooooooooo    ##############@@@@@@@@@@@@@@@@@@@@@@@@@@@@@@@@@@@@@#############    oooooooooooo",
"oooooooooooo    ##############@@@@@@@@@@@@@@@@@@@@@@@@@@@@@@@@@@@@@@@###########    oooooooooooo",
"oooooooooooo    ###########@@@@@@@@@@@@@@@@@@@@@@@@@@@@@@@@@$$$$$$@@@###########    oooooooooooo",
"oooooooooooo    ##########@@@@@@@@@@@@@@@@@@@@@@@@@@@@@@@@@@$$$$$$$$@@@@########    oooooooooooo",
"ooooooooXXXX    ########@@@@@@@@@@@@@@@@@@@@@@@@@@@@@@@@@@@@$$$$$$$$$$$@@#######    oooooooooooo",
"ooooooooXXXX    #######@@@@@@@@@@@@@@@@@@@@@@@@@@@@@@@@@@@@@@@@@@$$$$$$@@#######    oooooooooooo",
"ooooooooXXXX    ######@@@@@@@@@@@@@@@@@@@@@@@@@@@@@@@@@@@@@@@@@@@@$$$$$@@@######    oooooooooooo",
"ooooooooXXXX    ######@@@@@@@@@@@@@@@@@@@@@@@@@@@@@@@@@@@@@@@@@@@@@@$$$@@@@@####    oooooooooooo",
"oooooooo    ########@@@@@@@@@@@@@@@@@@@@@@@@@@@@@@@@@@@@@@@@@@@@@@@@@@@@@@@@########    oooooooo",
"oooooooo    ########@@@@@@@@@@@@@@@@@@@@@@@@@@@@@@@@@@@@@@@@@@@@@@@@@@@@$$$@@#######    oooooooo",
"oooooooo    ########@@@@@@@@@@@@@@@@@@@@@@@@@@@@@@@@@@@@@@@@@@@@@@@@@@@@$$$@@@######    oooooooo",
"oooooooo    ######@@@@@@@@@@@@@@@@@@@@@@@@@@@@@@@@@@@@@@@@@@@@@@@@@@@@@@$$$$@@@#####    oooooooo",
"oooooooo    #####@@@@@@@@@@@@@@@@@@@@@@@@@@@@@@@@@@@@@@@@@@@@@@@@@@@@@@@@$$$@@@@####    oooooooo",
"oooooooo    #####@@@@@@@@@@@@@@@@@@@@@@@@@@@@@@@@@@@@@@@@@@@@@@@@@@@@@@@@$$$@@@@####    oooooooo",
"XXXXoooo    #####@@@@@@@@@@@@@@@@@@@@@@@@@@@@@@@@@@@@@@@@@@@@@@@@@@@@@@@@@@@@@@@####    XXXXoooo",
"XXXXoooo    ####@@@$$$@@@@@@@@@@@@@@@@@@@@@@@@@@@@@@@@@@@@@@@@@@@@@@@@@@@@@@@@@@####    XXXXoooo",
"XXXXoooo    ####@@@$$$@@@@@@@@@@@@@@@@@@@@@@@@@@@@@@@@@@@@@@@@@@@@@@@@@@@@@@@@@@####    XXXXoooo",
"XXXXoooo    ####@@@$$$@@@@@@@@@@@@@@@@@@@@@@@@@@@@@@@@@@@@@@@@@@@@@@@@@@@@@@@@@@####    XXXXoooo",
"oooooooo    ####@@$$$$@@@@@@@@@@@@@@@@@@@@@@@@@@@@@@@@@@@@@@@@@@@@@@@@@@@@@@@@@@####    ooooXXXX",
"oooooooo    ####@@$$$$@@@@@@@@@@@@@@@@@@@@@@@@@@@@@@@@@@@@@@@@@@@@@@@@@@@@@@@@@@####    ooooXXXX",
"oooooooo    ####@@$$$@@@@@@@@@@@@@@@@@@@@@@@@@@@@@@@@@@@@@@@@@@@@@@@@@@@@@@@@@@@####    ooooXXXX",
"oooooooo    ####@@$$$$@@@@@@@@@@@@@@@@@@@@@@@@@@@@@@@@@@@@@@@@@@@@@@@@@@@@@@@@@@####    ooooXXXX",
"oooooooo    ####@@$$$$@@@@@@@@@@@@@@@@@@@@@@@@@@@@@@@@@@@@@@@@@@@@@@@@@@@@@@@@@@####    oooooooo",
"oooooooo    ####@@@$$$@@@@@@@@@@@@@@@@@@@@@@@@@@@@@@@@@@@@@@@@@@@@@@@@@@@@@@@@@@@@@@    oooooooo",
"oooooooo    @@@@@@@$$$@@@@@@@@@@@@@@@@@@@@@@@@@@@@@@@@@@@@@@@@@@@@@@@@@@@@@@@@@@@@@@    oooooooo",
"oooooooo    @@@@@@@@@@@@@@@@@@@@@@@@@@@@@@@@@@@@@@@@@@@@@@@@@@@@@@@@@@@@@@@@@@@@@@@@    oooooooo",
"oooooooo    @@@@@@@@@@@@@@@@@@@@    @@@@@@@@@@@@@@@@@@@@@@@@    @@@@@@@@@@@@@@@@@@@@    oooooooo",
"oooooooo    @@@@@@@@@@@@@@@@@@@@    @@@@@@@@@@@@@@@@@@@@@@@@    @@@@@@@@@@@@@@@@@@@@    oooooooo",
"oooooooo    @@@@@@@@@@@@@@@@@@@@@@@@@@@@@@@@@@@@@@@@@@@@@@@@@@@@@@@@@@@@@@@@@@@@@@@@    oooooooo",
"oooooooo    @@@@@@@@@@@@@@@@@@@@@@@@@@@@@@@@@@@@@@@@@@@@@@@@@@@@@@@@@@@@@@@@@@@@@@@@    oooooooo",
"oooooooo    @@@@@@@@@@@@@@@@@@@@@@@@@@@@@@@@@@@@@@@@@@@@@@@@@@@@@@@@@@@@@@@@@@@@@@@@    oooooooo",
"oooooooo    @@@@@@@@@@@@@@@@@@@@@@@@@@@@@@@@@@@@@@@@@@@@@@@@@@@@@@@@@@@@@@@@@@@@@@@@    oooooooo",
"oooooooooooo    @@@@@@@@@@@@@@@@@@@@@@@@@@@@@@@@@@@@@@@@@@@@@@@@@@@@@@@@@@@@@@@@    oooooooooooo",
"oooooooooooo    @@@@@@@@@@@@@@@@@@@@@@@@@@@@@@@@@@@@@@@@@@@@@@@@@@@@@@@@@@@@@@@O    oooooooooooo",
"oooooooooooo    O@@@@@@@@@@@@@@@@@@@@@@@@@@@@@@@@@@@@@@@@@@@@@@@@@@@@@@@@@@@@@@O    oooooooooooo",
"oooooooooooo    O@@@@@@@@@@@@@@@@@@@@@@@@@@@@@@@@@@@@@@@@@@@@@@@@@@@@@@@@@@@@@OO    oooooooooooo",
"oooooooooooo    O@@@@@@@@@@@@@@@@@@@@@@@@@@@@@@@@@@@@@@@@@@@@@@@@@@@@@@@@@@@OOOO    oooooooooooo",
"oooooooooooo    OO@@@@@@@@@@@@@@@@@@@@@@@@@@@@@@@@@@@@@@@@@@@@@@@@@@@@@@@@@@OOOO    oooooooooooo",
"oooooooooooo    OOO@@@@@@@@@@@@@@@@@@@@@@@@@@@@@@@@@@@@@@@@@@@@@@@@@@@@@@@OOOOOO    oooooooooooo",
"oooooooooooo    OOOOO@@@@@@@@@@@@@@@@@@@@@@@@@@@@@@@@@@@@@@@@@@@@@@@@@@@@@OOOOOO    oooooooooooo",
"oooooooooooooooo    OO@@@@@@@@@@@@@@@@@@@@@@@@@@@@@@@@@@@@@@@@@@@@@@@@@@@O.O    oooooooooooooooo",
"oooooooooooooooo    OOOO@@@@@@@@@@@@@@@@@@@@@@@@@@@@@@@@@@@@@@@@@@@@@@@OOO.O    oooooooooooooooo",
"oooooooooooooooo    OOOOOOOOOOOOOOO@@@@@@@@@@@@@@@@@@@@@@@@@@@@@@@@@OOOO...O    oooooooooooooooo",
"oooooooooooooooo    OOOOOOOOOOOOOOOOOOOOO@@@@@@@@@@@@@@@OOOOOOO+++OOOOOO...O    oooooooooooooooo",
"oooooooooooooooooooo    OOOOOOOOOOOOOOOOOOOOOOOOOOOOOOOOOOOOOOOOOOOOOOOO    oooooooooooooooooooo",
"oooooooooooooooooooo    OOOOOOOOOOOOOOOOOOOOOOOOOOOOOOOOOOOOOOOOOOOOOOOO    oooooooooooooooooooo",
"oooooooooooooooooooo    OOOOOOOOOOOOOOOOOOOOOOOOOOOOOOOOOOOOOOOOOOOOOOOO    oooooooooooooooooooo",
"oooooooooooooooooooo    OOOOOOOOOOOOOOOOOOOOOOOOOOOOOOOOOOOOOOOOOOOOOOOO    oooooooooooooooooooo",
"oooooooooooooooooooooooo                                                oooooooooooooooooooooooo",
"oooooooooooooooooooooooo                                                oooooooooooooooooooooooo",
"oooooooooooooooooooooooo                                                ooooooooXXXXooooXXXXoooo",
"oooooooooooooooooooooooo                                                ooooooooXXXXooooXXXXoooo",
"XXXXooooXXXXoooooooooooooooooooooooooooooooooooooooXXXXoooooooooooooooooooooooooXXXXooooXXXXoooo",
"XXXXooooXXXXoooooooooooooooooooooooooooooooooooooooXXXXoooooooooooooooooooooooooXXXXooooXXXXoooo",
"XXXXooooXXXXoooooooooooooooooooooooooooooooooooooooXXXXoooooooooooooooooooooooooooooXXXXoooooooo",
"XXXXooooXXXXoooooooooooooooooooooooooooooooooooooooXXXXoooooooooooooooooooooooooooooXXXXoooooooo",
"ooooXXXXooooooooooooooooooooooooooooooooooooooooooooooooooooooooooooooooooooooooooooXXXXoooooooo",
"ooooXXXXooooooooooooooooooooooooooooooooooooooooooooooooooooooooooooooooooooooooooooXXXXoooooooo",
"ooooXXXXoooooooooooooooooooooooooooooooooooooooooooooooooooooooooooooooooooooooooooooooooooooooo",
"ooooXXXXoooooooooooooooooooooooooooooooooooooooooooooooooooooooooooooooooooooooooooooooooooooooo",
"ooooooooooooooooooooooooooooooooooooooooooooooooooooooooooooXXXXooooXXXXoooooooooooooooooooooooo",
"ooooooooooooooooooooooooooooooooooooooooooooooooooooooooooooXXXXooooXXXXoooooooooooooooooooooooo",
"ooooooooooooXXXXooooXXXXooooooooooooooooooooooooooooooooooooXXXXooooXXXXoooooooooooooooooooooooo",
"ooooooooooooXXXXooooXXXXooooooooooooooooooooooooooooooooooooXXXXooooXXXXoooooooooooooooooooooooo"
};
