/* XPM */
static char *xpm_[] = {
/* columns rows colors chars-per-pixel */
"96 96 5 1 ",
"  c #452046",
". c #502051",
"X c #712672",
"o c #259819",
"O c #43D30C",
/* pixels */
"OOOOOOOOOOOOooooOOOOooooOOOOOOOOOOOOOOOOOOOOOOOOOOOOOOOOOOOOOOOOooooOOOOOOOOOOOOOOOOOOOOOOOOOOOO",
"OOOOOOOOOOOOooooOOOOooooOOOOOOOOOOOOOOOOOOOOOOOOOOOOOOOOOOOOOOOOooooOOOOOOOOOOOOooooOOOOooooOOOO",
"OOOOOOOOOOOOOOOOooooOOOOOOOOOOOOOOOOOOOOOOOOOOOO         OOOOOOOooooOOOOOOOOOOOOooooOOOOooooOOOO",
"OOOOOOOOOOOOOOOOooooOOOOOOOOOOOOOOOOOOOOOOOOO             OOOOOOooooOOOOOOOOOOOOOOOOOOOOooooOOOO",
"OOOOOOOOOOOOOOOOooooOOOOOOOOOOOOOOOOOOOOOO                   OOOOOOOOO     OOOOOOOOOOOOOooooOOOO",
"OOOOOOOOOOOOOOOOooooOOOO                                                   OOOOOOOOOOOOOOOOOOOOO",
"OOOOOOOOOOOOOOOOOOOOOO                                                      OOOOOOOOOOOOOOOOOOOO",
"OOOOOOOOOOOOOOOO                                      ..                             OOOOOOOOOOO",
"OOOOOOOOOOOO                  ...XXXXXX              .........     .......            OOOOOOOOOO",
"OOOOOOOOOO                 ......XXXXXXXXX..       .....XXXX...............           OOOOOOOOOO",
"OOOOOOOOOO                ......XXXXXXXXXX...    .......XXXX...............           OOOOOOOOOO",
"OOOOOOOOO             ..........XXXXXXXXXX..............XXXX................          OOOOOOOOOO",
"OOOOOOOOO             ..XXXX....XXXXX..................XXXXX....XXXX.........         OOOOOOOOOO",
"OOOOOOOOO             ..XXXX....XXXX..........XXXX.....XXXXXXXXXXXXX.........          OOOOOOOOO",
"OOOOOOOOO          X....XXXX....XXXX..........XXXX.....XXXXXXXXXXXXX......XXX          OOOOOOOOO",
"OOOOOOOOO         XX....XXXX....XXXX..........XXXX.....XXXXXXXXXXXXX......XXXX         OOOOOOOOO",
"OOOOOOOOO         XX....XXXX..................XXXX.....XXXXXXXXXXXX.......XXXX          OOOOOOOO",
"OOOOOOOOO        XXX....XXXX..................XXXX.....XXXXXXXXXXXX.......XXXX          OOOOOOOO",
"OOOOOOOOO        .......XXXX..................XXXX.....XXXXXXXXX..........XXXX          OOOOOOOO",
"OOOOOOOOO        .......XXXX..................XXXX........................XXXXX         OOOOOOOO",
"OOOOOOOOO        .......XXXX.................XXXXX.......XXXXXX............XXXX.        OOOOOOOO",
"OOOOOOOOO        XXXXXXXXXXX...........XXXXXXXXXXX......XXXXXXX............XXXX.        OOOOOOOO",
"OOOOOOOOO        XXXXXXXXXXX...........XXXXXXXXXXX......XXXXXXX............XXXX.        OOOOOOOO",
"OOOOOOOO        .XXXXXXXXXXX...........XXXXXXXXXX.......XXXXXXX.......XXXXXXXXX.        OOOOOOOO",
"OOOOOOOO        .XXXXXXX...............XXXXXXXXXX.......XXXX......XXXXXXXXXXXXX..       OOOOOOOO",
"OOOOOOOO        ........................................XXXX......XXXXXXXXXXXXX...      OOOOOOOO",
"OOOOOOOO        ...................XXXX.................XXXX......XXXXXXXXXXXXX...      OOOOOOOO",
"OOOOOOOO        ..............XXXXXXXXXXX...............XXXX......XXXX.XXXXXX...         OOOOOOO",
"OOOOOOOO        XXXXX........XXXXXXXXXXXX...............XXXX....................         OOOOOOO",
"OOOOOOOO        XXXXX........XXXXXXXXXXXX...............XXXX....................         OOOOOOO",
"OOOOOOOO        XXXXX........XXXXXXXXXXXX...............XXXX....................         OOOOOOO",
"OOOOOOOO       XXXXXX........XXXX....................XXXXXXXXXXX................         OOOOOOO",
"OOOOOOOO       ..............XXXX....................XXXXXXXXXXX.........XXXXXXX         OOOOOOO",
"OOOOOOOO       .............XXXXX....................XXXXXXXXXXXXXX......XXXXXXXX         OOOOOO",
"OOOOOOO        .............XXXX.....................XXXXXXXXXXXXXX......XXXXXXXXX        OOOOOO",
"OOOOOOO        XX...........XXXX....................XXXXX......XXXX......XXXXXXXXX        OOOOOO",
"OOOOOOO        XX...........XXXX.......XXXX.........XXXX.......XXXX.............XX        OOOOOO",
"OOOOOOO       XXXX.....................XXXX.........XXXX......XXXX..............XX        OOOOOO",
"OOOOOOO       XXXX.....................XXXX.........XXXX......XXXX..............XX        OOOOOO",
"OOOOOOO       XXXX.....................XXXX.........XXXX......XXXX..............XXX       OOOOOO",
"OOOOOOO       XXXX.....................XXXX.........XXXX......XXXXXXXX.............      OOOOOOO",
"OOOOOOO      XXXXX.....................XXXX.........XXXX......XXXXXXXXXXXXXX.......       OOOOOO",
"OOOOOOO.     XXXXX..XXXXX..............XXXXX..................XXXXXXXXXXXXXX......X       OOOOOO",
"OOOOOOO.     XXXXXXXXXXXXXXXX..........XXXXX...................XXXXXXXXXXXXX..XXXXXX      OOOOOO",
"OOOOOOO.    XXXXXXXXXXXXXXXXX...........XXXXXXXXX...................XXXXXXXX..XXXXXX      OOOOOO",
"OOOOOOO     XXXXXXXXXXXXXXXXX...........XXXXXXXXX..........XXXX.XXXXX.........XXXXXX       OOOOO",
"ooOOOOO    .XXXXXXXXXX...XXXX...........XXXXXXXXX.....XXXXXXXXXXXXXXX.........XXXXX.X      OOOOO",
"ooOOOOO    .XXXX...............XXXX.....XXXXXXXXX....XXXXXXXXXXXXXXXX.........XXXX...      OOOOO",
"ooOOOOO    .XXXX...............XXXX.....XXXXX........XXXXXXXXXXXXXXXX.........XXXX...      OOOOO",
"ooOOOO     .XXXX...............XXXX..................XXXXXXXXXXXXXXXX.........XXXX...      OOOOO",
"OOOOOOO    XXXXX...............XXXXX.................XXXX.......XXXXX.........XXXX....     OOOoo",
"OOOOOOO    XXXXX................XXXX............................XXXXX.........XXXX....     OOOoo",
"OOOOOOO    XXXXX................XXXXXXXXXX......................XXXXX.........XXXX....     OOOoo",
"OOOOOOO    XXXXX................XXXXXXXXXXXXXX..................XXXXX.........XXXX....    OOOOoo",
"OOOOOOO    XXXXX.................XXXXXXXXXXXXX..................XXXX..........XXXX....    OOOOOO",
"OOOOOOO    XXX.....XXXXXXXX......XXXXXXXXXXXXX..................XXXX..........XXXX....    OOOOOO",
"OOOOOOO    XXX..XXXXXXXXXXX............XXXXXXX..................XXXX..........XXXX....     OOOOO",
"OOOOOO     XXX..XXXXXXXXXXX........................XXXXXXXX.....XXXX..................     OOOOO",
"OOOOOO     ....XXXXXXXXXXXX.....XXXX.............XXXXXXXXXX.....XXXX..................     OOOOO",
"OOOOOO     ....XXXXX............XXXX.............XXXXXXXXXX......................XXXXX      OOOO",
"OOOOOO    .....XXXX...........XXXXXX.............XXXXXXXXXX......................XXXXX.     OOOO",
"OOOOOO    .....XXXX...........XXXXXX.............XXXXX.XXXX......................XXXXX.     OOOO",
"OOOO      ....XXXX............XXXXX....................XXXX......................XXXXX      OOOO",
"OOOO      ....XXXX............XXXXX....................XXXX.............XXXXXX....XXXX      OOOO",
"OOOO      ....XXXX............XXXXX..................................XXXXXXXXX....XXXX      OOOO",
"OOOO      ....XXXX............XXXXX....XXXX..........................XXXXXXXXXX...XXXX      OOOO",
"OOOO     .....XXXX.............XXXX....XXXXXX........................XXXXXXXXXX...XXXX      OOOO",
"OOOO     ......................XXXX....XXXXXX........................XXXX.XXXXX...XXXX      OOOO",
"OOOO     ......................XXXX....XXXXXX...............XXXX..........XXXXX...XXXX      OOOO",
"OOOO     ..............................XXXXXX...............XXXXX..........XXXX...XXXX      OOOO",
"OOOO      .....XXXXXXXXX...............XXXXXXXXXX...........XXXXX..........XXXX.......      OOOO",
"OOOOO     ...XXXXXXXXXXX...............XXXXXXXXXX...........XXXXX..........XXXX........     OOOO",
"OOOOO     ...XXXXXXXXXXX...............XXXXXXXXXX............XXXXX........XXXXX........     OOOO",
"OOOOO     ...XXXXXXXXXXX...............XXXXXXXXXX............XXXXX........XXXXX........     OOOO",
"OOOOO     ..XXXXXXXXXXXX......................................XXXX........XXXXX.....XXX     OOOO",
"OOOOO     ..XXXXXXXXXXXX......................................XXXX........XXXX......XXX      OOO",
"OOOOO     ..XXXXXXXXXXXX.......XXXX...........................XXXX..................XXX      OOO",
"OOOOO     ..XXXXXX.............XXXX....................XXXXXXXXXXX.................XXXX      OOO",
"OOOO      ..XXXXXX.............XXXX........XXXX........XXXXXXXXXXX.................XXXXX     OOO",
"OOOO     ...XXXXXX.............XXXX........XXXX........XXXXXXXXXXX......XXXX.......XXXXX    OOOO",
"OOOO     ...XXXXXX.............XXXX........XXXX........XXXXXXXXX........XXXX.......XXXXX    OOOO",
"OOOO     ...XXXXXX......XXXXXXXXXXX........XXXXX........................XXXX............    OOOO",
"OOOO     ...XXXXXXX.....XXXXXXXXXXX........XXXXX........................XXXX............    OOOO",
"OOOO      ..XXXXXXX.....XXXXXXXXXXX........XXXXX.XXXX..................XXXXX............    OOOO",
"oooo       .XXXXXXX.....XXXXXXXXXXX.........XXXXXXXXX..................XXXXXXXXXX........   OOOO",
"ooooO      ...XXXXX.............      ......XXXXXXXXX..................XXXXXXXXXX.......    OOOO",
"ooooO      .....     ..........        .....XXXXXXXXX..................XXXXXXXXXX.......     OOO",
"ooooOOO    ....       ........         .....XXXXXXX....................XXXXXXXXXX.......     OOO",
"OOOOooo    .           .....             ...........   .................................    OOOO",
"OOOOooo                ...               ..........      ................................   OOOO",
"OOOOoooo                                   .......         .       ........    ..........  OOOOO",
"OOOOoooo       OOOOO                            ..                   ......    ..........  OOOOO",
"OOOOOOOOOOOOOOOOOOOOO                                                                ..  OOOOOOO",
"OOOOOOOOOOOOOOOOOOOOOOOOOOOOOOOOOOOOOOOO                      oo               O        OOOOOOOO",
"OOOOOOOOOOOOooooOOOOooooOOOOOOOOOOOOOOOOOOOOO           OOOOooooOO         OOOOOOO   OOOOOOOOOOO",
"OOOOOOOOOOOOooooOOOOooooOOOOOOOOOOOOOOOOOOOOOOOOOOOOOOOOOOOOooooOOOOooooOOOOOOOOOOOOOOOOOOOOOOOO"
};
