/* XPM */
static char *xpm_[] = {
/* columns rows colors chars-per-pixel */
"96 96 5 1 ",
"  c #452046",
". c #502051",
"X c #712672",
"o c #259819",
"O c #43D30C",
/* pixels */
"OOOOOOOOOOOOooooOOOOooooOOOOOOOOOOOOOOOOOOOOOOOOOOOOOOOOOOOOOOOOooooOOOOOOOOOOOOOOOOOOOOOOOOOOOO",
"OOOOOOOOOOOOooooOOOOooooOOOOOOOOOOOOOOOOOOOOOOOOOOOO    OOOOOOOOooooOOOOOOOOOOOOooooOOOOooooOOOO",
"OOOOOOOOOOOOOOOOooooOOOOOOOO      OOOOOOOOOO                     oo      OOOOOOOooooOOOOooooOOOO",
"OOOOOOOOOOOOOOOOooooOOOOO                                                    OOOOOOOOOOOooooOOOO",
"OOOOOOOOOOOOOOOOooooO                                                                OOOooooOOOO",
"OOOOOOOOOOOOOOOO                                                                      OOOOOOOOOO",
"OOOOOOOOOOOOOO                                                                         OOOOOOOOO",
"OOOOOOOOOO                                            ..                               OOOOOOOOO",
"OOOOOOO                       ...XXXXXXXXXXX         .........     .......             OOOOOOOOO",
"OOOOOOO                    ......XXXXXXXXXXX       .....XXXX...............            OOOOOOOOO",
"OOOOOOO                   ......XXXXXXXXXXXX.    .......XXXX...............            OOOOOOOOO",
"OOOOOO                ....XXXX..XXXXXXXXXXXX............XXXX................           OOOOOOOOO",
"OOOOOO                ..XXXXXX..XXXXX...XXXX...........XXXXX....XXXXXX.......           OOOOOOOO",
"OOOOOO                ..XXXXXX..XXXX..........XXXXX....XXXXXXXXXXXXXXX.......           OOOOOOOO",
"OOOOOO             XXXX.XXXXXX..XXXX..........XXXXX....XXXXXXXXXXXXXXX....XXXXXX         OOOOOOO",
"OOOOOO            XXXXX.XXXXXX..XXXX..........XXXXX....XXXXXXXXXXXXXXX....XXXXXXX        OOOOOOO",
"OOOOOO            XXXXX.XXXXXX................XXXXX....XXXXXXXXXXXXXXX....XXXXXXX        OOOOOOO",
"OOOOOO           XXXXXX.XXXXXX................XXXXX....XXXXXXXXXXXXXXX....XXXXXXX        OOOOOOO",
"OOOOOO           .......XXXXXX................XXXXX....XXXXXXXXXXXXXX.....XXXXXXX        OOOOOOO",
"OOOOOO           .......XXXXXX................XXXXX............XXXXX......XXXXXXX         OOOOOO",
"OOOOOO           ......XXXXXXX...............XXXXXX......XXXXXX............XXXXXX         OOOOOO",
"OOOOOO           XXXXXXXXXXXXX.........XXXXXXXXXXXX.....XXXXXXX............XXXXXX         OOOOOO",
"OOOOOO           XXXXXXXXXXXXX.........XXXXXXXXXXXX.....XXXXXXX............XXXXXX         OOOOOO",
"OOOOOO          .XXXXXXXXXXXXX.........XXXXXXXXXXXX.....XXXXXXXX......XXXXXXXXXXX         OOOOOO",
"OOOOOO          .XXXXXXXXXXXXX.........XXXXXXXXXXX......XXXXXXXX..XXXXXXXXXXXXXXX          OOOOO",
"OOOOOO          ........................XXXXXXXXX.......XXXXXXXX..XXXXXXXXXXXXXX..         OOOOO",
"OOOOOO          ...................XXXX.................XXXXXXXX..XXXXXXXXXXXXX...         OOOOO",
"OOOOOO          ..............XXXXXXXXXXX...............XXXXXXXX..XXXX.XXXXXXX..           OOOOO",
"OOOOOO          XXXXX........XXXXXXXXXXXX...............XXXXXXXX.......XXXXX....           OOOOO",
"OOOOOO          XXXXXXXX.....XXXXXXXXXXXX...............XXXXXX..................           OOOOO",
"OOOOOO          XXXXXXXX.....XXXXXXXXXXXX...............XXXXXX..................           OOOOO",
"OOOOOO         XXXXXXXXX.....XXXXXXXXXX..............XXXXXXXXXXX................           OOOOO",
"OOOOO          .....XXXX.....XXXXXXXXXX..............XXXXXXXXXXX.........XXXXXXX           OOOOO",
"OOOO           .............XXXXXXXX.................XXXXXXXXXXXXXX......XXXXXXXXXXXX      OOOOO",
"OOOO           .............XXXX.....................XXXXXXXXXXXXXX......XXXXXXXXXXXX      OOOOO",
"OOOO           XX...........XXXX....................XXXXXXX....XXXX......XXXXXXXXXXXX      OOOOO",
"OOOO           XX...........XXXX.......XXXX.........XXXXXXX....XXXX.............XXXXX       OOOO",
"OOOO          XXXX.....................XXXXXX.......XXXXXXX...XXXXXXXX..........XXXXX       OOOO",
"OOOOO         XXXX.....................XXXXXX.......XXXXXXX...XXXXXXXXXXXXXXX...XXXXX       OOOO",
"OOOOO         XXXX.....................XXXXXX.......XXXXXXX...XXXXXXXXXXXXXXX...XXX         OOOO",
"OOOOO         XXXX.....................XXXXXXXX.....XXXXXXX...XXXXXXXXXXXXXXX......         OOOO",
"OOOOO        XXXXX.....................XXXXXXXX.....XXXXXXX...XXXXXXXXXXXXXXX......          OOO",
"OOOOO        XXXXX..XXXXX..............XXXXXXXX...............XXXXXXXXXXXXXXX.....X          OOO",
"OOOOO        XXXXXXXXXXXXXXXX..........XXXXXXXX................XXXXXXXXXXXXXX.XXXXXX         OOO",
"OOOOO       XXXXXXXXXXXXXXXXX...........XXXXXXXXX...................XXXXXXXX..XXXXXXXX       OOO",
"OOOOO       XXXXXXXXXXXXXXXXX...........XXXXXXXXX..........XXXX.XXXXX.........XXXXXXXX       OOO",
"ooOOO      .XXXXXXXXXXXXXXXXX...........XXXXXXXXX.....XXXXXXXXXXXXXXXXXX......XXXXXXXX       OOO",
"ooOOO      .XXXXXXXXXXXXX......XXXX.....XXXXXXXXX....XXXXXXXXXXXXXXXXXXX......XXXXXXXX      OOOO",
"ooOOO      .XXXXXXXXXXXX.......XXXXXX...XXXXX........XXXXXXXXXXXXXXXXXXX......XXXXXXXX      OOOO",
"ooOO       .XXXXXXXX...........XXXXXXX...............XXXXXXXXXXXXXXXXXXX......XXXXXXX       OOOO",
"OOOO       XXXXXXXX............XXXXXXXXX.............XXXX.......XXXXXXXX......XXXXXX..      OOoo",
"OOOO       XXXXXXX..............XXXXXXXXXXXX....................XXXXXXXX......XXXXXXX.      OOoo",
"OOOO       XXXXXXX..............XXXXXXXXXXXX....................XXXXXXXX......XXXXXXX.       Ooo",
"OOOO       XXXXXXX..............XXXXXXXXXXXXXX..................XXXXXXXX......XXXXXXX.       Ooo",
"OOOO       XXXXX.................XXXXXXXXXXXXX.......XXXX.......XXXXXXX.......XXXXXXX.       OOO",
"OOOOO      XXX.....XXXXXXXX......XXXXXXXXXXXXX......XXXXXXX.....XXXXXXX.......XXXXXXX.        OO",
"OOOO       XXX..XXXXXXXXXXX............XXXXXXX......XXXXXXXX....XXXXXXX.......XXXX....        OO",
"OOOO       XXX..XXXXXXXXXXX........................XXXXXXXXX....XXXX..................        OO",
"OOO        ....XXXXXXXXXXXX.....XXXX.............XXXXXXXXXXX....XXXX..................        OO",
"OOO        ....XXXXXXXXX........XXXX.............XXXXXXXXXXX.....................XXXXXXX      OO",
"OOO       .....XXXXXXXXX......XXXXXX.............XXXXXXXXXXX.....................XXXXXXX      OO",
"OOO       .....XXXXXXXXX......XXXXXXX............XXXXX.XXXX......................XXXXXXX      OO",
"OOO       ....XXXXXXXXXX......XXXXXXX..................XXXX.............XXXXXX...XXXXXXX      OO",
"OOOO      ....XXXXXXXXX.......XXXXXXX..................XXXX.............XXXXXXX...XXXXXX     OOO",
"OOOO      ....XXXXXXXX........XXXXXXX................................XXXXXXXXXXX..XXXXX      OOO",
"OOO       ....XXXXXXX.........XXXXXXX..XXXX..........................XXXXXXXXXXX..XXXXX      OOO",
"OOO      .....XXXX.............XXXXXX..XXXXXX........................XXXXXXXXXXX..XXXXX      OOO",
"OOO      ......................XXXX....XXXXXXXXX.....................XXXX.XXXXXX..XXXXX      OOO",
"OOO      ......................XXXX....XXXXXXXXX............XXXX..........XXXXXX..XXXXX       OO",
"OOO      ..............................XXXXXXXXX............XXXXX..........XXXXX..XXXX        OO",
"OOO       .....XXXXXXXXX...............XXXXXXXXXX...........XXXXX..........XXXXX......        OO",
"OOO       ...XXXXXXXXXXX...............XXXXXXXXXX...........XXXXX..........XXXXX.......       OO",
"OOOO      ...XXXXXXXXXXX...............XXXXXXXXXX............XXXXX........XXXXXX.......       OO",
"OOO       ...XXXXXXXXXXX...............XXXXXXXXXX............XXXXX........XXXXX........       OO",
"OOO       ..XXXXXXXXXXXXXX....................................XXXXX.......XXXXX.....XXX       OO",
"OOO       ..XXXXXXXXXXXXXX....................................XXXXX.......XXXX......XXXXXX    OO",
"OOO       ..XXXXXXXXXXXXXX.....XXXX...........................XXXXX.................XXXXXX    OO",
"OOO       ..XXXXXXXXXXXXXX.....XXXX....................XXXXXXXXXXXX................XXXXXXX    OO",
"OOO       ..XXXXXXXXXXXXX......XXXX........XXXX........XXXXXXXXXXXX................XXXXXXX    OO",
"OOO      ...XXXXXXXX...........XXXXXXX.....XXXX........XXXXXXXXXXXX.....XXXX.......XXXXXXX    OO",
"OOO      ...XXXXXXXX...........XXXXXXX.....XXXXXXX.....XXXXXXXXXXXX.....XXXXXX.....XXXXX      OO",
"OOO      ...XXXXXXXX....XXXXXXXXXXXXXX.....XXXXXXXXX........XXXXXXX.....XXXXXX..........      OO",
"OOO      ...XXXXXXXX....XXXXXXXXXXXXXX.....XXXXXXXXX........XXXXX.......XXXXXXXX........      OO",
"OOO       ..XXXXXXX.....XXXXXXXXXXXXXX.....XXXXXXXXXX..................XXXXXXXXX........      OO",
"oooo       .XXXXXXX.....XXXXXXXXXXXXXX......XXXXXXXXX..................XXXXXXXXXX........     OO",
"oooo       ...XXXXX............XXXXXX ......XXXXXXXXX..................XXXXXXXXXX.......      OO",
"oooo       .....     ..........        .....XXXXXXXXX..................XXXXXXXXXX.......      OO",
"oooo         ..       ........         .....XXXXXXX....................XXXXXXXXXX.......      OO",
"OOOOo                  .....             ...........   .................................      OO",
"OOOOo                    .               .                      ..       .............        OO",
"OOOOo                                                                             ...        OOO",
"OOOOooo                                                                                      OOO",
"OOOOOOOOOO                                                                                   OOO",
"OOOOOOOOOOO        OO                                                                      OOOOO",
"OOOOOOOOOOOOooooOOOOooooOOOOOOOOOOO        OO           OOOOooooOO                       OOOOOOO",
"OOOOOOOOOOOOooooOOOOooooOOOOOOOOOOOOOOOOOOOOOOOOOOOOOOOOOOOOooooOOOOooooOOOOOOOOOOOOOOOOOOOOOOOO"
};
