/* XPM */
static char *xpm_[] = {
/* columns rows colors chars-per-pixel */
"96 96 9 1 ",
"  c #3C4D3A",
". c #365832",
"X c #397225",
"o c #416B31",
"O c #576D54",
"+ c #259819",
"@ c #3E9020",
"# c #43D30C",
"$ c #579850",
/* pixels */
"################################################################################################",
"###################   ..    #####################################              ##########+++####",
"###############                ################################                   #######+++####",
"##############                 ##############################                       #####+++####",
"############                       ########################.                        ############",
"##########        ooooooo           #########++++####++++#                            ##########",
"#########      .ooooooooooo          ########++++####++++.           ooo@@oooooo      ##########",
"#######       oooooooooooooooo       .#######++++####++++         oooooo@@@@@@oo        ########",
"######      ..ooooooooooooooooo       .######++++++++++..         oooooo...@@@@oo       ########",
"######    ..oooooooooooooooooooo      .##########++++##.     o    oooo.....@@@@oooo      #######",
"#####    ...ooooooooooooooooooooooo     .########++++##.     oooooo..........@@ooooo      ######",
"#####   ....ooooooooooooooooooooooo     .########++++.       oooo............@@@@oooo     ######",
"####    ......@@ooo+@@@@oooooooooooo     .#########...       ooooo.....@@....@@@@ooooo     #####",
"####   ...........++@@@@@@@@@oooooooo     #########.         ooooo.....@@....@@@@@oooo     #####",
"###    ...........++@@@@@@@@@@oooooooo     .#######.        oooooo...@@@@@@@@@@@@@+ooo      ####",
"###    ...ooo.....++@@@@@@@@@@@@oooooo     .#####.          ooo@@@@@@@@@@@@@@@@ooo++oo      ####",
"##     ..ooooo....@@@@@@@@@@@@@ooooooo.     .####.        ooooo@@@@@@@@@@@@@@@@ooo+++oo      ###",
"##     .@ooooo++@@@@@@@@@@@@@@@ooooooo..     ####.       ooooo@@@@@@@@@@@@@@@@@ooo+++oo      ###",
"##     oooooooo+@@@@@@@@@@@@@@@oooooooo..    ####       ooooo@@@@@@@@@@@@@@@@@@@@@@@@@o      ###",
"#..    oooooooo@@@@@@@@@@@@@ooooooooooo...     ##   .ooooooo@@@@@@@@@@@@@@@@@@@@@@@@@@oo     ###",
"#.     oooooooo@@@@@@@@@@@@@oooooooooooo..     #+   .ooooo@@@@@@@@@@@@.....@@@@@@@@@@@oo      ##",
"#.     ooooooo@@@@@@@@@@@@@@oooooooooooo...     +   .ooooo@@@@@@@@@@@@.....@@@@@......@o      ##",
"#.     oooooo@@@@@@@@@@@@@oooo@@@@oooooo....       .ooooooo@@@@@@@@@@@.....@@@@@......@oo     ##",
"#.    ooooooo@@@@@@@@@@@@ooooooooooooooo.....      .ooooooo@@@@@@@@@@@.....@@@@@......@oo    .##",
"#     ooooooo@@@@@@@@@@@@oooooooooooooooo....      .ooooooo@@@@@@@@@@....@@@@@@@......@@o     ##",
"#     oooooo@@@@@@@@@@...oooooooooooooooo....      .ooooooo@@@@@@@@@@....@@@@@@@@@@@@@@@o     ##",
"#     oooooo@@@@@@@@@@....@@@oooooooooooo....    ...ooooooo@@@@@@@@@@....@@@@@@@@@@@@@@oo      #",
"#     oooooo@@@@@@@@@@....@@@@ooooooooooo....    ....oooo@@@@@@@@@@@@....@@@@@@@@@@@@@@ooo     #",
"#   .oooooo@@@@@@@@@@@....@@@@ooo@ooooooo....    ....oooo@....@@@@@@@@@@@@@@@@@@@@@@...ooo    ##",
"#     ooooo@@@@@@@@@@@@@@@@@@@@@@@@oooooo....   ....oooo@@........@@@@@@@@@@@@@@@@@@......     #",
"#     ooooo@@@@@@@@@@@@@@@@@@@@@@@@oooooo....   ...ooooo@@........@@@@@@@@@@@@@@@@@@......     #",
"#     oo...@@@@@@@@@@@@@@.....@@@@@@oooooo...   ...ooooo@@........@@@@@@@@@@@@@@@@@@......     #",
"#     oo...@@@@@@@@@@@@@@......@++++ooooooo..   ...ooooo@@........@@@@@@@@@@@@@@@@@@@...oo     #",
"#     ooo..@@@@@@@@@@@@@@......@++++ooooooo..   ....oooo@@@@@@@@@@@@@@@@@@@@@@@@@@@@@@oooo   . #",
"#   ooooo..@@@@@@@@@@@@@@......@++++ooooooo..   ....ooooo@@@@@@@@@@@@@@@@@@@@@@@@@@@@@oooo   ..#",
"#    ooooooo@@@@@@@@@@@@@@@....@++++@oooooo..   ....ooooo@@@@@@@@@@@@@@@@@@@@@@@@@@@@@oooo     #",
"#    ooooooo@@@....+@@@@@@@@@@@@@@@@.ooo.....   ....oooooooo@@@@@@@@@@@@@@@@@@@@@@@@@@@ooo     #",
"#    ooooooo@@@....+@@@@@@@@@@@@@@@@.........   ....ooooooooooo@@@@@@@@@@@@@@@@@@@@@@ooooo     #",
"#    ooooooo@@@....+@@@@@@@@@@@@@@@@.........   .....oooooooooo@@@ooo@@@@@@@@@@@@@@@@ooooo     #",
"#.   ooooooo@@@....+@@@@@@@@@@@@@@@ooo.......   .....oooooooooooooooo@@@@@@@@@ooooo@@ooooo     #",
"#.   oooooooo+++@@@@@@@@@@@@@@@@@@@oooooooo..   ....ooooooooooooooooo@@@@@@@@@oooooooo@ooo     #",
"#.   oooooooo+++@@@@@@@@@@@@@@@@@@@oooooooo..   ....ooooooooooooooo@@@@@@@@@@ooooooooo@ooo   ..#",
"#.   oooooooo+++@@@@@....@@@@@@@@@@oooooooo..   ....oooooooooooo@@@@@@@@@@@@@ooo@@oooo@ooo   ..#",
"#.   ooooooooo++@@@@@....@@@@@@@@@@@ooooooo..   ...ooooo@@@@@@@@@@@@@@@ooo@@@ooo@@@@@@oooo    .#",
"#.   ooooooooo@@@@@@@....@@@@@@@@@oooooooo...   ...ooooo@@@@@@@@@@@@@@@ooo@@@@@@@@@@@@oooo     #",
"#.   ooooooooo@@@@@@@....@@@@@@@@@ooooooo....   ...ooooo@@@@@@@@@@@@@@@ooo@@....@@@@@@ooooo    #",
"#.   ooooooo@@@@@@@@@@@@@@@@@oooooooooooo....   .....ooo@@@@@@@@@@@@@@@@@@@@...............    #",
"#.   oooooo.....@@@@@@@@@@@@@oooooo@ooooo....   .....ooo@@@@@@@@@@@@@@@@@@@@...............    #",
"#.    ooooo.....@@@@@@@@@@@@@oooooooooooooo..   ....oooo................@@@@........ooo.....   #",
"#.    ooooo.....@@@@@@@@@@@@@@@@ooooooooooo..   ....ooooo...............@@@@........ooo....    #",
"#     ooooo.....@@@@@@@@@@@@@@@@ooooooooooo..   ....ooooo...............@@@@@@@@@@@oooo.oo     #",
"#     o@ooooo@@@@@@@@@@@@@@@@@@@oooooooooo..    ....oooooo..............@@@@@@@@@@@ooooooo     #",
"#     ooooooo@@@@@@@@@@@@@@@@@@ooooooooooo..   .....oooooo@@@@@@@@@@@@@@@@@@@@@@@@oooooooo     #",
"#     oooooooo@@@@@@@@@@@@@@@@@ooooooooooo..   .....oooooo@@@@@@@@@@@@@....@@@@@@@oooooooo     #",
"#     oooooooo@@@@@@@@@@@@@@@oooooooooooo...   ......oooooo@@@@@@@@@@@.....@@@oooooooooooo     #",
"#     oooooooo@@@@@@@@@@@@@@@oooooooooooo..    ......oooooo@@@@@@@@@@@.....@@ooooo@ooooooo     #",
"##    oooooooo@@@@@@@@@@@@@@@ooooooooooo...    ......oooooo@@@@@@@@@@@.....+ooooooooooooo      #",
"#     ooooooooo@@@@@@@@@@@@@@@@@@@ooooo....    ......oooooo@@....@@@@@.....oooooooooooooo      #",
"#     o..oooooo@@@@@@@@@@@...........@@....     .....ooooooooo...@@@@@@@++oooooooooooooo       #",
"#     ....ooooooo@@@@@@@@@..........ooo....     ....oooooooooo...@@@@@@ooooooooooooooooo      ##",
"#     ....ooooooo@@@@@@@@@.........oooo....     ....oooooooooo..oooooooooooooooooooooooo      ##",
"#      .....oooooo@@@@@@@@........ooooo......   ....ooooooooooooooooooooooooooooooooooo    .. ##",
"#       ooooooooooo@@@@@@@@@@@@@oooooo.......   .....oooooooooooooooooooooooooooooooooo       ##",
"#       ooooooooooooooooo@@ooooooooooo.......   .....oooooooooooo@@@ooooooooooooooooooo      ###",
"##      ooooooooooooooooooooooooooooo........   .....oooooooooooo@@ooooooooooooooooooo       ###",
"##      oooooooooooooooooooooooooooo.........   ........ooooooooooooooooooooooooooo..       ####",
"##      oooooooooooooooooooooooooooo........    ..........oooooooooooo@@ooooo...ooo..       ####",
"##       ooooooooooooooooooooooooooo........    O.........ooooooooooo@@oooo.....ooo..       ####",
"###      ooooooooooooooooooooooooooo.......     OO........ooooooooooo@@oooo.....ooo...      ####",
"###      ooooo.........oooooooooooo........    ###..........oooo@@@@@oooooo....oooo..      #####",
"###     .ooooo.........oooooooooooo.......     ###..........ooooooooooooooooooooooo..     ######",
"###     .ooooo........oooo@ooooo........     .O####$..........oooooooooooooooooooo...    #######",
"####     ..oooooooo...oooooooooo.......      .######..........ooooooooooooooooo......    #######",
"####      ...oooooooooooooooooo........     #########$$.........ooooooooooooooo...      .#######",
"######     ..ooooooooooooooooo........     .#########$$.........ooooooooooooooo...      .#######",
"######      .ooooooooooooooooo.......     ..#########$$...........ooooooooooooo...     #########",
"######$       ..oooooooooooo.........    .$$$O$$$$$$$OOOO.............ooooooo....      #########",
"######$        .oooooooooooo.........   OO$$$$$$$$$$$$$OO.......................       #########",
"########       ...oooo..............    OO$$$$$$$O$$O$$OOOO.....................       O$$$#####",
"########$      ...............XXXX..    OOOOO$$OOOOOOOOOOOOOO...................     .O$$OO$####",
"########$      ...............XXXX..     OOOO$$OOOOOOOOOOOOOO   ...XXXX.....XXXXX    .O$$OOO$###",
"#######$$$    .......XXXXX....XXXXX.      OOO$$$$OO$$OOOOOO.    ...XXXX.....XXXXX     OOOOOO$###",
"######OOO.    XX.....XXXXX....XXXXX..      OOOO$$OO$$OOOOO..    XXXXXXX.....XXXXXX     OOOOOOO##",
"######$OO.   XXX.....XXXXXXXXX.XXXX...      OOOOOOOOOOOOO..    XXXXXXXXXX...XXXXXXX     OOOOOOO#",
"####O$$OO    XXX.....XXXXXXXXXXXXXX....       OOOOOOOOO        XXXX.XXXXX.......XXXX    .OOOOOO#",
"####OOOO    XXXX..........XXXXXX........      OOOOOOOO        .XXXX.XXXXXXXXX...XXXXX     OOOOO#",
"##OOOOOO    XXX...XXXX....XXXXXXX........       OOOOO      XXXXXXXX.XXXXXXXXX...XXXXX..   OOOOO#",
"##OOOO..    XXX...XXXX....XXXXXXX..........     OOO.      .XXXXX......   XXXXXXXX......    OOOO#",
"##OOO      XXXX...XXXX......XXXXX...    ....     OO.    ...XXXXX......   XXXXX   ...        OOO#",
"#OOO    .XXXXXX...XXXX.....    XX...    .....           ...XXXXX....     ....X                 #",
"##.       XXXX.......           ...      ...                 .           .   X                 #",
"#         ........                                                     O..    ..O              #",
"#          .                                                          OO..    .                #",
"#          O         ..OOOO....       .          OO.......         .OOOOOO    .         OOOOO###",
"#####      O        .OOOOOOO.OO      OOOOOOOOOOOOOOOOOOOOOOOOO..OOOOO#####   ##       OOOO######",
"######################################################################################O#########"
};
